corentinberge/project_M2/Robot/Yaskawa/Code/src/identification_YASKAWA/All_positiondata_file.txt
q1	q2	q3	q4	q5	q6
0.7853981633974483	0.7853981633974483	1.69297	0.7853981633974483	-1.98968	0.959931	0.0	0.0	0.0	0.0	0.0	0.0	0.0	0.0	0.0	0.0	0.0	0.0
0.7853963418727657	0.7853981633974483	1.69297	0.7853981633974483	-1.98968	0.959931	-0.0013619155325948434	0.0	0.0	0.0	0.0	0.0	-0.676735024201248	0.0	0.0	0.0	0.0	0.0
0.7853837261601448	0.7853981633974483	1.69297	0.7853981633974483	-1.98968	0.959931	-0.005380307744731834	0.0	0.0	0.0	0.0	0.0	-1.328290711743884	0.0	0.0	0.0	0.0	0.0
0.7853498909496092	0.7853981633974483	1.69297	0.7853981633974483	-1.98968	0.959931	-0.01195508775345025	0.0	0.0	0.0	0.0	0.0	-1.9549812944647706	0.0	0.0	0.0	0.0	0.0
0.7852848087728593	0.7853981633974483	1.69297	0.7853981633974483	-1.98968	0.959931	-0.02098742360313682	0.0	0.0	0.0	0.0	0.0	-2.5571210042007717	0.0	0.0	0.0	0.0	0.0
0.785178844975564	0.7853981633974483	1.69297	0.7853981633974483	-1.98968	0.959931	-0.03237974026552573	0.0	0.0	0.0	0.0	0.0	-3.1350240727887484	0.0	0.0	0.0	0.0	0.0
0.7850227526896496	0.7853981633974483	1.69297	0.7853981633974483	-1.98968	0.959931	-0.046035719639698595	0.0	0.0	0.0	0.0	0.0	-3.689004732065565	0.0	0.0	0.0	0.0	0.0
0.7848076678055922	0.7853981633974483	1.69297	0.7853981633974483	-1.98968	0.959931	-0.061860300552084524	0.0	0.0	0.0	0.0	0.0	-4.219377213868083	0.0	0.0	0.0	0.0	0.0
0.784525103944707	0.7853981633974483	1.69297	0.7853981633974483	-1.98968	0.959931	-0.07975967875646	0.0	0.0	0.0	0.0	0.0	-4.726455750033165	0.0	0.0	0.0	0.0	0.0
0.7841669474314398	0.7853981633974483	1.69297	0.7853981633974483	-1.98968	0.959931	-0.09964130693394908	0.0	0.0	0.0	0.0	0.0	-5.210554572397676	0.0	0.0	0.0	0.0	0.0
0.7837254522656568	0.7853981633974483	1.69297	0.7853981633974483	-1.98968	0.959931	-0.1214138946930232	0.0	0.0	0.0	0.0	0.0	-5.671987912798476	0.0	0.0	0.0	0.0	0.0
0.7831932350949359	0.7853981633974483	1.69297	0.7853981633974483	-1.98968	0.959931	-0.14498740856950115	0.0	0.0	0.0	0.0	0.0	-6.11107000307243	0.0	0.0	0.0	0.0	0.0
0.7825632701868568	0.7853981633974483	1.69297	0.7853981633974483	-1.98968	0.959931	-0.17027307202654934	0.0	0.0	0.0	0.0	0.0	-6.528115075056398	0.0	0.0	0.0	0.0	0.0
0.7818288844012921	0.7853981633974483	1.69297	0.7853981633974483	-1.98968	0.959931	-0.19718336545468154	0.0	0.0	0.0	0.0	0.0	-6.923437360587245	0.0	0.0	0.0	0.0	0.0
0.7809837521626976	0.7853981633974483	1.69297	0.7853981633974483	-1.98968	0.959931	-0.225632026171759	0.0	0.0	0.0	0.0	0.0	-7.297351091501833	0.0	0.0	0.0	0.0	0.0
0.7800218904324027	0.7853981633974483	1.69297	0.7853981633974483	-1.98968	0.959931	-0.25553404842299043	0.0	0.0	0.0	0.0	0.0	-7.650170499637026	0.0	0.0	0.0	0.0	0.0
0.7789376536809015	0.7853981633974483	1.69297	0.7853981633974483	-1.98968	0.959931	-0.2868056833809319	0.0	0.0	0.0	0.0	0.0	-7.982209816829683	0.0	0.0	0.0	0.0	0.0
0.7777257288601431	0.7853981633974483	1.69297	0.7853981633974483	-1.98968	0.959931	-0.31936443914548707	0.0	0.0	0.0	0.0	0.0	-8.29378327491667	0.0	0.0	0.0	0.0	0.0
0.7763811303758225	0.7853981633974483	1.69297	0.7853981633974483	-1.98968	0.959931	-0.3531290807439069	0.0	0.0	0.0	0.0	0.0	-8.58520510573485	0.0	0.0	0.0	0.0	0.0
0.7748991950596706	0.7853981633974483	1.69297	0.7853981633974483	-1.98968	0.959931	-0.38801963013078994	0.0	0.0	0.0	0.0	0.0	-8.856789541121087	0.0	0.0	0.0	0.0	0.0
0.7732755771417458	0.7853981633974483	1.69297	0.7853981633974483	-1.98968	0.959931	-0.4239573661880822	0.0	0.0	0.0	0.0	0.0	-9.108850812912237	0.0	0.0	0.0	0.0	0.0
0.7715062432227232	0.7853981633974483	1.69297	0.7853981633974483	-1.98968	0.959931	-0.46086482472507695	0.0	0.0	0.0	0.0	0.0	-9.341703152945168	0.0	0.0	0.0	0.0	0.0
0.7695874672461867	0.7853981633974483	1.69297	0.7853981633974483	-1.98968	0.959931	-0.4986657984784151	0.0	0.0	0.0	0.0	0.0	-9.55566079305674	0.0	0.0	0.0	0.0	0.0
0.7675158254709188	0.7853981633974483	1.69297	0.7853981633974483	-1.98968	0.959931	-0.5372853371120849	0.0	0.0	0.0	0.0	0.0	-9.751037965083823	0.0	0.0	0.0	0.0	0.0
0.7652881914431912	0.7853981633974483	1.69297	0.7853981633974483	-1.98968	0.959931	-0.5766497472174221	0.0	0.0	0.0	0.0	0.0	-9.92814890086327	0.0	0.0	0.0	0.0	0.0
0.7629017309690557	0.7853981633974483	1.69297	0.7853981633974483	-1.98968	0.959931	-0.6166865923131102	0.0	0.0	0.0	0.0	0.0	-10.08730783223195	0.0	0.0	0.0	0.0	0.0
0.7603538970866347	0.7853981633974483	1.69297	0.7853981633974483	-1.98968	0.959931	-0.6573246928451794	0.0	0.0	0.0	0.0	0.0	-10.228828991026724	0.0	0.0	0.0	0.0	0.0
0.7576424250384115	0.7853981633974483	1.69297	0.7853981633974483	-1.98968	0.959931	-0.6984941261870079	0.0	0.0	0.0	0.0	0.0	-10.353026609084454	0.0	0.0	0.0	0.0	0.0
0.7547653272435213	0.7853981633974483	1.69297	0.7853981633974483	-1.98968	0.959931	-0.7401262266393214	0.0	0.0	0.0	0.0	0.0	-10.460214918242007	0.0	0.0	0.0	0.0	0.0
0.7517208882700422	0.7853981633974483	1.69297	0.7853981633974483	-1.98968	0.959931	-0.782153585430193	0.0	0.0	0.0	0.0	0.0	-10.550708150336236	0.0	0.0	0.0	0.0	0.0
0.7485076598072846	0.7853981633974483	1.69297	0.7853981633974483	-1.98968	0.959931	-0.8245100507150429	0.0	0.0	0.0	0.0	0.0	-10.624820537204013	0.0	0.0	0.0	0.0	0.0
0.7451244556380829	0.7853981633974483	1.69297	0.7853981633974483	-1.98968	0.959931	-0.867130727576639	0.0	0.0	0.0	0.0	0.0	-10.682866310682197	0.0	0.0	0.0	0.0	0.0
0.7415703466110858	0.7853981633974483	1.69297	0.7853981633974483	-1.98968	0.959931	-0.9099519780250971	0.0	0.0	0.0	0.0	0.0	-10.725159702607648	0.0	0.0	0.0	0.0	0.0
0.7378446556130466	0.7853981633974483	1.69297	0.7853981633974483	-1.98968	0.959931	-0.9529114209978791	0.0	0.0	0.0	0.0	0.0	-10.752014944817237	0.0	0.0	0.0	0.0	0.0
0.733946952541114	0.7853981633974483	1.69297	0.7853981633974483	-1.98968	0.959931	-0.9959479323597963	0.0	0.0	0.0	0.0	0.0	-10.76374626914782	0.0	0.0	0.0	0.0	0.0
0.7298770492751232	0.7853981633974483	1.69297	0.7853981633974483	-1.98968	0.959931	-1.0390016449030057	0.0	0.0	0.0	0.0	0.0	-10.760667907436265	0.0	0.0	0.0	0.0	0.0
0.7256349946498858	0.7853981633974483	1.69297	0.7853981633974483	-1.98968	0.959931	-1.0820139483470126	0.0	0.0	0.0	0.0	0.0	-10.74309409151943	0.0	0.0	0.0	0.0	0.0
0.7212210694274803	0.7853981633974483	1.69297	0.7853981633974483	-1.98968	0.959931	-1.12492748933867	0.0	0.0	0.0	0.0	0.0	-10.711339053234175	0.0	0.0	0.0	0.0	0.0
0.7166357812695441	0.7853981633974483	1.69297	0.7853981633974483	-1.98968	0.959931	-1.1676861714521773	0.0	0.0	0.0	0.0	0.0	-10.665717024417365	0.0	0.0	0.0	0.0	0.0
0.7118798597095619	0.7853981633974483	1.69297	0.7853981633974483	-1.98968	0.959931	-1.2102351551890826	0.0	0.0	0.0	0.0	0.0	-10.60654223690587	0.0	0.0	0.0	0.0	0.0
0.7069542511251583	0.7853981633974483	1.69297	0.7853981633974483	-1.98968	0.959931	-1.2525208579782807	0.0	0.0	0.0	0.0	0.0	-10.534128922536546	0.0	0.0	0.0	0.0	0.0
0.7018601137103876	0.7853981633974483	1.69297	0.7853981633974483	-1.98968	0.959931	-1.294490954176014	0.0	0.0	0.0	0.0	0.0	-10.448791313146256	0.0	0.0	0.0	0.0	0.0
0.6965988124480242	0.7853981633974483	1.69297	0.7853981633974483	-1.98968	0.959931	-1.336094375065872	0.0	0.0	0.0	0.0	0.0	-10.350843640571867	0.0	0.0	0.0	0.0	0.0
0.6911719140818533	0.7853981633974483	1.69297	0.7853981633974483	-1.98968	0.959931	-1.3772813088587925	0.0	0.0	0.0	0.0	0.0	-10.240600136650235	0.0	0.0	0.0	0.0	0.0
0.6855811820889621	0.7853981633974483	1.69297	0.7853981633974483	-1.98968	0.959931	-1.4180032006930599	0.0	0.0	0.0	0.0	0.0	-10.118375033218229	0.0	0.0	0.0	0.0	0.0
0.6798285716520296	0.7853981633974483	1.69297	0.7853981633974483	-1.98968	0.959931	-1.4582127526343072	0.0	0.0	0.0	0.0	0.0	-9.984482562112703	0.0	0.0	0.0	0.0	0.0
0.6739162246316178	0.7853981633974483	1.69297	0.7853981633974483	-1.98968	0.959931	-1.4978639236755131	0.0	0.0	0.0	0.0	0.0	-9.839236955170529	0.0	0.0	0.0	0.0	0.0
0.667846464538462	0.7853981633974483	1.69297	0.7853981633974483	-1.98968	0.959931	-1.5369119297370046	0.0	0.0	0.0	0.0	0.0	-9.682952444228572	0.0	0.0	0.0	0.0	0.0
0.6616217915057613	0.7853981633974483	1.69297	0.7853981633974483	-1.98968	0.959931	-1.575313243666458	0.0	0.0	0.0	0.0	0.0	-9.51594326112368	0.0	0.0	0.0	0.0	0.0
0.6552448772614697	0.7853981633974483	1.69297	0.7853981633974483	-1.98968	0.959931	-1.6130255952388926	0.0	0.0	0.0	0.0	0.0	-9.338523637692733	0.0	0.0	0.0	0.0	0.0
0.6487185601005864	0.7853981633974483	1.69297	0.7853981633974483	-1.98968	0.959931	-1.650007971156681	0.0	0.0	0.0	0.0	0.0	-9.151007805772576	0.0	0.0	0.0	0.0	0.0
0.6420458398574462	0.7853981633974483	1.69297	0.7853981633974483	-1.98968	0.959931	-1.6862206150495371	0.0	0.0	0.0	0.0	0.0	-8.95370999720009	0.0	0.0	0.0	0.0	0.0
0.6352298728780106	0.7853981633974483	1.69297	0.7853981633974483	-1.98968	0.959931	-1.7216250274745273	0.0	0.0	0.0	0.0	0.0	-8.746944443812119	0.0	0.0	0.0	0.0	0.0
0.6282739669921581	0.7853981633974483	1.69297	0.7853981633974483	-1.98968	0.959931	-1.7561839659160627	0.0	0.0	0.0	0.0	0.0	-8.531025377445548	0.0	0.0	0.0	0.0	0.0
0.6211815764859744	0.7853981633974483	1.69297	0.7853981633974483	-1.98968	0.959931	-1.7898614447859023	0.0	0.0	0.0	0.0	0.0	-8.306267029937217	0.0	0.0	0.0	0.0	0.0
0.6139562970740444	0.7853981633974483	1.69297	0.7853981633974483	-1.98968	0.959931	-1.8226227354231546	0.0	0.0	0.0	0.0	0.0	-8.072983633124004	0.0	0.0	0.0	0.0	0.0
0.6066018608717408	0.7853981633974483	1.69297	0.7853981633974483	-1.98968	0.959931	-1.8544343660942704	0.0	0.0	0.0	0.0	0.0	-7.83148941884277	0.0	0.0	0.0	0.0	0.0
0.5991221313675167	0.7853981633974483	1.69297	0.7853981633974483	-1.98968	0.959931	-1.885264121993055	0.0	0.0	0.0	0.0	0.0	-7.582098618930374	0.0	0.0	0.0	0.0	0.0
0.5915210983951948	0.7853981633974483	1.69297	0.7853981633974483	-1.98968	0.959931	-1.9150810452406546	0.0	0.0	0.0	0.0	0.0	-7.325125465223676	0.0	0.0	0.0	0.0	0.0
0.5838028731062584	0.7853981633974483	1.69297	0.7853981633974483	-1.98968	0.959931	-1.9438554348855677	0.0	0.0	0.0	0.0	0.0	-7.060884189559548	0.0	0.0	0.0	0.0	0.0
0.5759716829421428	0.7853981633974483	1.69297	0.7853981633974483	-1.98968	0.959931	-1.971558846903637	0.0	0.0	0.0	0.0	0.0	-6.78968902377485	0.0	0.0	0.0	0.0	0.0
0.5680318666065244	0.7853981633974483	1.69297	0.7853981633974483	-1.98968	0.959931	-1.9981640941980552	0.0	0.0	0.0	0.0	0.0	-6.5118541997064305	0.0	0.0	0.0	0.0	0.0
0.5599878690376127	0.7853981633974483	1.69297	0.7853981633974483	-1.98968	0.959931	-2.0236452465993593	0.0	0.0	0.0	0.0	0.0	-6.2276939491911705	0.0	0.0	0.0	0.0	0.0
0.55184423638044	0.7853981633974483	1.69297	0.7853981633974483	-1.98968	0.959931	-2.047977630865438	0.0	0.0	0.0	0.0	0.0	-5.937522504065916	0.0	0.0	0.0	0.0	0.0
0.5436056109591526	0.7853981633974483	1.69297	0.7853981633974483	-1.98968	0.959931	-2.0711378306815234	0.0	0.0	0.0	0.0	0.0	-5.641654096167542	0.0	0.0	0.0	0.0	0.0
0.535276726249301	0.7853981633974483	1.69297	0.7853981633974483	-1.98968	0.959931	-2.093103686660196	0.0	0.0	0.0	0.0	0.0	-5.3404029573329215	0.0	0.0	0.0	0.0	0.0
0.5268624018501311	0.7853981633974483	1.69297	0.7853981633974483	-1.98968	0.959931	-2.113854296341386	0.0	0.0	0.0	0.0	0.0	-5.034083319398894	0.0	0.0	0.0	0.0	0.0
0.5183675384568737	0.7853981633974483	1.69297	0.7853981633974483	-1.98968	0.959931	-2.133370014192371	0.0	0.0	0.0	0.0	0.0	-4.723009414202336	0.0	0.0	0.0	0.0	0.0
0.5097971128330362	0.7853981633974483	1.69297	0.7853981633974483	-1.98968	0.959931	-2.151632451607771	0.0	0.0	0.0	0.0	0.0	-4.407495473580099	0.0	0.0	0.0	0.0	0.0
0.5011561727826931	0.7853981633974483	1.69297	0.7853981633974483	-1.98968	0.959931	-2.1686244769095593	0.0	0.0	0.0	0.0	0.0	-4.087855729369064	0.0	0.0	0.0	0.0	0.0
0.4924498321227757	0.7853981633974483	1.69297	0.7853981633974483	-1.98968	0.959931	-2.184330215347055	0.0	0.0	0.0	0.0	0.0	-3.764404413406087	0.0	0.0	0.0	0.0	0.0
0.48368326565536357	0.7853981633974483	1.69297	0.7853981633974483	-1.98968	0.959931	-2.198735049096922	0.0	0.0	0.0	0.0	0.0	-3.43745575752801	0.0	0.0	0.0	0.0	0.0
0.4748617041399753	0.7853981633974483	1.69297	0.7853981633974483	-1.98968	0.959931	-2.211825617263175	0.0	0.0	0.0	0.0	0.0	-3.1073239935717396	0.0	0.0	0.0	0.0	0.0
0.4659904292658579	0.7853981633974483	1.69297	0.7853981633974483	-1.98968	0.959931	-2.2235898158771734	0.0	0.0	0.0	0.0	0.0	-2.774323353374097	0.0	0.0	0.0	0.0	0.0
0.4570747686242793	0.7853981633974483	1.69297	0.7853981633974483	-1.98968	0.959931	-2.234016797897628	0.0	0.0	0.0	0.0	0.0	-2.438768068771953	0.0	0.0	0.0	0.0	0.0
0.4481200906808169	0.7853981633974483	1.69297	0.7853981633974483	-1.98968	0.959931	-2.2430969732105908	0.0	0.0	0.0	0.0	0.0	-2.100972371602179	0.0	0.0	0.0	0.0	0.0
0.43913179974765004	0.7853981633974483	1.69297	0.7853981633974483	-1.98968	0.959931	-2.2508220086294717	0.0	0.0	0.0	0.0	0.0	-1.7612504937016276	0.0	0.0	0.0	0.0	0.0
0.4301153309558491	0.7853981633974483	1.69297	0.7853981633974483	-1.98968	0.959931	-2.257184827895013	0.0	0.0	0.0	0.0	0.0	-1.4199166669071985	0.0	0.0	0.0	0.0	0.0
0.42107614522766706	0.7853981633974483	1.69297	0.7853981633974483	-1.98968	0.959931	-2.262179611675319	0.0	0.0	0.0	0.0	0.0	-1.0772851230556952	0.0	0.0	0.0	0.0	0.0
0.4120197242488296	0.7853981633974483	1.69297	0.7853981633974483	-1.98968	0.959931	-2.2658017975658304	0.0	0.0	0.0	0.0	0.0	-0.7336700939840348	0.0	0.0	0.0	0.0	0.0
0.40295156544082655	0.7853981633974483	1.69297	0.7853981633974483	-1.98968	0.959931	-2.2680480800893474	0.0	0.0	0.0	0.0	0.0	-0.3893858115290385	0.0	0.0	0.0	0.0	0.0
0.3938771769332008	0.7853981633974483	1.69297	0.7853981633974483	-1.98968	0.959931	-2.2689164106960042	0.0	0.0	0.0	0.0	0.0	-0.044746507527584356	0.0	0.0	0.0	0.0	0.0
0.38480207253584103	0.7853981633974483	1.69297	0.7853981633974483	-1.98968	0.959931	-2.2684059977632884	0.0	0.0	0.0	0.0	0.0	0.29993358618344956	0.0	0.0	0.0	0.0	0.0
0.37573176671127084	0.7853981633974483	1.69297	0.7853981633974483	-1.98968	0.959931	-2.266517306596039	0.0	0.0	0.0	0.0	0.0	0.6443402377672172	0.0	0.0	0.0	0.0	0.0
0.36667176954693936	0.7853981633974483	1.69297	0.7853981633974483	-1.98968	0.959931	-2.2632520594264354	0.0	0.0	0.0	0.0	0.0	0.9881592153868439	0.0	0.0	0.0	0.0	0.0
0.3576275817275129	0.7853981633974483	1.69297	0.7853981633974483	-1.98968	0.959931	-2.258613235414011	0.0	0.0	0.0	0.0	0.0	1.3310762872054696	0.0	0.0	0.0	0.0	0.0
0.3486046895071653	0.7853981633974483	1.69297	0.7853981633974483	-1.98968	0.959931	-2.252605070645643	0.0	0.0	0.0	0.0	0.0	1.6727772213862622	0.0	0.0	0.0	0.0	0.0
0.33960855968186676	0.7853981633974483	1.69297	0.7853981633974483	-1.98968	0.959931	-2.2452330581355526	0.0	0.0	0.0	0.0	0.0	2.012947786092319	0.0	0.0	0.0	0.0	0.0
0.3306446345616777	0.7853981633974483	1.69297	0.7853981633974483	-1.98968	0.959931	-2.236503947825318	0.0	0.0	0.0	0.0	0.0	2.3512737494867935	0.0	0.0	0.0	0.0	0.0
0.32171832694303604	0.7853981633974483	1.69297	0.7853981633974483	-1.98968	0.959931	-2.2264257465838573	0.0	0.0	0.0	0.0	0.0	2.6874408797328257	0.0	0.0	0.0	0.0	0.0
0.3128350150810502	0.7853981633974483	1.69297	0.7853981633974483	-1.98968	0.959931	-2.215007718207438	0.0	0.0	0.0	0.0	0.0	3.0211349449935554	0.0	0.0	0.0	0.0	0.0
0.3040000376617883	0.7853981633974483	1.69297	0.7853981633974483	-1.98968	0.959931	-2.2022603834196706	0.0	0.0	0.0	0.0	0.0	3.352041713432108	0.0	0.0	0.0	0.0	0.0
0.2952186887745701	0.7853981633974483	1.69297	0.7853981633974483	-1.98968	0.959931	-2.1881955198715266	0.0	0.0	0.0	0.0	0.0	3.679846953211616	0.0	0.0	0.0	0.0	0.0
0.2864962128842559	0.7853981633974483	1.69297	0.7853981633974483	-1.98968	0.959931	-2.1728261621413085	0.0	0.0	0.0	0.0	0.0	4.004236432495226	0.0	0.0	0.0	0.0	0.0
0.27783779980353834	0.7853981633974483	1.69297	0.7853981633974483	-1.98968	0.959931	-2.1561666017346734	0.0	0.0	0.0	0.0	0.0	4.324895919446071	0.0	0.0	0.0	0.0	0.0
0.26924857966523313	0.7853981633974483	1.69297	0.7853981633974483	-1.98968	0.959931	-2.138232387084633	0.0	0.0	0.0	0.0	0.0	4.641511182227319	0.0	0.0	0.0	0.0	0.0
0.26073361789456884	0.7853981633974483	1.69297	0.7853981633974483	-1.98968	0.959931	-2.1190403235515323	0.0	0.0	0.0	0.0	0.0	4.953767989002074	0.0	0.0	0.0	0.0	0.0
0.25229791018147796	0.7853981633974483	1.69297	0.7853981633974483	-1.98968	0.959931	-2.0986084734230728	0.0	0.0	0.0	0.0	0.0	5.261352107933469	0.0	0.0	0.0	0.0	0.0
0.2439463774528881	0.7853981633974483	1.69297	0.7853981633974483	-1.98968	0.959931	-2.076956155914302	0.0	0.0	0.0	0.0	0.0	5.563949307184643	0.0	0.0	0.0	0.0	0.0
0.2356838608450112	0.7853981633974483	1.69297	0.7853981633974483	-1.98968	0.959931	-2.0541039471676212	0.0	0.0	0.0	0.0	0.0	5.861245354918772	0.0	0.0	0.0	0.0	0.0
0.22751511667563484	0.7853981633974483	1.69297	0.7853981633974483	-1.98968	0.959931	-2.0300736802527615	0.0	0.0	0.0	0.0	0.0	6.15292601929896	0.0	0.0	0.0	0.0	0.0
0.21944481141641353	0.7853981633974483	1.69297	0.7853981633974483	-1.98968	0.959931	-2.004888445166812	0.0	0.0	0.0	0.0	0.0	6.438677068488339	0.0	0.0	0.0	0.0	0.0
0.21147751666515924	0.7853981633974483	1.69297	0.7853981633974483	-1.98968	0.959931	-1.9785725888342212	0.0	0.0	0.0	0.0	0.0	6.718184270650035	0.0	0.0	0.0	0.0	0.0
0.2036177041181299	0.7853981633974483	1.69297	0.7853981633974483	-1.98968	0.959931	-1.9511517151067652	0.0	0.0	0.0	0.0	0.0	6.991133393947237	0.0	0.0	0.0	0.0	0.0
0.19586974054232265	0.7853981633974483	1.69297	0.7853981633974483	-1.98968	0.959931	-1.9226526847635785	0.0	0.0	0.0	0.0	0.0	7.257210206543057	0.0	0.0	0.0	0.0	0.0
0.18823788274776354	0.7853981633974483	1.69297	0.7853981633974483	-1.98968	0.959931	-1.893103615511138	0.0	0.0	0.0	0.0	0.0	7.516100476600606	0.0	0.0	0.0	0.0	0.0
0.18072627255979745	0.7853981633974483	1.69297	0.7853981633974483	-1.98968	0.959931	-1.862533881983274	0.0	0.0	0.0	0.0	0.0	7.7674899722830375	0.0	0.0	0.0	0.0	0.0
0.17333893179138016	0.7853981633974483	1.69297	0.7853981633974483	-1.98968	0.959931	-1.8309741157411619	0.0	0.0	0.0	0.0	0.0	8.011064461753534	0.0	0.0	0.0	0.0	0.0
0.16607975721536583	0.7853981633974483	1.69297	0.7853981633974483	-1.98968	0.959931	-1.7984562052733075	0.0	0.0	0.0	0.0	0.0	8.246509713175143	0.0	0.0	0.0	0.0	0.0
0.15895251553680356	0.7853981633974483	1.69297	0.7853981633974483	-1.98968	0.959931	-1.7650132959956073	0.0	0.0	0.0	0.0	0.0	8.473511494711076	0.0	0.0	0.0	0.0	0.0
0.15196083836522023	0.7853981633974483	1.69297	0.7853981633974483	-1.98968	0.959931	-1.7306797902512558	0.0	0.0	0.0	0.0	0.0	8.691755574524436	0.0	0.0	0.0	0.0	0.0
0.14510821718691846	0.7853981633974483	1.69297	0.7853981633974483	-1.98968	0.959931	-1.6954913473108224	0.0	0.0	0.0	0.0	0.0	8.900927720778384	0.0	0.0	0.0	0.0	0.0
0.1383979983372613	0.7853981633974483	1.69297	0.7853981633974483	-1.98968	0.959931	-1.6594848833722189	0.0	0.0	0.0	0.0	0.0	9.10071370163601	0.0	0.0	0.0	0.0	0.0
0.13183337797296768	0.7853981633974483	1.69297	0.7853981633974483	-1.98968	0.959931	-1.6226985715607096	0.0	0.0	0.0	0.0	0.0	9.290799285260505	0.0	0.0	0.0	0.0	0.0
0.1254173970443988	0.7853981633974483	1.69297	0.7853981633974483	-1.98968	0.959931	-1.585171841928899	0.0	0.0	0.0	0.0	0.0	9.470870239814971	0.0	0.0	0.0	0.0	0.0
0.11915293626785384	0.7853981633974483	1.69297	0.7853981633974483	-1.98968	0.959931	-1.5469453814567302	0.0	0.0	0.0	0.0	0.0	9.640612333462556	0.0	0.0	0.0	0.0	0.0
0.11304271109785324	0.7853981633974483	1.69297	0.7853981633974483	-1.98968	0.959931	-1.5080611340515198	0.0	0.0	0.0	0.0	0.0	9.799711334366435	0.0	0.0	0.0	0.0	0.0
0.10708926669943619	0.7853981633974483	1.69297	0.7853981633974483	-1.98968	0.959931	-1.4685623005479105	0.0	0.0	0.0	0.0	0.0	9.947853010689684	0.0	0.0	0.0	0.0	0.0
0.10129497292044842	0.7853981633974483	1.69297	0.7853981633974483	-1.98968	0.959931	-1.4284933387078933	0.0	0.0	0.0	0.0	0.0	10.084723130595464	0.0	0.0	0.0	0.0	0.0
0.09566201926383278	0.7853981633974483	1.69297	0.7853981633974483	-1.98968	0.959931	-1.387899963220816	0.0	0.0	0.0	0.0	0.0	10.21000746224695	0.0	0.0	0.0	0.0	0.0
0.09019240985991939	0.7853981633974483	1.69297	0.7853981633974483	-1.98968	0.959931	-1.3468291457033725	0.0	0.0	0.0	0.0	0.0	10.323391773807188	0.0	0.0	0.0	0.0	0.0
0.08488795843871699	0.7853981633974483	1.69297	0.7853981633974483	-1.98968	0.959931	-1.3053291146995942	0.0	0.0	0.0	0.0	0.0	10.424561833439412	0.0	0.0	0.0	0.0	0.0
0.0797502833022059	0.7853981633974483	1.69297	0.7853981633974483	-1.98968	0.959931	-1.26344935568088	0.0	0.0	0.0	0.0	0.0	10.513203409306726	0.0	0.0	0.0	0.0	0.0
0.07478080229662232	0.7853981633974483	1.69297	0.7853981633974483	-1.98968	0.959931	-1.2212406110459462	0.0	0.0	0.0	0.0	0.0	10.58900226957222	0.0	0.0	0.0	0.0	0.0
0.0699807277847555	0.7853981633974483	1.69297	0.7853981633974483	-1.98968	0.959931	-1.1787548801208807	0.0	0.0	0.0	0.0	0.0	10.65164418239911	0.0	0.0	0.0	0.0	0.0
0.06535106161823401	0.7853981633974483	1.69297	0.7853981633974483	-1.98968	0.959931	-1.1360454191591227	0.0	0.0	0.0	0.0	0.0	10.700814915950502	0.0	0.0	0.0	0.0	0.0
0.06089259010982029	0.7853981633974483	1.69297	0.7853981633974483	-1.98968	0.959931	-1.0931667413414328	0.0	0.0	0.0	0.0	0.0	10.736200238389529	0.0	0.0	0.0	0.0	0.0
0.05660587900569669	0.7853981633974483	1.69297	0.7853981633974483	-1.98968	0.959931	-1.0501746167759354	0.0	0.0	0.0	0.0	0.0	10.75748591787928	0.0	0.0	0.0	0.0	0.0
0.05249126845775898	0.7853981633974483	1.69297	0.7853981633974483	-1.98968	0.959931	-1.0071260724981137	0.0	0.0	0.0	0.0	0.0	10.764357722583	0.0	0.0	0.0	0.0	0.0
0.048548867995908296	0.7853981633974483	1.69297	0.7853981633974483	-1.98968	0.959931	-0.964079392470774	0.0	0.0	0.0	0.0	0.0	10.756501420663724	0.0	0.0	0.0	0.0	0.0
0.04477855150033516	0.7853981633974483	1.69297	0.7853981633974483	-1.98968	0.959931	-0.9210941175840812	0.0	0.0	0.0	0.0	0.0	10.733602780284599	0.0	0.0	0.0	0.0	0.0
0.04117995217382098	0.7853981633974483	1.69297	0.7853981633974483	-1.98968	0.959931	-0.8782310456555606	0.0	0.0	0.0	0.0	0.0	10.695347569608828	0.0	0.0	0.0	0.0	0.0
0.037752457514017124	0.7853981633974483	1.69297	0.7853981633974483	-1.98968	0.959931	-0.8355522314300519	0.0	0.0	0.0	0.0	0.0	10.641421556799529	0.0	0.0	0.0	0.0	0.0
0.03449520428574493	0.7853981633974483	1.69297	0.7853981633974483	-1.98968	0.959931	-0.7931209865797939	0.0	0.0	0.0	0.0	0.0	10.571510510019806	0.0	0.0	0.0	0.0	0.0
0.03140707349327587	0.7853981633974483	1.69297	0.7853981633974483	-1.98968	0.959931	-0.7510018797043116	0.0	0.0	0.0	0.0	0.0	10.485300197432778	0.0	0.0	0.0	0.0	0.0
0.028486685352637098	0.7853981633974483	1.69297	0.7853981633974483	-1.98968	0.959931	-0.709260736330517	0.0	0.0	0.0	0.0	0.0	10.382476387201677	0.0	0.0	0.0	0.0	0.0
0.025732394263886516	0.7853981633974483	1.69297	0.7853981633974483	-1.98968	0.959931	-0.6679646389126646	0.0	0.0	0.0	0.0	0.0	10.262724847489551	0.0	0.0	0.0	0.0	0.0
0.02314228378341543	0.7853981633974483	1.69297	0.7853981633974483	-1.98968	0.959931	-0.6271819268323569	0.0	0.0	0.0	0.0	0.0	10.125731346459531	0.0	0.0	0.0	0.0	0.0
0.020714161596230518	0.7853981633974483	1.69297	0.7853981633974483	-1.98968	0.959931	-0.5869821963985267	0.0	0.0	0.0	0.0	0.0	9.97118165227485	0.0	0.0	0.0	0.0	0.0
0.018445554488248028	0.7853981633974483	1.69297	0.7853981633974483	-1.98968	0.959931	-0.5474363008474796	0.0	0.0	0.0	0.0	0.0	9.798761533098542	0.0	0.0	0.0	0.0	0.0
0.016333703318585968	0.7853981633974483	1.69297	0.7853981633974483	-1.98968	0.959931	-0.508616350342848	0.0	0.0	0.0	0.0	0.0	9.608156757093838	0.0	0.0	0.0	0.0	0.0
0.01437555799185164	0.7853981633974483	1.69297	0.7853981633974483	-1.98968	0.959931	-0.47059571197561567	0.0	0.0	0.0	0.0	0.0	9.399053092423799	0.0	0.0	0.0	0.0	0.0
0.012567772430436719	0.7853981633974483	1.69297	0.7853981633974483	-1.98968	0.959931	-0.4334490097641286	0.0	0.0	0.0	0.0	0.0	9.17113630725163	0.0	0.0	0.0	0.0	0.0
0.01090669954680168	0.7853981633974483	1.69297	0.7853981633974483	-1.98968	0.959931	-0.397252124654063	0.0	0.0	0.0	0.0	0.0	8.92409216974039	0.0	0.0	0.0	0.0	0.0
0.009388386215768207	0.7853981633974483	1.69297	0.7853981633974483	-1.98968	0.959931	-0.3620821945184396	0.0	0.0	0.0	0.0	0.0	8.657606448053173	0.0	0.0	0.0	0.0	0.0
0.008008568246816505	0.7853981633974483	1.69297	0.7853981633974483	-1.98968	0.959931	-0.32801761415765185	0.0	0.0	0.0	0.0	0.0	8.371364910353293	0.0	0.0	0.0	0.0	0.0
0.006762665356366604	0.7853981633974483	1.69297	0.7853981633974483	-1.98968	0.959931	-0.29513803529940574	0.0	0.0	0.0	0.0	0.0	8.065053324803728	0.0	0.0	0.0	0.0	0.0
0.005645776140074776	0.7853981633974483	1.69297	0.7853981633974483	-1.98968	0.959931	-0.26352436659879785	0.0	0.0	0.0	0.0	0.0	7.738357459567794	0.0	0.0	0.0	0.0	0.0
0.004652673045119737	0.7853981633974483	1.69297	0.7853981633974483	-1.98968	0.959931	-0.23325877363823366	0.0	0.0	0.0	0.0	0.0	7.390963082808383	0.0	0.0	0.0	0.0	0.0
0.003777797342498612	0.7853981633974483	1.69297	0.7853981633974483	-1.98968	0.959931	-0.20442467892747374	0.0	0.0	0.0	0.0	0.0	7.022555962688784	0.0	0.0	0.0	0.0	0.0
0.003015254099312692	0.7853981633974483	1.69297	0.7853981633974483	-1.98968	0.959931	-0.17710676190364083	0.0	0.0	0.0	0.0	0.0	6.632821867372172	0.0	0.0	0.0	0.0	0.0
0.0023588071510656228	0.7853981633974483	1.69297	0.7853981633974483	-1.98968	0.959931	-0.15139095893120924	0.0	0.0	0.0	0.0	0.0	6.221446565021608	0.0	0.0	0.0	0.0	0.0
0.0018018740739362826	0.7853981633974483	1.69297	0.7853981633974483	-1.98968	0.959931	-0.12736446330197637	0.0	0.0	0.0	0.0	0.0	5.788115823800268	0.0	0.0	0.0	0.0	0.0
0.0013375211570969547	0.7853981633974483	1.69297	0.7853981633974483	-1.98968	0.959931	-0.10511572523509471	0.0	0.0	0.0	0.0	0.0	5.332515411871157	0.0	0.0	0.0	0.0	0.0
0.0009584583749746578	0.7853981633974483	1.69297	0.7853981633974483	-1.98968	0.959931	-0.08473445187706119	0.0	0.0	0.0	0.0	0.0	4.854331097397591	0.0	0.0	0.0	0.0	0.0
0.000657034359566655	0.7853981633974483	1.69297	0.7853981633974483	-1.98968	0.959931	-0.06631160730175267	0.0	0.0	0.0	0.0	0.0	4.35324864854266	0.0	0.0	0.0	0.0	0.0
0.0004252313727124424	0.7853981633974483	1.69297	0.7853981633974483	-1.98968	0.959931	-0.049939412510347836	0.0	0.0	0.0	0.0	0.0	3.828953833469484	0.0	0.0	0.0	0.0	0.0
0.00025466027839682326	0.7853981633974483	1.69297	0.7853981633974483	-1.98968	0.959931	-0.03571134543139465	0.0	0.0	0.0	0.0	0.0	3.281132420341123	0.0	0.0	0.0	0.0	0.0
0.0001365555150325548	0.7853981633974483	1.69297	0.7853981633974483	-1.98968	0.959931	-0.02372214092078906	0.0	0.0	0.0	0.0	0.0	2.7094701773208385	0.0	0.0	0.0	0.0	0.0
6.17700677567612e-05	0.7853981633974483	1.69297	0.7853981633974483	-1.98968	0.959931	-0.014067790761806975	0.0	0.0	0.0	0.0	0.0	2.1136528725717483	0.0	0.0	0.0	0.0	0.0
2.0770440720241368e-05	0.7853981633974483	1.69297	0.7853981633974483	-1.98968	0.959931	-0.006845543664994125	0.0	0.0	0.0	0.0	0.0	1.493366274256914	0.0	0.0	0.0	0.0	0.0
3.631629367895073e-06	0.7853981633974483	1.69297	0.7853981633974483	-1.98968	0.959931	-0.0021539052683010596	0.0	0.0	0.0	0.0	0.0	0.8482961505395394	0.0	0.0	0.0	0.0	0.0
3.209274890281222e-08	0.7853981633974483	1.69297	0.7853981633974483	-1.98968	0.959931	-9.263813699789125e-05	0.0	0.0	0.0	0.0	0.0	0.17812826958274286	0.0	0.0	0.0	0.0	0.0
0.0	0.7853981633974483	1.69297	0.7853981633974483	-1.98968	0.959931	0.0	0.0	0.0	0.0	0.0	0.0	0.0	0.0	0.0	0.0	0.0	0.0
0.0	0.7853963418727657	1.69297	0.7853981633974483	-1.98968	0.959931	0.0	-0.0013619155325948434	0.0	0.0	0.0	0.0	0.0	-0.676735024201248	0.0	0.0	0.0	0.0
0.0	0.7853837261601448	1.69297	0.7853981633974483	-1.98968	0.959931	0.0	-0.005380307744731834	0.0	0.0	0.0	0.0	0.0	-1.328290711743884	0.0	0.0	0.0	0.0
0.0	0.7853498909496092	1.69297	0.7853981633974483	-1.98968	0.959931	0.0	-0.01195508775345025	0.0	0.0	0.0	0.0	0.0	-1.9549812944647706	0.0	0.0	0.0	0.0
0.0	0.7852848087728593	1.69297	0.7853981633974483	-1.98968	0.959931	0.0	-0.02098742360313682	0.0	0.0	0.0	0.0	0.0	-2.5571210042007717	0.0	0.0	0.0	0.0
0.0	0.785178844975564	1.69297	0.7853981633974483	-1.98968	0.959931	0.0	-0.03237974026552573	0.0	0.0	0.0	0.0	0.0	-3.1350240727887484	0.0	0.0	0.0	0.0
0.0	0.7850227526896496	1.69297	0.7853981633974483	-1.98968	0.959931	0.0	-0.046035719639698595	0.0	0.0	0.0	0.0	0.0	-3.689004732065565	0.0	0.0	0.0	0.0
0.0	0.7848076678055922	1.69297	0.7853981633974483	-1.98968	0.959931	0.0	-0.061860300552084524	0.0	0.0	0.0	0.0	0.0	-4.219377213868083	0.0	0.0	0.0	0.0
0.0	0.784525103944707	1.69297	0.7853981633974483	-1.98968	0.959931	0.0	-0.07975967875646	0.0	0.0	0.0	0.0	0.0	-4.726455750033165	0.0	0.0	0.0	0.0
0.0	0.7841669474314398	1.69297	0.7853981633974483	-1.98968	0.959931	0.0	-0.09964130693394908	0.0	0.0	0.0	0.0	0.0	-5.210554572397676	0.0	0.0	0.0	0.0
0.0	0.7837254522656568	1.69297	0.7853981633974483	-1.98968	0.959931	0.0	-0.1214138946930232	0.0	0.0	0.0	0.0	0.0	-5.671987912798476	0.0	0.0	0.0	0.0
0.0	0.7831932350949359	1.69297	0.7853981633974483	-1.98968	0.959931	0.0	-0.14498740856950115	0.0	0.0	0.0	0.0	0.0	-6.11107000307243	0.0	0.0	0.0	0.0
0.0	0.7825632701868568	1.69297	0.7853981633974483	-1.98968	0.959931	0.0	-0.17027307202654934	0.0	0.0	0.0	0.0	0.0	-6.528115075056398	0.0	0.0	0.0	0.0
0.0	0.7818288844012921	1.69297	0.7853981633974483	-1.98968	0.959931	0.0	-0.19718336545468154	0.0	0.0	0.0	0.0	0.0	-6.923437360587245	0.0	0.0	0.0	0.0
0.0	0.7809837521626976	1.69297	0.7853981633974483	-1.98968	0.959931	0.0	-0.225632026171759	0.0	0.0	0.0	0.0	0.0	-7.297351091501833	0.0	0.0	0.0	0.0
0.0	0.7800218904324027	1.69297	0.7853981633974483	-1.98968	0.959931	0.0	-0.25553404842299043	0.0	0.0	0.0	0.0	0.0	-7.650170499637026	0.0	0.0	0.0	0.0
0.0	0.7789376536809015	1.69297	0.7853981633974483	-1.98968	0.959931	0.0	-0.2868056833809319	0.0	0.0	0.0	0.0	0.0	-7.982209816829683	0.0	0.0	0.0	0.0
0.0	0.7777257288601431	1.69297	0.7853981633974483	-1.98968	0.959931	0.0	-0.31936443914548707	0.0	0.0	0.0	0.0	0.0	-8.29378327491667	0.0	0.0	0.0	0.0
0.0	0.7763811303758225	1.69297	0.7853981633974483	-1.98968	0.959931	0.0	-0.3531290807439069	0.0	0.0	0.0	0.0	0.0	-8.58520510573485	0.0	0.0	0.0	0.0
0.0	0.7748991950596706	1.69297	0.7853981633974483	-1.98968	0.959931	0.0	-0.38801963013078994	0.0	0.0	0.0	0.0	0.0	-8.856789541121087	0.0	0.0	0.0	0.0
0.0	0.7732755771417458	1.69297	0.7853981633974483	-1.98968	0.959931	0.0	-0.4239573661880822	0.0	0.0	0.0	0.0	0.0	-9.108850812912237	0.0	0.0	0.0	0.0
0.0	0.7715062432227232	1.69297	0.7853981633974483	-1.98968	0.959931	0.0	-0.46086482472507695	0.0	0.0	0.0	0.0	0.0	-9.341703152945168	0.0	0.0	0.0	0.0
0.0	0.7695874672461867	1.69297	0.7853981633974483	-1.98968	0.959931	0.0	-0.4986657984784151	0.0	0.0	0.0	0.0	0.0	-9.55566079305674	0.0	0.0	0.0	0.0
0.0	0.7675158254709188	1.69297	0.7853981633974483	-1.98968	0.959931	0.0	-0.5372853371120849	0.0	0.0	0.0	0.0	0.0	-9.751037965083823	0.0	0.0	0.0	0.0
0.0	0.7652881914431912	1.69297	0.7853981633974483	-1.98968	0.959931	0.0	-0.5766497472174221	0.0	0.0	0.0	0.0	0.0	-9.92814890086327	0.0	0.0	0.0	0.0
0.0	0.7629017309690557	1.69297	0.7853981633974483	-1.98968	0.959931	0.0	-0.6166865923131102	0.0	0.0	0.0	0.0	0.0	-10.08730783223195	0.0	0.0	0.0	0.0
0.0	0.7603538970866347	1.69297	0.7853981633974483	-1.98968	0.959931	0.0	-0.6573246928451794	0.0	0.0	0.0	0.0	0.0	-10.228828991026724	0.0	0.0	0.0	0.0
0.0	0.7576424250384115	1.69297	0.7853981633974483	-1.98968	0.959931	0.0	-0.6984941261870079	0.0	0.0	0.0	0.0	0.0	-10.353026609084454	0.0	0.0	0.0	0.0
0.0	0.7547653272435213	1.69297	0.7853981633974483	-1.98968	0.959931	0.0	-0.7401262266393214	0.0	0.0	0.0	0.0	0.0	-10.460214918242007	0.0	0.0	0.0	0.0
0.0	0.7517208882700422	1.69297	0.7853981633974483	-1.98968	0.959931	0.0	-0.782153585430193	0.0	0.0	0.0	0.0	0.0	-10.550708150336236	0.0	0.0	0.0	0.0
0.0	0.7485076598072846	1.69297	0.7853981633974483	-1.98968	0.959931	0.0	-0.8245100507150429	0.0	0.0	0.0	0.0	0.0	-10.624820537204013	0.0	0.0	0.0	0.0
0.0	0.7451244556380829	1.69297	0.7853981633974483	-1.98968	0.959931	0.0	-0.867130727576639	0.0	0.0	0.0	0.0	0.0	-10.682866310682197	0.0	0.0	0.0	0.0
0.0	0.7415703466110858	1.69297	0.7853981633974483	-1.98968	0.959931	0.0	-0.9099519780250971	0.0	0.0	0.0	0.0	0.0	-10.725159702607648	0.0	0.0	0.0	0.0
0.0	0.7378446556130466	1.69297	0.7853981633974483	-1.98968	0.959931	0.0	-0.9529114209978791	0.0	0.0	0.0	0.0	0.0	-10.752014944817237	0.0	0.0	0.0	0.0
0.0	0.733946952541114	1.69297	0.7853981633974483	-1.98968	0.959931	0.0	-0.9959479323597963	0.0	0.0	0.0	0.0	0.0	-10.76374626914782	0.0	0.0	0.0	0.0
0.0	0.7298770492751232	1.69297	0.7853981633974483	-1.98968	0.959931	0.0	-1.0390016449030057	0.0	0.0	0.0	0.0	0.0	-10.760667907436265	0.0	0.0	0.0	0.0
0.0	0.7256349946498858	1.69297	0.7853981633974483	-1.98968	0.959931	0.0	-1.0820139483470126	0.0	0.0	0.0	0.0	0.0	-10.74309409151943	0.0	0.0	0.0	0.0
0.0	0.7212210694274803	1.69297	0.7853981633974483	-1.98968	0.959931	0.0	-1.12492748933867	0.0	0.0	0.0	0.0	0.0	-10.711339053234175	0.0	0.0	0.0	0.0
0.0	0.7166357812695441	1.69297	0.7853981633974483	-1.98968	0.959931	0.0	-1.1676861714521773	0.0	0.0	0.0	0.0	0.0	-10.665717024417365	0.0	0.0	0.0	0.0
0.0	0.7118798597095619	1.69297	0.7853981633974483	-1.98968	0.959931	0.0	-1.2102351551890826	0.0	0.0	0.0	0.0	0.0	-10.60654223690587	0.0	0.0	0.0	0.0
0.0	0.7069542511251583	1.69297	0.7853981633974483	-1.98968	0.959931	0.0	-1.2525208579782807	0.0	0.0	0.0	0.0	0.0	-10.534128922536546	0.0	0.0	0.0	0.0
0.0	0.7018601137103876	1.69297	0.7853981633974483	-1.98968	0.959931	0.0	-1.294490954176014	0.0	0.0	0.0	0.0	0.0	-10.448791313146256	0.0	0.0	0.0	0.0
0.0	0.6965988124480242	1.69297	0.7853981633974483	-1.98968	0.959931	0.0	-1.336094375065872	0.0	0.0	0.0	0.0	0.0	-10.350843640571867	0.0	0.0	0.0	0.0
0.0	0.6911719140818533	1.69297	0.7853981633974483	-1.98968	0.959931	0.0	-1.3772813088587925	0.0	0.0	0.0	0.0	0.0	-10.240600136650235	0.0	0.0	0.0	0.0
0.0	0.6855811820889621	1.69297	0.7853981633974483	-1.98968	0.959931	0.0	-1.4180032006930599	0.0	0.0	0.0	0.0	0.0	-10.118375033218229	0.0	0.0	0.0	0.0
0.0	0.6798285716520296	1.69297	0.7853981633974483	-1.98968	0.959931	0.0	-1.4582127526343072	0.0	0.0	0.0	0.0	0.0	-9.984482562112703	0.0	0.0	0.0	0.0
0.0	0.6739162246316178	1.69297	0.7853981633974483	-1.98968	0.959931	0.0	-1.4978639236755131	0.0	0.0	0.0	0.0	0.0	-9.839236955170529	0.0	0.0	0.0	0.0
0.0	0.667846464538462	1.69297	0.7853981633974483	-1.98968	0.959931	0.0	-1.5369119297370046	0.0	0.0	0.0	0.0	0.0	-9.682952444228572	0.0	0.0	0.0	0.0
0.0	0.6616217915057613	1.69297	0.7853981633974483	-1.98968	0.959931	0.0	-1.575313243666458	0.0	0.0	0.0	0.0	0.0	-9.51594326112368	0.0	0.0	0.0	0.0
0.0	0.6552448772614697	1.69297	0.7853981633974483	-1.98968	0.959931	0.0	-1.6130255952388926	0.0	0.0	0.0	0.0	0.0	-9.338523637692733	0.0	0.0	0.0	0.0
0.0	0.6487185601005864	1.69297	0.7853981633974483	-1.98968	0.959931	0.0	-1.650007971156681	0.0	0.0	0.0	0.0	0.0	-9.151007805772576	0.0	0.0	0.0	0.0
0.0	0.6420458398574462	1.69297	0.7853981633974483	-1.98968	0.959931	0.0	-1.6862206150495371	0.0	0.0	0.0	0.0	0.0	-8.95370999720009	0.0	0.0	0.0	0.0
0.0	0.6352298728780106	1.69297	0.7853981633974483	-1.98968	0.959931	0.0	-1.7216250274745273	0.0	0.0	0.0	0.0	0.0	-8.746944443812119	0.0	0.0	0.0	0.0
0.0	0.6282739669921581	1.69297	0.7853981633974483	-1.98968	0.959931	0.0	-1.7561839659160627	0.0	0.0	0.0	0.0	0.0	-8.531025377445548	0.0	0.0	0.0	0.0
0.0	0.6211815764859744	1.69297	0.7853981633974483	-1.98968	0.959931	0.0	-1.7898614447859023	0.0	0.0	0.0	0.0	0.0	-8.306267029937217	0.0	0.0	0.0	0.0
0.0	0.6139562970740444	1.69297	0.7853981633974483	-1.98968	0.959931	0.0	-1.8226227354231546	0.0	0.0	0.0	0.0	0.0	-8.072983633124004	0.0	0.0	0.0	0.0
0.0	0.6066018608717408	1.69297	0.7853981633974483	-1.98968	0.959931	0.0	-1.8544343660942704	0.0	0.0	0.0	0.0	0.0	-7.83148941884277	0.0	0.0	0.0	0.0
0.0	0.5991221313675167	1.69297	0.7853981633974483	-1.98968	0.959931	0.0	-1.885264121993055	0.0	0.0	0.0	0.0	0.0	-7.582098618930374	0.0	0.0	0.0	0.0
0.0	0.5915210983951948	1.69297	0.7853981633974483	-1.98968	0.959931	0.0	-1.9150810452406546	0.0	0.0	0.0	0.0	0.0	-7.325125465223676	0.0	0.0	0.0	0.0
0.0	0.5838028731062584	1.69297	0.7853981633974483	-1.98968	0.959931	0.0	-1.9438554348855677	0.0	0.0	0.0	0.0	0.0	-7.060884189559548	0.0	0.0	0.0	0.0
0.0	0.5759716829421428	1.69297	0.7853981633974483	-1.98968	0.959931	0.0	-1.971558846903637	0.0	0.0	0.0	0.0	0.0	-6.78968902377485	0.0	0.0	0.0	0.0
0.0	0.5680318666065244	1.69297	0.7853981633974483	-1.98968	0.959931	0.0	-1.9981640941980552	0.0	0.0	0.0	0.0	0.0	-6.5118541997064305	0.0	0.0	0.0	0.0
0.0	0.5599878690376127	1.69297	0.7853981633974483	-1.98968	0.959931	0.0	-2.0236452465993593	0.0	0.0	0.0	0.0	0.0	-6.2276939491911705	0.0	0.0	0.0	0.0
0.0	0.55184423638044	1.69297	0.7853981633974483	-1.98968	0.959931	0.0	-2.047977630865438	0.0	0.0	0.0	0.0	0.0	-5.937522504065916	0.0	0.0	0.0	0.0
0.0	0.5436056109591526	1.69297	0.7853981633974483	-1.98968	0.959931	0.0	-2.0711378306815234	0.0	0.0	0.0	0.0	0.0	-5.641654096167542	0.0	0.0	0.0	0.0
0.0	0.535276726249301	1.69297	0.7853981633974483	-1.98968	0.959931	0.0	-2.093103686660196	0.0	0.0	0.0	0.0	0.0	-5.3404029573329215	0.0	0.0	0.0	0.0
0.0	0.5268624018501311	1.69297	0.7853981633974483	-1.98968	0.959931	0.0	-2.113854296341386	0.0	0.0	0.0	0.0	0.0	-5.034083319398894	0.0	0.0	0.0	0.0
0.0	0.5183675384568737	1.69297	0.7853981633974483	-1.98968	0.959931	0.0	-2.133370014192371	0.0	0.0	0.0	0.0	0.0	-4.723009414202336	0.0	0.0	0.0	0.0
0.0	0.5097971128330362	1.69297	0.7853981633974483	-1.98968	0.959931	0.0	-2.151632451607771	0.0	0.0	0.0	0.0	0.0	-4.407495473580099	0.0	0.0	0.0	0.0
0.0	0.5011561727826931	1.69297	0.7853981633974483	-1.98968	0.959931	0.0	-2.1686244769095593	0.0	0.0	0.0	0.0	0.0	-4.087855729369064	0.0	0.0	0.0	0.0
0.0	0.4924498321227757	1.69297	0.7853981633974483	-1.98968	0.959931	0.0	-2.184330215347055	0.0	0.0	0.0	0.0	0.0	-3.764404413406087	0.0	0.0	0.0	0.0
0.0	0.48368326565536357	1.69297	0.7853981633974483	-1.98968	0.959931	0.0	-2.198735049096922	0.0	0.0	0.0	0.0	0.0	-3.43745575752801	0.0	0.0	0.0	0.0
0.0	0.4748617041399753	1.69297	0.7853981633974483	-1.98968	0.959931	0.0	-2.211825617263175	0.0	0.0	0.0	0.0	0.0	-3.1073239935717396	0.0	0.0	0.0	0.0
0.0	0.4659904292658579	1.69297	0.7853981633974483	-1.98968	0.959931	0.0	-2.2235898158771734	0.0	0.0	0.0	0.0	0.0	-2.774323353374097	0.0	0.0	0.0	0.0
0.0	0.4570747686242793	1.69297	0.7853981633974483	-1.98968	0.959931	0.0	-2.234016797897628	0.0	0.0	0.0	0.0	0.0	-2.438768068771953	0.0	0.0	0.0	0.0
0.0	0.4481200906808169	1.69297	0.7853981633974483	-1.98968	0.959931	0.0	-2.2430969732105908	0.0	0.0	0.0	0.0	0.0	-2.100972371602179	0.0	0.0	0.0	0.0
0.0	0.43913179974765004	1.69297	0.7853981633974483	-1.98968	0.959931	0.0	-2.2508220086294717	0.0	0.0	0.0	0.0	0.0	-1.7612504937016276	0.0	0.0	0.0	0.0
0.0	0.4301153309558491	1.69297	0.7853981633974483	-1.98968	0.959931	0.0	-2.257184827895013	0.0	0.0	0.0	0.0	0.0	-1.4199166669071985	0.0	0.0	0.0	0.0
0.0	0.42107614522766706	1.69297	0.7853981633974483	-1.98968	0.959931	0.0	-2.262179611675319	0.0	0.0	0.0	0.0	0.0	-1.0772851230556952	0.0	0.0	0.0	0.0
0.0	0.4120197242488296	1.69297	0.7853981633974483	-1.98968	0.959931	0.0	-2.2658017975658304	0.0	0.0	0.0	0.0	0.0	-0.7336700939840348	0.0	0.0	0.0	0.0
0.0	0.40295156544082655	1.69297	0.7853981633974483	-1.98968	0.959931	0.0	-2.2680480800893474	0.0	0.0	0.0	0.0	0.0	-0.3893858115290385	0.0	0.0	0.0	0.0
0.0	0.3938771769332008	1.69297	0.7853981633974483	-1.98968	0.959931	0.0	-2.2689164106960042	0.0	0.0	0.0	0.0	0.0	-0.044746507527584356	0.0	0.0	0.0	0.0
0.0	0.38480207253584103	1.69297	0.7853981633974483	-1.98968	0.959931	0.0	-2.2684059977632884	0.0	0.0	0.0	0.0	0.0	0.29993358618344956	0.0	0.0	0.0	0.0
0.0	0.37573176671127084	1.69297	0.7853981633974483	-1.98968	0.959931	0.0	-2.266517306596039	0.0	0.0	0.0	0.0	0.0	0.6443402377672172	0.0	0.0	0.0	0.0
0.0	0.36667176954693936	1.69297	0.7853981633974483	-1.98968	0.959931	0.0	-2.2632520594264354	0.0	0.0	0.0	0.0	0.0	0.9881592153868439	0.0	0.0	0.0	0.0
0.0	0.3576275817275129	1.69297	0.7853981633974483	-1.98968	0.959931	0.0	-2.258613235414011	0.0	0.0	0.0	0.0	0.0	1.3310762872054696	0.0	0.0	0.0	0.0
0.0	0.3486046895071653	1.69297	0.7853981633974483	-1.98968	0.959931	0.0	-2.252605070645643	0.0	0.0	0.0	0.0	0.0	1.6727772213862622	0.0	0.0	0.0	0.0
0.0	0.33960855968186676	1.69297	0.7853981633974483	-1.98968	0.959931	0.0	-2.2452330581355526	0.0	0.0	0.0	0.0	0.0	2.012947786092319	0.0	0.0	0.0	0.0
0.0	0.3306446345616777	1.69297	0.7853981633974483	-1.98968	0.959931	0.0	-2.236503947825318	0.0	0.0	0.0	0.0	0.0	2.3512737494867935	0.0	0.0	0.0	0.0
0.0	0.32171832694303604	1.69297	0.7853981633974483	-1.98968	0.959931	0.0	-2.2264257465838573	0.0	0.0	0.0	0.0	0.0	2.6874408797328257	0.0	0.0	0.0	0.0
0.0	0.3128350150810502	1.69297	0.7853981633974483	-1.98968	0.959931	0.0	-2.215007718207438	0.0	0.0	0.0	0.0	0.0	3.0211349449935554	0.0	0.0	0.0	0.0
0.0	0.3040000376617883	1.69297	0.7853981633974483	-1.98968	0.959931	0.0	-2.2022603834196706	0.0	0.0	0.0	0.0	0.0	3.352041713432108	0.0	0.0	0.0	0.0
0.0	0.2952186887745701	1.69297	0.7853981633974483	-1.98968	0.959931	0.0	-2.1881955198715266	0.0	0.0	0.0	0.0	0.0	3.679846953211616	0.0	0.0	0.0	0.0
0.0	0.2864962128842559	1.69297	0.7853981633974483	-1.98968	0.959931	0.0	-2.1728261621413085	0.0	0.0	0.0	0.0	0.0	4.004236432495226	0.0	0.0	0.0	0.0
0.0	0.27783779980353834	1.69297	0.7853981633974483	-1.98968	0.959931	0.0	-2.1561666017346734	0.0	0.0	0.0	0.0	0.0	4.324895919446071	0.0	0.0	0.0	0.0
0.0	0.26924857966523313	1.69297	0.7853981633974483	-1.98968	0.959931	0.0	-2.138232387084633	0.0	0.0	0.0	0.0	0.0	4.641511182227319	0.0	0.0	0.0	0.0
0.0	0.26073361789456884	1.69297	0.7853981633974483	-1.98968	0.959931	0.0	-2.1190403235515323	0.0	0.0	0.0	0.0	0.0	4.953767989002074	0.0	0.0	0.0	0.0
0.0	0.25229791018147796	1.69297	0.7853981633974483	-1.98968	0.959931	0.0	-2.0986084734230728	0.0	0.0	0.0	0.0	0.0	5.261352107933469	0.0	0.0	0.0	0.0
0.0	0.2439463774528881	1.69297	0.7853981633974483	-1.98968	0.959931	0.0	-2.076956155914302	0.0	0.0	0.0	0.0	0.0	5.563949307184643	0.0	0.0	0.0	0.0
0.0	0.2356838608450112	1.69297	0.7853981633974483	-1.98968	0.959931	0.0	-2.0541039471676212	0.0	0.0	0.0	0.0	0.0	5.861245354918772	0.0	0.0	0.0	0.0
0.0	0.22751511667563484	1.69297	0.7853981633974483	-1.98968	0.959931	0.0	-2.0300736802527615	0.0	0.0	0.0	0.0	0.0	6.15292601929896	0.0	0.0	0.0	0.0
0.0	0.21944481141641353	1.69297	0.7853981633974483	-1.98968	0.959931	0.0	-2.004888445166812	0.0	0.0	0.0	0.0	0.0	6.438677068488339	0.0	0.0	0.0	0.0
0.0	0.21147751666515924	1.69297	0.7853981633974483	-1.98968	0.959931	0.0	-1.9785725888342212	0.0	0.0	0.0	0.0	0.0	6.718184270650035	0.0	0.0	0.0	0.0
0.0	0.2036177041181299	1.69297	0.7853981633974483	-1.98968	0.959931	0.0	-1.9511517151067652	0.0	0.0	0.0	0.0	0.0	6.991133393947237	0.0	0.0	0.0	0.0
0.0	0.19586974054232265	1.69297	0.7853981633974483	-1.98968	0.959931	0.0	-1.9226526847635785	0.0	0.0	0.0	0.0	0.0	7.257210206543057	0.0	0.0	0.0	0.0
0.0	0.18823788274776354	1.69297	0.7853981633974483	-1.98968	0.959931	0.0	-1.893103615511138	0.0	0.0	0.0	0.0	0.0	7.516100476600606	0.0	0.0	0.0	0.0
0.0	0.18072627255979745	1.69297	0.7853981633974483	-1.98968	0.959931	0.0	-1.862533881983274	0.0	0.0	0.0	0.0	0.0	7.7674899722830375	0.0	0.0	0.0	0.0
0.0	0.17333893179138016	1.69297	0.7853981633974483	-1.98968	0.959931	0.0	-1.8309741157411619	0.0	0.0	0.0	0.0	0.0	8.011064461753534	0.0	0.0	0.0	0.0
0.0	0.16607975721536583	1.69297	0.7853981633974483	-1.98968	0.959931	0.0	-1.7984562052733075	0.0	0.0	0.0	0.0	0.0	8.246509713175143	0.0	0.0	0.0	0.0
0.0	0.15895251553680356	1.69297	0.7853981633974483	-1.98968	0.959931	0.0	-1.7650132959956073	0.0	0.0	0.0	0.0	0.0	8.473511494711076	0.0	0.0	0.0	0.0
0.0	0.15196083836522023	1.69297	0.7853981633974483	-1.98968	0.959931	0.0	-1.7306797902512558	0.0	0.0	0.0	0.0	0.0	8.691755574524436	0.0	0.0	0.0	0.0
0.0	0.14510821718691846	1.69297	0.7853981633974483	-1.98968	0.959931	0.0	-1.6954913473108224	0.0	0.0	0.0	0.0	0.0	8.900927720778384	0.0	0.0	0.0	0.0
0.0	0.1383979983372613	1.69297	0.7853981633974483	-1.98968	0.959931	0.0	-1.6594848833722189	0.0	0.0	0.0	0.0	0.0	9.10071370163601	0.0	0.0	0.0	0.0
0.0	0.13183337797296768	1.69297	0.7853981633974483	-1.98968	0.959931	0.0	-1.6226985715607096	0.0	0.0	0.0	0.0	0.0	9.290799285260505	0.0	0.0	0.0	0.0
0.0	0.1254173970443988	1.69297	0.7853981633974483	-1.98968	0.959931	0.0	-1.585171841928899	0.0	0.0	0.0	0.0	0.0	9.470870239814971	0.0	0.0	0.0	0.0
0.0	0.11915293626785384	1.69297	0.7853981633974483	-1.98968	0.959931	0.0	-1.5469453814567302	0.0	0.0	0.0	0.0	0.0	9.640612333462556	0.0	0.0	0.0	0.0
0.0	0.11304271109785324	1.69297	0.7853981633974483	-1.98968	0.959931	0.0	-1.5080611340515198	0.0	0.0	0.0	0.0	0.0	9.799711334366435	0.0	0.0	0.0	0.0
0.0	0.10708926669943619	1.69297	0.7853981633974483	-1.98968	0.959931	0.0	-1.4685623005479105	0.0	0.0	0.0	0.0	0.0	9.947853010689684	0.0	0.0	0.0	0.0
0.0	0.10129497292044842	1.69297	0.7853981633974483	-1.98968	0.959931	0.0	-1.4284933387078933	0.0	0.0	0.0	0.0	0.0	10.084723130595464	0.0	0.0	0.0	0.0
0.0	0.09566201926383278	1.69297	0.7853981633974483	-1.98968	0.959931	0.0	-1.387899963220816	0.0	0.0	0.0	0.0	0.0	10.21000746224695	0.0	0.0	0.0	0.0
0.0	0.09019240985991939	1.69297	0.7853981633974483	-1.98968	0.959931	0.0	-1.3468291457033725	0.0	0.0	0.0	0.0	0.0	10.323391773807188	0.0	0.0	0.0	0.0
0.0	0.08488795843871699	1.69297	0.7853981633974483	-1.98968	0.959931	0.0	-1.3053291146995942	0.0	0.0	0.0	0.0	0.0	10.424561833439412	0.0	0.0	0.0	0.0
0.0	0.0797502833022059	1.69297	0.7853981633974483	-1.98968	0.959931	0.0	-1.26344935568088	0.0	0.0	0.0	0.0	0.0	10.513203409306726	0.0	0.0	0.0	0.0
0.0	0.07478080229662232	1.69297	0.7853981633974483	-1.98968	0.959931	0.0	-1.2212406110459462	0.0	0.0	0.0	0.0	0.0	10.58900226957222	0.0	0.0	0.0	0.0
0.0	0.0699807277847555	1.69297	0.7853981633974483	-1.98968	0.959931	0.0	-1.1787548801208807	0.0	0.0	0.0	0.0	0.0	10.65164418239911	0.0	0.0	0.0	0.0
0.0	0.06535106161823401	1.69297	0.7853981633974483	-1.98968	0.959931	0.0	-1.1360454191591227	0.0	0.0	0.0	0.0	0.0	10.700814915950502	0.0	0.0	0.0	0.0
0.0	0.06089259010982029	1.69297	0.7853981633974483	-1.98968	0.959931	0.0	-1.0931667413414328	0.0	0.0	0.0	0.0	0.0	10.736200238389529	0.0	0.0	0.0	0.0
0.0	0.05660587900569669	1.69297	0.7853981633974483	-1.98968	0.959931	0.0	-1.0501746167759354	0.0	0.0	0.0	0.0	0.0	10.75748591787928	0.0	0.0	0.0	0.0
0.0	0.05249126845775898	1.69297	0.7853981633974483	-1.98968	0.959931	0.0	-1.0071260724981137	0.0	0.0	0.0	0.0	0.0	10.764357722583	0.0	0.0	0.0	0.0
0.0	0.048548867995908296	1.69297	0.7853981633974483	-1.98968	0.959931	0.0	-0.964079392470774	0.0	0.0	0.0	0.0	0.0	10.756501420663724	0.0	0.0	0.0	0.0
0.0	0.04477855150033516	1.69297	0.7853981633974483	-1.98968	0.959931	0.0	-0.9210941175840812	0.0	0.0	0.0	0.0	0.0	10.733602780284599	0.0	0.0	0.0	0.0
0.0	0.04117995217382098	1.69297	0.7853981633974483	-1.98968	0.959931	0.0	-0.8782310456555606	0.0	0.0	0.0	0.0	0.0	10.695347569608828	0.0	0.0	0.0	0.0
0.0	0.037752457514017124	1.69297	0.7853981633974483	-1.98968	0.959931	0.0	-0.8355522314300519	0.0	0.0	0.0	0.0	0.0	10.641421556799529	0.0	0.0	0.0	0.0
0.0	0.03449520428574493	1.69297	0.7853981633974483	-1.98968	0.959931	0.0	-0.7931209865797939	0.0	0.0	0.0	0.0	0.0	10.571510510019806	0.0	0.0	0.0	0.0
0.0	0.03140707349327587	1.69297	0.7853981633974483	-1.98968	0.959931	0.0	-0.7510018797043116	0.0	0.0	0.0	0.0	0.0	10.485300197432778	0.0	0.0	0.0	0.0
0.0	0.028486685352637098	1.69297	0.7853981633974483	-1.98968	0.959931	0.0	-0.709260736330517	0.0	0.0	0.0	0.0	0.0	10.382476387201677	0.0	0.0	0.0	0.0
0.0	0.025732394263886516	1.69297	0.7853981633974483	-1.98968	0.959931	0.0	-0.6679646389126646	0.0	0.0	0.0	0.0	0.0	10.262724847489551	0.0	0.0	0.0	0.0
0.0	0.02314228378341543	1.69297	0.7853981633974483	-1.98968	0.959931	0.0	-0.6271819268323569	0.0	0.0	0.0	0.0	0.0	10.125731346459531	0.0	0.0	0.0	0.0
0.0	0.020714161596230518	1.69297	0.7853981633974483	-1.98968	0.959931	0.0	-0.5869821963985267	0.0	0.0	0.0	0.0	0.0	9.97118165227485	0.0	0.0	0.0	0.0
0.0	0.018445554488248028	1.69297	0.7853981633974483	-1.98968	0.959931	0.0	-0.5474363008474796	0.0	0.0	0.0	0.0	0.0	9.798761533098542	0.0	0.0	0.0	0.0
0.0	0.016333703318585968	1.69297	0.7853981633974483	-1.98968	0.959931	0.0	-0.508616350342848	0.0	0.0	0.0	0.0	0.0	9.608156757093838	0.0	0.0	0.0	0.0
0.0	0.01437555799185164	1.69297	0.7853981633974483	-1.98968	0.959931	0.0	-0.47059571197561567	0.0	0.0	0.0	0.0	0.0	9.399053092423799	0.0	0.0	0.0	0.0
0.0	0.012567772430436719	1.69297	0.7853981633974483	-1.98968	0.959931	0.0	-0.4334490097641286	0.0	0.0	0.0	0.0	0.0	9.17113630725163	0.0	0.0	0.0	0.0
0.0	0.01090669954680168	1.69297	0.7853981633974483	-1.98968	0.959931	0.0	-0.397252124654063	0.0	0.0	0.0	0.0	0.0	8.92409216974039	0.0	0.0	0.0	0.0
0.0	0.009388386215768207	1.69297	0.7853981633974483	-1.98968	0.959931	0.0	-0.3620821945184396	0.0	0.0	0.0	0.0	0.0	8.657606448053173	0.0	0.0	0.0	0.0
0.0	0.008008568246816505	1.69297	0.7853981633974483	-1.98968	0.959931	0.0	-0.32801761415765185	0.0	0.0	0.0	0.0	0.0	8.371364910353293	0.0	0.0	0.0	0.0
0.0	0.006762665356366604	1.69297	0.7853981633974483	-1.98968	0.959931	0.0	-0.29513803529940574	0.0	0.0	0.0	0.0	0.0	8.065053324803728	0.0	0.0	0.0	0.0
0.0	0.005645776140074776	1.69297	0.7853981633974483	-1.98968	0.959931	0.0	-0.26352436659879785	0.0	0.0	0.0	0.0	0.0	7.738357459567794	0.0	0.0	0.0	0.0
0.0	0.004652673045119737	1.69297	0.7853981633974483	-1.98968	0.959931	0.0	-0.23325877363823366	0.0	0.0	0.0	0.0	0.0	7.390963082808383	0.0	0.0	0.0	0.0
0.0	0.003777797342498612	1.69297	0.7853981633974483	-1.98968	0.959931	0.0	-0.20442467892747374	0.0	0.0	0.0	0.0	0.0	7.022555962688784	0.0	0.0	0.0	0.0
0.0	0.003015254099312692	1.69297	0.7853981633974483	-1.98968	0.959931	0.0	-0.17710676190364083	0.0	0.0	0.0	0.0	0.0	6.632821867372172	0.0	0.0	0.0	0.0
0.0	0.0023588071510656228	1.69297	0.7853981633974483	-1.98968	0.959931	0.0	-0.15139095893120924	0.0	0.0	0.0	0.0	0.0	6.221446565021608	0.0	0.0	0.0	0.0
0.0	0.0018018740739362826	1.69297	0.7853981633974483	-1.98968	0.959931	0.0	-0.12736446330197637	0.0	0.0	0.0	0.0	0.0	5.788115823800268	0.0	0.0	0.0	0.0
0.0	0.0013375211570969547	1.69297	0.7853981633974483	-1.98968	0.959931	0.0	-0.10511572523509471	0.0	0.0	0.0	0.0	0.0	5.332515411871157	0.0	0.0	0.0	0.0
0.0	0.0009584583749746578	1.69297	0.7853981633974483	-1.98968	0.959931	0.0	-0.08473445187706119	0.0	0.0	0.0	0.0	0.0	4.854331097397591	0.0	0.0	0.0	0.0
0.0	0.000657034359566655	1.69297	0.7853981633974483	-1.98968	0.959931	0.0	-0.06631160730175267	0.0	0.0	0.0	0.0	0.0	4.35324864854266	0.0	0.0	0.0	0.0
0.0	0.0004252313727124424	1.69297	0.7853981633974483	-1.98968	0.959931	0.0	-0.049939412510347836	0.0	0.0	0.0	0.0	0.0	3.828953833469484	0.0	0.0	0.0	0.0
0.0	0.00025466027839682326	1.69297	0.7853981633974483	-1.98968	0.959931	0.0	-0.03571134543139465	0.0	0.0	0.0	0.0	0.0	3.281132420341123	0.0	0.0	0.0	0.0
0.0	0.0001365555150325548	1.69297	0.7853981633974483	-1.98968	0.959931	0.0	-0.02372214092078906	0.0	0.0	0.0	0.0	0.0	2.7094701773208385	0.0	0.0	0.0	0.0
0.0	6.17700677567612e-05	1.69297	0.7853981633974483	-1.98968	0.959931	0.0	-0.014067790761806975	0.0	0.0	0.0	0.0	0.0	2.1136528725717483	0.0	0.0	0.0	0.0
0.0	2.0770440720241368e-05	1.69297	0.7853981633974483	-1.98968	0.959931	0.0	-0.006845543664994125	0.0	0.0	0.0	0.0	0.0	1.493366274256914	0.0	0.0	0.0	0.0
0.0	3.631629367895073e-06	1.69297	0.7853981633974483	-1.98968	0.959931	0.0	-0.0021539052683010596	0.0	0.0	0.0	0.0	0.0	0.8482961505395394	0.0	0.0	0.0	0.0
0.0	3.209274890281222e-08	1.69297	0.7853981633974483	-1.98968	0.959931	0.0	-9.263813699789125e-05	0.0	0.0	0.0	0.0	0.0	0.17812826958274286	0.0	0.0	0.0	0.0
0.0	0.0	1.69297	0.7853981633974483	-1.98968	0.959931	0.0	0.0	0.0	0.0	0.0	0.0	0.0	0.0	0.0	0.0	0.0	0.0
0.0	0.0	1.692971424611483	0.7853981633974483	-1.98968	0.959931	0.0	0.0	0.0010659789677561703	0.0	0.0	0.0	0.0	0.0	0.5305121423146748	0.0	0.0	0.0
0.0	0.0	1.6929813176906283	0.7853981633974483	-1.98968	0.959931	0.0	0.0	0.004224370523718362	0.0	0.0	0.0	0.0	0.0	1.0462293235300724	0.0	0.0	0.0
0.0	0.0	1.6930079308965706	0.7853981633974483	-1.98968	0.959931	0.0	0.0	0.009416271176614205	0.0	0.0	0.0	0.0	0.0	1.547289720208562	0.0	0.0	0.0
0.0	0.0	1.6930592813798924	0.7853981633974483	-1.98968	0.959931	0.0	0.0	0.016583330141420806	0.0	0.0	0.0	0.0	0.0	2.033831508912515	0.0	0.0	0.0
0.0	0.0	1.693143153993448	0.7853981633974483	-1.98968	0.959931	0.0	0.0	0.025667749339364766	0.0	0.0	0.0	0.0	0.0	2.5059928662043	0.0	0.0	0.0
0.0	0.0	1.69326710350319	0.7853981633974483	-1.98968	0.959931	0.0	0.0	0.03661228339792214	0.0	0.0	0.0	0.0	0.0	2.9639119686462876	0.0	0.0	0.0
0.0	0.0	1.6934384567989926	0.7853981633974483	-1.98968	0.959931	0.0	0.0	0.049360239650818497	0.0	0.0	0.0	0.0	0.0	3.4077269928008476	0.0	0.0	0.0
0.0	0.0	1.6936643151054778	0.7853981633974483	-1.98968	0.959931	0.0	0.0	0.06385547813802885	0.0	0.0	0.0	0.0	0.0	3.8375761152303505	0.0	0.0	0.0
0.0	0.0	1.6939515561928395	0.7853981633974483	-1.98968	0.959931	0.0	0.0	0.08004241160577773	0.0	0.0	0.0	0.0	0.0	4.253597512497164	0.0	0.0	0.0
0.0	0.0	1.6943068365876701	0.7853981633974483	-1.98968	0.959931	0.0	0.0	0.0978660055065391	0.0	0.0	0.0	0.0	0.0	4.655929361163662	0.0	0.0	0.0
0.0	0.0	1.6947365937837828	0.7853981633974483	-1.98968	0.959931	0.0	0.0	0.11727177799903647	0.0	0.0	0.0	0.0	0.0	5.044709837792212	0.0	0.0	0.0
0.0	0.0	1.6952470484530395	0.7853981633974483	-1.98968	0.959931	0.0	0.0	0.13820579994824272	0.0	0.0	0.0	0.0	0.0	5.4200771189451835	0.0	0.0	0.0
0.0	0.0	1.6958442066561747	0.7853981633974483	-1.98968	0.959931	0.0	0.0	0.16061469492538033	0.0	0.0	0.0	0.0	0.0	5.782169381184946	0.0	0.0	0.0
0.0	0.0	1.6965338620536186	0.7853981633974483	-1.98968	0.959931	0.0	0.0	0.18444563920792123	0.0	0.0	0.0	0.0	0.0	6.131124801073872	0.0	0.0	0.0
0.0	0.0	1.6973215981163254	0.7853981633974483	-1.98968	0.959931	0.0	0.0	0.20964636177958673	0.0	0.0	0.0	0.0	0.0	6.467081555174329	0.0	0.0	0.0
0.0	0.0	1.698212790336596	0.7853981633974483	-1.98968	0.959931	0.0	0.0	0.2361651443303478	0.0	0.0	0.0	0.0	0.0	6.79017782004869	0.0	0.0	0.0
0.0	0.0	1.6992126084389039	0.7853981633974483	-1.98968	0.959931	0.0	0.0	0.26395082125642466	0.0	0.0	0.0	0.0	0.0	7.100551772259321	0.0	0.0	0.0
0.0	0.0	1.7003260185907196	0.7853981633974483	-1.98968	0.959931	0.0	0.0	0.29295277966028727	0.0	0.0	0.0	0.0	0.0	7.398341588368593	0.0	0.0	0.0
0.0	0.0	1.701557785613337	0.7853981633974483	-1.98968	0.959931	0.0	0.0	0.32312095935065477	0.0	0.0	0.0	0.0	0.0	7.68368544493888	0.0	0.0	0.0
0.0	0.0	1.7029124751926956	0.7853981633974483	-1.98968	0.959931	0.0	0.0	0.35440585284249626	0.0	0.0	0.0	0.0	0.0	7.956721518532545	0.0	0.0	0.0
0.0	0.0	1.704394456090209	0.7853981633974483	-1.98968	0.959931	0.0	0.0	0.3867585053570296	0.0	0.0	0.0	0.0	0.0	8.217587985711967	0.0	0.0	0.0
0.0	0.0	1.7060079023535872	0.7853981633974483	-1.98968	0.959931	0.0	0.0	0.42013051482172276	0.0	0.0	0.0	0.0	0.0	8.466423023039505	0.0	0.0	0.0
0.0	0.0	1.7077567955276634	0.7853981633974483	-1.98968	0.959931	0.0	0.0	0.454474031870293	0.0	0.0	0.0	0.0	0.0	8.703364807077536	0.0	0.0	0.0
0.0	0.0	1.7096449268652167	0.7853981633974483	-1.98968	0.959931	0.0	0.0	0.4897417598427069	0.0	0.0	0.0	0.0	0.0	8.928551514388431	0.0	0.0	0.0
0.0	0.0	1.7116758995378003	0.7853981633974483	-1.98968	0.959931	0.0	0.0	0.5258869547851808	0.0	0.0	0.0	0.0	0.0	9.142121321534553	0.0	0.0	0.0
0.0	0.0	1.7138531308465637	0.7853981633974483	-1.98968	0.959931	0.0	0.0	0.5628634254501802	0.0	0.0	0.0	0.0	0.0	9.34421240507828	0.0	0.0	0.0
0.0	0.0	1.7161798544330786	0.7853981633974483	-1.98968	0.959931	0.0	0.0	0.6006255332964204	0.0	0.0	0.0	0.0	0.0	9.534962941581979	0.0	0.0	0.0
0.0	0.0	1.718659122490165	0.7853981633974483	-1.98968	0.959931	0.0	0.0	0.639128192488866	0.0	0.0	0.0	0.0	0.0	9.714511107608018	0.0	0.0	0.0
0.0	0.0	1.7212938079727147	0.7853981633974483	-1.98968	0.959931	0.0	0.0	0.678326869898731	0.0	0.0	0.0	0.0	0.0	9.882995079718766	0.0	0.0	0.0
0.0	0.0	1.7240866068085168	0.7853981633974483	-1.98968	0.959931	0.0	0.0	0.7181775851034788	0.0	0.0	0.0	0.0	0.0	10.040553034476597	0.0	0.0	0.0
0.0	0.0	1.7270400401090826	0.7853981633974483	-1.98968	0.959931	0.0	0.0	0.7586369103868229	0.0	0.0	0.0	0.0	0.0	10.187323148443884	0.0	0.0	0.0
0.0	0.0	1.7301564563804712	0.7853981633974483	-1.98968	0.959931	0.0	0.0	0.7996619707387259	0.0	0.0	0.0	0.0	0.0	10.323443598182985	0.0	0.0	0.0
0.0	0.0	1.733438033734114	0.7853981633974483	-1.98968	0.959931	0.0	0.0	0.8412104438553991	0.0	0.0	0.0	0.0	0.0	10.44905256025628	0.0	0.0	0.0
0.0	0.0	1.7368867820976395	0.7853981633974483	-1.98968	0.959931	0.0	0.0	0.8832405601393049	0.0	0.0	0.0	0.0	0.0	10.564288211226135	0.0	0.0	0.0
0.0	0.0	1.7405045454256982	0.7853981633974483	-1.98968	0.959931	0.0	0.0	0.9257111026991536	0.0	0.0	0.0	0.0	0.0	10.669288727654921	0.0	0.0	0.0
0.0	0.0	1.7442930039107891	0.7853981633974483	-1.98968	0.959931	0.0	0.0	0.968581407349906	0.0	0.0	0.0	0.0	0.0	10.764192286105011	0.0	0.0	0.0
0.0	0.0	1.7482536761940823	0.7853981633974483	-1.98968	0.959931	0.0	0.0	1.0118113626127723	0.0	0.0	0.0	0.0	0.0	10.84913706313877	0.0	0.0	0.0
0.0	0.0	1.752387921576246	0.7853981633974483	-1.98968	0.959931	0.0	0.0	1.0553614097152109	0.0	0.0	0.0	0.0	0.0	10.924261235318568	0.0	0.0	0.0
0.0	0.0	1.7566969422282703	0.7853981633974483	-1.98968	0.959931	0.0	0.0	1.099192542590932	0.0	0.0	0.0	0.0	0.0	10.989702979206779	0.0	0.0	0.0
0.0	0.0	1.7611817854022929	0.7853981633974483	-1.98968	0.959931	0.0	0.0	1.143266307879893	0.0	0.0	0.0	0.0	0.0	11.04560047136577	0.0	0.0	0.0
0.0	0.0	1.7658433456424238	0.7853981633974483	-1.98968	0.959931	0.0	0.0	1.187544804928302	0.0	0.0	0.0	0.0	0.0	11.09209188835791	0.0	0.0	0.0
0.0	0.0	1.7706823669955707	0.7853981633974483	-1.98968	0.959931	0.0	0.0	1.2319906857886171	0.0	0.0	0.0	0.0	0.0	11.129315406745574	0.0	0.0	0.0
0.0	0.0	1.7756994452222625	0.7853981633974483	-1.98968	0.959931	0.0	0.0	1.2765671552195443	0.0	0.0	0.0	0.0	0.0	11.157409203091126	0.0	0.0	0.0
0.0	0.0	1.7808950300074766	0.7853981633974483	-1.98968	0.959931	0.0	0.0	1.3212379706860398	0.0	0.0	0.0	0.0	0.0	11.176511453956941	0.0	0.0	0.0
0.0	0.0	1.7862694271714619	0.7853981633974483	-1.98968	0.959931	0.0	0.0	1.3659674423593098	0.0	0.0	0.0	0.0	0.0	11.186760335905383	0.0	0.0	0.0
0.0	0.0	1.7918228008805652	0.7853981633974483	-1.98968	0.959931	0.0	0.0	1.4107204331168097	0.0	0.0	0.0	0.0	0.0	11.188294025498823	0.0	0.0	0.0
0.0	0.0	1.7975551758580555	0.7853981633974483	-1.98968	0.959931	0.0	0.0	1.4554623585422433	0.0	0.0	0.0	0.0	0.0	11.181250699299646	0.0	0.0	0.0
0.0	0.0	1.803466439594949	0.7853981633974483	-1.98968	0.959931	0.0	0.0	1.5001591869255668	0.0	0.0	0.0	0.0	0.0	11.165768533870196	0.0	0.0	0.0
0.0	0.0	1.809556344560834	0.7853981633974483	-1.98968	0.959931	0.0	0.0	1.5447774392629814	0.0	0.0	0.0	0.0	0.0	11.141985705772864	0.0	0.0	0.0
0.0	0.0	1.8158245104146968	0.7853981633974483	-1.98968	0.959931	0.0	0.0	1.5892841892569427	0.0	0.0	0.0	0.0	0.0	11.110040391570006	0.0	0.0	0.0
0.0	0.0	1.8222704262157452	0.7853981633974483	-1.98968	0.959931	0.0	0.0	1.6336470633161508	0.0	0.0	0.0	0.0	0.0	11.070070767824003	0.0	0.0	0.0
0.0	0.0	1.8288934526342349	0.7853981633974483	-1.98968	0.959931	0.0	0.0	1.6778342405555597	0.0	0.0	0.0	0.0	0.0	11.022215011097217	0.0	0.0	0.0
0.0	0.0	1.8356928241622934	0.7853981633974483	-1.98968	0.959931	0.0	0.0	1.7218144527963708	0.0	0.0	0.0	0.0	0.0	10.966611297952028	0.0	0.0	0.0
0.0	0.0	1.8426676513247462	0.7853981633974483	-1.98968	0.959931	0.0	0.0	1.7655569845660346	0.0	0.0	0.0	0.0	0.0	10.903397804950789	0.0	0.0	0.0
0.0	0.0	1.8498169228899404	0.7853981633974483	-1.98968	0.959931	0.0	0.0	1.809031673098252	0.0	0.0	0.0	0.0	0.0	10.832712708655885	0.0	0.0	0.0
0.0	0.0	1.8571395080805708	0.7853981633974483	-1.98968	0.959931	0.0	0.0	1.8522089083329734	0.0	0.0	0.0	0.0	0.0	10.754694185629681	0.0	0.0	0.0
0.0	0.0	1.8646341587845043	0.7853981633974483	-1.98968	0.959931	0.0	0.0	1.8950596329163976	0.0	0.0	0.0	0.0	0.0	10.669480412434549	0.0	0.0	0.0
0.0	0.0	1.8722995117656056	0.7853981633974483	-1.98968	0.959931	0.0	0.0	1.9375553422009744	0.0	0.0	0.0	0.0	0.0	10.577209565632856	0.0	0.0	0.0
0.0	0.0	1.8801340908745607	0.7853981633974483	-1.98968	0.959931	0.0	0.0	1.979668084245402	0.0	0.0	0.0	0.0	0.0	10.478019821786972	0.0	0.0	0.0
0.0	0.0	1.8881363092597039	0.7853981633974483	-1.98968	0.959931	0.0	0.0	2.0213704598146274	0.0	0.0	0.0	0.0	0.0	10.372049357459263	0.0	0.0	0.0
0.0	0.0	1.8963044715778412	0.7853981633974483	-1.98968	0.959931	0.0	0.0	2.06263562237985	0.0	0.0	0.0	0.0	0.0	10.259436349212109	0.0	0.0	0.0
0.0	0.0	1.904636776205076	0.7853981633974483	-1.98968	0.959931	0.0	0.0	2.103437278118515	0.0	0.0	0.0	0.0	0.0	10.140318973607874	0.0	0.0	0.0
0.0	0.0	1.9131313174476339	0.7853981633974483	-1.98968	0.959931	0.0	0.0	2.1437496859143206	0.0	0.0	0.0	0.0	0.0	10.014835407208928	0.0	0.0	0.0
0.0	0.0	1.9217860877526884	0.7853981633974483	-1.98968	0.959931	0.0	0.0	2.1835476573572103	0.0	0.0	0.0	0.0	0.0	9.88312382657764	0.0	0.0	0.0
0.0	0.0	1.9305989799191847	0.7853981633974483	-1.98968	0.959931	0.0	0.0	2.222806556743381	0.0	0.0	0.0	0.0	0.0	9.745322408276387	0.0	0.0	0.0
0.0	0.0	1.9395677893086651	0.7853981633974483	-1.98968	0.959931	0.0	0.0	2.2615023010752773	0.0	0.0	0.0	0.0	0.0	9.60156932886753	0.0	0.0	0.0
0.0	0.0	1.9486902160560944	0.7853981633974483	-1.98968	0.959931	0.0	0.0	2.299611360061595	0.0	0.0	0.0	0.0	0.0	9.452002764913438	0.0	0.0	0.0
0.0	0.0	1.9579638672806854	0.7853981633974483	-1.98968	0.959931	0.0	0.0	2.3371107561172746	0.0	0.0	0.0	0.0	0.0	9.296760892976485	0.0	0.0	0.0
0.0	0.0	1.9673862592967222	0.7853981633974483	-1.98968	0.959931	0.0	0.0	2.373978064363512	0.0	0.0	0.0	0.0	0.0	9.135981889619044	0.0	0.0	0.0
0.0	0.0	1.9769548198243865	0.7853981633974483	-1.98968	0.959931	0.0	0.0	2.4101914126277495	0.0	0.0	0.0	0.0	0.0	8.969803931403487	0.0	0.0	0.0
0.0	0.0	1.986666890200582	0.7853981633974483	-1.98968	0.959931	0.0	0.0	2.4457294814436796	0.0	0.0	0.0	0.0	0.0	8.798365194892169	0.0	0.0	0.0
0.0	0.0	1.9965197275897597	0.7853981633974483	-1.98968	0.959931	0.0	0.0	2.480571504051243	0.0	0.0	0.0	0.0	0.0	8.621803856647487	0.0	0.0	0.0
0.0	0.0	2.006510507194744	0.7853981633974483	-1.98968	0.959931	0.0	0.0	2.514697266396631	0.0	0.0	0.0	0.0	0.0	8.440258093231787	0.0	0.0	0.0
0.0	0.0	2.016636324467555	0.7853981633974483	-1.98968	0.959931	0.0	0.0	2.5480871071322864	0.0	0.0	0.0	0.0	0.0	8.253866081207441	0.0	0.0	0.0
0.0	0.0	2.0268941973202366	0.7853981633974483	-1.98968	0.959931	0.0	0.0	2.5807219176168945	0.0	0.0	0.0	0.0	0.0	8.062765997136824	0.0	0.0	0.0
0.0	0.0	2.0372810683356777	0.7853981633974483	-1.98968	0.959931	0.0	0.0	2.612583141915402	0.0	0.0	0.0	0.0	0.0	7.8670960175823055	0.0	0.0	0.0
0.0	0.0	2.047793806978442	0.7853981633974483	-1.98968	0.959931	0.0	0.0	2.6436527767989917	0.0	0.0	0.0	0.0	0.0	7.666994319106264	0.0	0.0	0.0
0.0	0.0	2.0584292118055885	0.7853981633974483	-1.98968	0.959931	0.0	0.0	2.6739133717451065	0.0	0.0	0.0	0.0	0.0	7.462599078271051	0.0	0.0	0.0
0.0	0.0	2.0691840126774994	0.7853981633974483	-1.98968	0.959931	0.0	0.0	2.7033480289374308	0.0	0.0	0.0	0.0	0.0	7.2540484716390505	0.0	0.0	0.0
0.0	0.0	2.0800548729687045	0.7853981633974483	-1.98968	0.959931	0.0	0.0	2.7319404032659067	0.0	0.0	0.0	0.0	0.0	7.041480675772631	0.0	0.0	0.0
0.0	0.0	2.091038391778705	0.7853981633974483	-1.98968	0.959931	0.0	0.0	2.759674702326717	0.0	0.0	0.0	0.0	0.0	6.825033867234151	0.0	0.0	0.0
0.0	0.0	2.1021311061428	0.7853981633974483	-1.98968	0.959931	0.0	0.0	2.786535686422299	0.0	0.0	0.0	0.0	0.0	6.604846222586003	0.0	0.0	0.0
0.0	0.0	2.11332949324291	0.7853981633974483	-1.98968	0.959931	0.0	0.0	2.8125086685613407	0.0	0.0	0.0	0.0	0.0	6.381055918390539	0.0	0.0	0.0
0.0	0.0	2.1246299726184037	0.7853981633974483	-1.98968	0.959931	0.0	0.0	2.8375795144587777	0.0	0.0	0.0	0.0	0.0	6.153801131210132	0.0	0.0	0.0
0.0	0.0	2.1360289083769217	0.7853981633974483	-1.98968	0.959931	0.0	0.0	2.861734642535792	0.0	0.0	0.0	0.0	0.0	5.923220037607157	0.0	0.0	0.0
0.0	0.0	2.1475226114052015	0.7853981633974483	-1.98968	0.959931	0.0	0.0	2.884961023919822	0.0	0.0	0.0	0.0	0.0	5.689450814143969	0.0	0.0	0.0
0.0	0.0	2.159107341579903	0.7853981633974483	-1.98968	0.959931	0.0	0.0	2.9072461824445464	0.0	0.0	0.0	0.0	0.0	5.452631637382963	0.0	0.0	0.0
0.0	0.0	2.170779309978434	0.7853981633974483	-1.98968	0.959931	0.0	0.0	2.9285781946499037	0.0	0.0	0.0	0.0	0.0	5.212900683886492	0.0	0.0	0.0
0.0	0.0	2.182534681089773	0.7853981633974483	-1.98968	0.959931	0.0	0.0	2.948945689782075	0.0	0.0	0.0	0.0	0.0	4.970396130216926	0.0	0.0	0.0
0.0	0.0	2.194369575025298	0.7853981633974483	-1.98968	0.959931	0.0	0.0	2.9683378497934916	0.0	0.0	0.0	0.0	0.0	4.725256152936634	0.0	0.0	0.0
0.0	0.0	2.2062800697296074	0.7853981633974483	-1.98968	0.959931	0.0	0.0	2.986744409342837	0.0	0.0	0.0	0.0	0.0	4.4776189286079955	0.0	0.0	0.0
0.0	0.0	2.2182622031913466	0.7853981633974483	-1.98968	0.959931	0.0	0.0	3.004155655795042	0.0	0.0	0.0	0.0	0.0	4.2276226337933664	0.0	0.0	0.0
0.0	0.0	2.230311975654035	0.7853981633974483	-1.98968	0.959931	0.0	0.0	3.0205624292212856	0.0	0.0	0.0	0.0	0.0	3.9754054450551486	0.0	0.0	0.0
0.0	0.0	2.242425351826887	0.7853981633974483	-1.98968	0.959931	0.0	0.0	3.035956122398999	0.0	0.0	0.0	0.0	0.0	3.7211055389556797	0.0	0.0	0.0
0.0	0.0	2.2545982630956427	0.7853981633974483	-1.98968	0.959931	0.0	0.0	3.050328680811865	0.0	0.0	0.0	0.0	0.0	3.4648610920573226	0.0	0.0	0.0
0.0	0.0	2.2668266097333847	0.7853981633974483	-1.98968	0.959931	0.0	0.0	3.0636726026498122	0.0	0.0	0.0	0.0	0.0	3.2068102809224683	0.0	0.0	0.0
0.0	0.0	2.2791062631113714	0.7853981633974483	-1.98968	0.959931	0.0	0.0	3.075980938809014	0.0	0.0	0.0	0.0	0.0	2.9470912821134867	0.0	0.0	0.0
0.0	0.0	2.291433067909857	0.7853981633974483	-1.98968	0.959931	0.0	0.0	3.0872472928919024	0.0	0.0	0.0	0.0	0.0	2.685842272192758	0.0	0.0	0.0
0.0	0.0	2.303802844328918	0.7853981633974483	-1.98968	0.959931	0.0	0.0	3.0974658212071553	0.0	0.0	0.0	0.0	0.0	2.4232014277226135	0.0	0.0	0.0
0.0	0.0	2.316211390299279	0.7853981633974483	-1.98968	0.959931	0.0	0.0	3.1066312327697045	0.0	0.0	0.0	0.0	0.0	2.159306925265451	0.0	0.0	0.0
0.0	0.0	2.328654483693136	0.7853981633974483	-1.98968	0.959931	0.0	0.0	3.1147387893007137	0.0	0.0	0.0	0.0	0.0	1.8942969413836437	0.0	0.0	0.0
0.0	0.0	2.341127884534981	0.7853981633974483	-1.98968	0.959931	0.0	0.0	3.1217843052276195	0.0	0.0	0.0	0.0	0.0	1.6283096526395582	0.0	0.0	0.0
0.0	0.0	2.3536273372124312	0.7853981633974483	-1.98968	0.959931	0.0	0.0	3.1277641476840974	0.0	0.0	0.0	0.0	0.0	1.3614832355955464	0.0	0.0	0.0
0.0	0.0	2.366148572687049	0.7853981633974483	-1.98968	0.959931	0.0	0.0	3.1326752365100674	0.0	0.0	0.0	0.0	0.0	1.093955866813996	0.0	0.0	0.0
0.0	0.0	2.378687310705168	0.7853981633974483	-1.98968	0.959931	0.0	0.0	3.1365150442517096	0.0	0.0	0.0	0.0	0.0	0.8258657228572872	0.0	0.0	0.0
0.0	0.0	2.391239262008721	0.7853981633974483	-1.98968	0.959931	0.0	0.0	3.1392815961614438	0.0	0.0	0.0	0.0	0.0	0.5573509802877723	0.0	0.0	0.0
0.0	0.0	2.403800130546064	0.7853981633974483	-1.98968	0.959931	0.0	0.0	3.1409734701979453	0.0	0.0	0.0	0.0	0.0	0.2885498156677997	0.0	0.0	0.0
0.0	0.0	2.4163656156827966	0.7853981633974483	-1.98968	0.959931	0.0	0.0	3.1415897970261337	0.0	0.0	0.0	0.0	0.0	0.019600405559785372	0.0	0.0	0.0
0.0	0.0	2.4289314144125917	0.7853981633974483	-1.98968	0.959931	0.0	0.0	3.141130260017188	0.0	0.0	0.0	0.0	0.0	-0.24935907347392217	0.0	0.0	0.0
0.0	0.0	2.4414932235680222	0.7853981633974483	-1.98968	0.959931	0.0	0.0	3.139595095248525	0.0	0.0	0.0	0.0	0.0	-0.5181904448709567	0.0	0.0	0.0
0.0	0.0	2.4540467420313807	0.7853981633974483	-1.98968	0.959931	0.0	0.0	3.13698509150382	0.0	0.0	0.0	0.0	0.0	-0.7867555320689448	0.0	0.0	0.0
0.0	0.0	2.466587672945507	0.7853981633974483	-1.98968	0.959931	0.0	0.0	3.1333015902729886	0.0	0.0	0.0	0.0	0.0	-1.054916158505506	0.0	0.0	0.0
0.0	0.0	2.4791117259246134	0.7853981633974483	-1.98968	0.959931	0.0	0.0	3.1285464857522056	0.0	0.0	0.0	0.0	0.0	-1.322534147618292	0.0	0.0	0.0
0.0	0.0	2.4916146192651105	0.7853981633974483	-1.98968	0.959931	0.0	0.0	3.1227222248438897	0.0	0.0	0.0	0.0	0.0	-1.5894713228449078	0.0	0.0	0.0
0.0	0.0	2.504092082156428	0.7853981633974483	-1.98968	0.959931	0.0	0.0	3.1158318071567104	0.0	0.0	0.0	0.0	0.0	-1.8555895076230158	0.0	0.0	0.0
0.0	0.0	2.5165398568918467	0.7853981633974483	-1.98968	0.959931	0.0	0.0	3.107878785005587	0.0	0.0	0.0	0.0	0.0	-2.1207505253902	0.0	0.0	0.0
0.0	0.0	2.5289537010793177	0.7853981633974483	-1.98968	0.959931	0.0	0.0	3.0988672634116865	0.0	0.0	0.0	0.0	0.0	-2.3848161995841366	0.0	0.0	0.0
0.0	0.0	2.541329389852289	0.7853981633974483	-1.98968	0.959931	0.0	0.0	3.088801900102429	0.0	0.0	0.0	0.0	0.0	-2.647648353642431	0.0	0.0	0.0
0.0	0.0	2.5536627180805302	0.7853981633974483	-1.98968	0.959931	0.0	0.0	3.0776879055114765	0.0	0.0	0.0	0.0	0.0	-2.9091088110027385	0.0	0.0	0.0
0.0	0.0	2.5659495025809598	0.7853981633974483	-1.98968	0.959931	0.0	0.0	3.065531042778752	0.0	0.0	0.0	0.0	0.0	-3.16905939510265	0.0	0.0	0.0
0.0	0.0	2.5781855843284687	0.7853981633974483	-1.98968	0.959931	0.0	0.0	3.05233762775042	0.0	0.0	0.0	0.0	0.0	-3.4273619293798063	0.0	0.0	0.0
0.0	0.0	2.590366830666741	0.7853981633974483	-1.98968	0.959931	0.0	0.0	3.0381145289788973	0.0	0.0	0.0	0.0	0.0	-3.6838782372718626	0.0	0.0	0.0
0.0	0.0	2.602489137519088	0.7853981633974483	-1.98968	0.959931	0.0	0.0	3.022869167722842	0.0	0.0	0.0	0.0	0.0	-3.93847014221641	0.0	0.0	0.0
0.0	0.0	2.6145484315992666	0.7853981633974483	-1.98968	0.959931	0.0	0.0	3.0066095179471732	0.0	0.0	0.0	0.0	0.0	-4.190999467651125	0.0	0.0	0.0
0.0	0.0	2.626540672622303	0.7853981633974483	-1.98968	0.959931	0.0	0.0	2.9893441063230624	0.0	0.0	0.0	0.0	0.0	-4.441328037013612	0.0	0.0	0.0
0.0	0.0	2.6384618555153247	0.7853981633974483	-1.98968	0.959931	0.0	0.0	2.971082012227919	0.0	0.0	0.0	0.0	0.0	-4.689317673741506	0.0	0.0	0.0
0.0	0.0	2.6503080126283787	0.7853981633974483	-1.98968	0.959931	0.0	0.0	2.951832867745394	0.0	0.0	0.0	0.0	0.0	-4.934830201272412	0.0	0.0	0.0
0.0	0.0	2.66207521594526	0.7853981633974483	-1.98968	0.959931	0.0	0.0	2.9316068576654164	0.0	0.0	0.0	0.0	0.0	-5.177727443044006	0.0	0.0	0.0
0.0	0.0	2.6737595792943347	0.7853981633974483	-1.98968	0.959931	0.0	0.0	2.9104147194841383	0.0	0.0	0.0	0.0	0.0	-5.4178712224939005	0.0	0.0	0.0
0.0	0.0	2.6853572605593694	0.7853981633974483	-1.98968	0.959931	0.0	0.0	2.888267743403974	0.0	0.0	0.0	0.0	0.0	-5.6551233630596585	0.0	0.0	0.0
0.0	0.0	2.6968644638903485	0.7853981633974483	-1.98968	0.959931	0.0	0.0	2.865177772333589	0.0	0.0	0.0	0.0	0.0	-5.88934568817902	0.0	0.0	0.0
0.0	0.0	2.7082774419143067	0.7853981633974483	-1.98968	0.959931	0.0	0.0	2.841157201887887	0.0	0.0	0.0	0.0	0.0	-6.120400021289548	0.0	0.0	0.0
0.0	0.0	2.7195924979461474	0.7853981633974483	-1.98968	0.959931	0.0	0.0	2.816218980388035	0.0	0.0	0.0	0.0	0.0	-6.348148185828919	0.0	0.0	0.0
0.0	0.0	2.7308059881994766	0.7853981633974483	-1.98968	0.959931	0.0	0.0	2.790376608861439	0.0	0.0	0.0	0.0	0.0	-6.572452005234702	0.0	0.0	0.0
0.0	0.0	2.7419143239974186	0.7853981633974483	-1.98968	0.959931	0.0	0.0	2.7636441410417474	0.0	0.0	0.0	0.0	0.0	-6.793173302944574	0.0	0.0	0.0
0.0	0.0	2.7529139739834427	0.7853981633974483	-1.98968	0.959931	0.0	0.0	2.7360361833688884	0.0	0.0	0.0	0.0	0.0	-7.010173902396161	0.0	0.0	0.0
0.0	0.0	2.7638014663321946	0.7853981633974483	-1.98968	0.959931	0.0	0.0	2.7075678949890065	0.0	0.0	0.0	0.0	0.0	-7.223315627027034	0.0	0.0	0.0
0.0	0.0	2.7745733909603167	0.7853981633974483	-1.98968	0.959931	0.0	0.0	2.6782549877545154	0.0	0.0	0.0	0.0	0.0	-7.43246030027494	0.0	0.0	0.0
0.0	0.0	2.7852264017372717	0.7853981633974483	-1.98968	0.959931	0.0	0.0	2.648113726224068	0.0	0.0	0.0	0.0	0.0	-7.637469745577377	0.0	0.0	0.0
0.0	0.0	2.7957572186961697	0.7853981633974483	-1.98968	0.959931	0.0	0.0	2.6171609276625727	0.0	0.0	0.0	0.0	0.0	-7.838205786372093	0.0	0.0	0.0
0.0	0.0	2.806162630244594	0.7853981633974483	-1.98968	0.959931	0.0	0.0	2.585413962041182	0.0	0.0	0.0	0.0	0.0	-8.034530246096608	0.0	0.0	0.0
0.0	0.0	2.816439495375424	0.7853981633974483	-1.98968	0.959931	0.0	0.0	2.552890752037312	0.0	0.0	0.0	0.0	0.0	-8.226304948188684	0.0	0.0	0.0
0.0	0.0	2.8265847458776614	0.7853981633974483	-1.98968	0.959931	0.0	0.0	2.519609773034608	0.0	0.0	0.0	0.0	0.0	-8.413391716085798	0.0	0.0	0.0
0.0	0.0	2.8365953885472583	0.7853981633974483	-1.98968	0.959931	0.0	0.0	2.4855900531229675	0.0	0.0	0.0	0.0	0.0	-8.59565237322569	0.0	0.0	0.0
0.0	0.0	2.846468507397931	0.7853981633974483	-1.98968	0.959931	0.0	0.0	2.4508511730985596	0.0	0.0	0.0	0.0	0.0	-8.772948743045959	0.0	0.0	0.0
0.0	0.0	2.8562012658720017	0.7853981633974483	-1.98968	0.959931	0.0	0.0	2.415413266463773	0.0	0.0	0.0	0.0	0.0	-8.945142648984202	0.0	0.0	0.0
0.0	0.0	2.8657909090512077	0.7853981633974483	-1.98968	0.959931	0.0	0.0	2.379297019427277	0.0	0.0	0.0	0.0	0.0	-9.112095914478132	0.0	0.0	0.0
0.0	0.0	2.875234765867539	0.7853981633974483	-1.98968	0.959931	0.0	0.0	2.342523670903965	0.0	0.0	0.0	0.0	0.0	-9.273670362965277	0.0	0.0	0.0
0.0	0.0	2.884530251314054	0.7853981633974483	-1.98968	0.959931	0.0	0.0	2.3051150125149746	0.0	0.0	0.0	0.0	0.0	-9.429727817883347	0.0	0.0	0.0
0.0	0.0	2.8936748686557108	0.7853981633974483	-1.98968	0.959931	0.0	0.0	2.2670933885877265	0.0	0.0	0.0	0.0	0.0	-9.580130102669926	0.0	0.0	0.0
0.0	0.0	2.9026662116401853	0.7853981633974483	-1.98968	0.959931	0.0	0.0	2.22848169615588	0.0	0.0	0.0	0.0	0.0	-9.724739040762685	0.0	0.0	0.0
0.0	0.0	2.9115019667087063	0.7853981633974483	-1.98968	0.959931	0.0	0.0	2.1893033849593095	0.0	0.0	0.0	0.0	0.0	-9.863416455599207	0.0	0.0	0.0
0.0	0.0	2.9201799152068695	0.7853981633974483	-1.98968	0.959931	0.0	0.0	2.149582457444172	0.0	0.0	0.0	0.0	0.0	-9.996024170617162	0.0	0.0	0.0
0.0	0.0	2.928697935595473	0.7853981633974483	-1.98968	0.959931	0.0	0.0	2.1093434687628765	0.0	0.0	0.0	0.0	0.0	-10.122424009254104	0.0	0.0	0.0
0.0	0.0	2.9370540056613317	0.7853981633974483	-1.98968	0.959931	0.0	0.0	2.0686115267740632	0.0	0.0	0.0	0.0	0.0	-10.242477794947774	0.0	0.0	0.0
0.0	0.0	2.945246204728111	0.7853981633974483	-1.98968	0.959931	0.0	0.0	2.027412292042639	0.0	0.0	0.0	0.0	0.0	-10.356047351135743	0.0	0.0	0.0
0.0	0.0	2.953272715867146	0.7853981633974483	-1.98968	0.959931	0.0	0.0	1.9857719778397414	0.0	0.0	0.0	0.0	0.0	-10.46299450125565	0.0	0.0	0.0
0.0	0.0	2.9611318281082726	0.7853981633974483	-1.98968	0.959931	0.0	0.0	1.9437173501427605	0.0	0.0	0.0	0.0	0.0	-10.56318106874511	0.0	0.0	0.0
0.0	0.0	2.9688219386506436	0.7853981633974483	-1.98968	0.959931	0.0	0.0	1.9012757276353618	0.0	0.0	0.0	0.0	0.0	-10.656468877041775	0.0	0.0	0.0
0.0	0.0	2.976341555073562	0.7853981633974483	-1.98968	0.959931	0.0	0.0	1.8584749817074417	0.0	0.0	0.0	0.0	0.0	-10.742719749583259	0.0	0.0	0.0
0.0	0.0	2.983689297547304	0.7853981633974483	-1.98968	0.959931	0.0	0.0	1.8153435364551243	0.0	0.0	0.0	0.0	0.0	-10.821795509807217	0.0	0.0	0.0
0.0	0.0	2.990863901043942	0.7853981633974483	-1.98968	0.959931	0.0	0.0	1.7719103686808246	0.0	0.0	0.0	0.0	0.0	-10.893557981151261	0.0	0.0	0.0
0.0	0.0	2.9978642175481687	0.7853981633974483	-1.98968	0.959931	0.0	0.0	1.7282050078931732	0.0	0.0	0.0	0.0	0.0	-10.957868987052976	0.0	0.0	0.0
0.0	0.0	3.0046892182681266	0.7853981633974483	-1.98968	0.959931	0.0	0.0	1.684257536307065	0.0	0.0	0.0	0.0	0.0	-11.014590350950058	0.0	0.0	0.0
0.0	0.0	3.011337995846225	0.7853981633974483	-1.98968	0.959931	0.0	0.0	1.6400985888436637	0.0	0.0	0.0	0.0	0.0	-11.063583896280136	0.0	0.0	0.0
0.0	0.0	3.0178097665699775	0.7853981633974483	-1.98968	0.959931	0.0	0.0	1.5957593531303331	0.0	0.0	0.0	0.0	0.0	-11.104711446480806	0.0	0.0	0.0
0.0	0.0	3.0241038725828155	0.7853981633974483	-1.98968	0.959931	0.0	0.0	1.5512715695007309	0.0	0.0	0.0	0.0	0.0	-11.137834824989696	0.0	0.0	0.0
0.0	0.0	3.0302197840949163	0.7853981633974483	-1.98968	0.959931	0.0	0.0	1.5066675309947541	0.0	0.0	0.0	0.0	0.0	-11.162815855244475	0.0	0.0	0.0
0.0	0.0	3.036157101594035	0.7853981633974483	-1.98968	0.959931	0.0	0.0	1.4619800833585295	0.0	0.0	0.0	0.0	0.0	-11.179516360682726	0.0	0.0	0.0
0.0	0.0	3.041915558056317	0.7853981633974483	-1.98968	0.959931	0.0	0.0	1.4172426250444587	0.0	0.0	0.0	0.0	0.0	-11.18779816474212	0.0	0.0	0.0
0.0	0.0	3.0474950211571312	0.7853981633974483	-1.98968	0.959931	0.0	0.0	1.3724891072111838	0.0	0.0	0.0	0.0	0.0	-11.187523090860296	0.0	0.0	0.0
0.0	0.0	3.0528954954819016	0.7853981633974483	-1.98968	0.959931	0.0	0.0	1.3277540337235898	0.0	0.0	0.0	0.0	0.0	-11.178552962474825	0.0	0.0	0.0
0.0	0.0	3.0581171247369126	0.7853981633974483	-1.98968	0.959931	0.0	0.0	1.2830724611528055	0.0	0.0	0.0	0.0	0.0	-11.160749603023348	0.0	0.0	0.0
0.0	0.0	3.0631601939601527	0.7853981633974483	-1.98968	0.959931	0.0	0.0	1.2384799987762314	0.0	0.0	0.0	0.0	0.0	-11.133974835943562	0.0	0.0	0.0
0.0	0.0	3.0680251317321283	0.7853981633974483	-1.98968	0.959931	0.0	0.0	1.1940128085775115	0.0	0.0	0.0	0.0	0.0	-11.098090484673037	0.0	0.0	0.0
0.0	0.0	3.072712512386699	0.7853981633974483	-1.98968	0.959931	0.0	0.0	1.149707605246519	0.0	0.0	0.0	0.0	0.0	-11.052958372649385	0.0	0.0	0.0
0.0	0.0	3.077223058221889	0.7853981633974483	-1.98968	0.959931	0.0	0.0	1.1056016561794024	0.0	0.0	0.0	0.0	0.0	-10.998440323310305	0.0	0.0	0.0
0.0	0.0	3.0815576417107233	0.7853981633974483	-1.98968	0.959931	0.0	0.0	1.0617327814785433	0.0	0.0	0.0	0.0	0.0	-10.934398160093394	0.0	0.0	0.0
0.0	0.0	3.0857172877120513	0.7853981633974483	-1.98968	0.959931	0.0	0.0	1.0181393539525772	0.0	0.0	0.0	0.0	0.0	-10.86069370643628	0.0	0.0	0.0
0.0	0.0	3.089703175681367	0.7853981633974483	-1.98968	0.959931	0.0	0.0	0.9748602991163935	0.0	0.0	0.0	0.0	0.0	-10.777188785776588	0.0	0.0	0.0
0.0	0.0	3.093516641881631	0.7853981633974483	-1.98968	0.959931	0.0	0.0	0.9319350951911183	0.0	0.0	0.0	0.0	0.0	-10.68374522155193	0.0	0.0	0.0
0.0	0.0	3.097159181594116	0.7853981633974483	-1.98968	0.959931	0.0	0.0	0.8894037731041387	0.0	0.0	0.0	0.0	0.0	-10.580224837200007	0.0	0.0	0.0
0.0	0.0	3.1006324513291963	0.7853981633974483	-1.98968	0.959931	0.0	0.0	0.84730691648911	0.0	0.0	0.0	0.0	0.0	-10.466489456158342	0.0	0.0	0.0
0.0	0.0	3.103938271037212	0.7853981633974483	-1.98968	0.959931	0.0	0.0	0.8056856616858816	0.0	0.0	0.0	0.0	0.0	-10.342400901864721	0.0	0.0	0.0
0.0	0.0	3.1070786263192653	0.7853981633974483	-1.98968	0.959931	0.0	0.0	0.7645816977406064	0.0	0.0	0.0	0.0	0.0	-10.207820997756556	0.0	0.0	0.0
0.0	0.0	3.110055670638051	0.7853981633974483	-1.98968	0.959931	0.0	0.0	0.7240372664056665	0.0	0.0	0.0	0.0	0.0	-10.062611567271631	0.0	0.0	0.0
0.0	0.0	3.1128717275287023	0.7853981633974483	-1.98968	0.959931	0.0	0.0	0.6840951621396805	0.0	0.0	0.0	0.0	0.0	-9.906634433847529	0.0	0.0	0.0
0.0	0.0	3.1155292928095832	0.7853981633974483	-1.98968	0.959931	0.0	0.0	0.6447987321075423	0.0	0.0	0.0	0.0	0.0	-9.739751420921948	0.0	0.0	0.0
0.0	0.0	3.1180310367931385	0.7853981633974483	-1.98968	0.959931	0.0	0.0	0.606191876180393	0.0	0.0	0.0	0.0	0.0	-9.561824351932472	0.0	0.0	0.0
0.0	0.0	3.1203798064967048	0.7853981633974483	-1.98968	0.959931	0.0	0.0	0.5683190469355885	0.0	0.0	0.0	0.0	0.0	-9.372715050316714	0.0	0.0	0.0
0.0	0.0	3.122578627853346	0.7853981633974483	-1.98968	0.959931	0.0	0.0	0.5312252496567886	0.0	0.0	0.0	0.0	0.0	-9.172285339512257	0.0	0.0	0.0
0.0	0.0	3.1246307079226696	0.7853981633974483	-1.98968	0.959931	0.0	0.0	0.4949560423338397	0.0	0.0	0.0	0.0	0.0	-8.960397042956856	0.0	0.0	0.0
0.0	0.0	3.1265394371016546	0.7853981633974483	-1.98968	0.959931	0.0	0.0	0.4595575356628743	0.0	0.0	0.0	0.0	0.0	-8.73691198408801	0.0	0.0	0.0
0.0	0.0	3.128308391335482	0.7853981633974483	-1.98968	0.959931	0.0	0.0	0.42507639304629663	0.0	0.0	0.0	0.0	0.0	-8.501691986343445	0.0	0.0	0.0
0.0	0.0	3.1299413343283424	0.7853981633974483	-1.98968	0.959931	0.0	0.0	0.3915598305927048	0.0	0.0	0.0	0.0	0.0	-8.254598873160745	0.0	0.0	0.0
0.0	0.0	3.1314422197542937	0.7853981633974483	-1.98968	0.959931	0.0	0.0	0.35905561711700784	0.0	0.0	0.0	0.0	0.0	-7.995494467977522	0.0	0.0	0.0
0.0	0.0	3.132815193468047	0.7853981633974483	-1.98968	0.959931	0.0	0.0	0.3276120741403119	0.0	0.0	0.0	0.0	0.0	-7.724240594231475	0.0	0.0	0.0
0.0	0.0	3.1340645957158193	0.7853981633974483	-1.98968	0.959931	0.0	0.0	0.29727807588998445	0.0	0.0	0.0	0.0	0.0	-7.440699075360243	0.0	0.0	0.0
0.0	0.0	3.135194963346148	0.7853981633974483	-1.98968	0.959931	0.0	0.0	0.26810304929967543	0.0	0.0	0.0	0.0	0.0	-7.144731734801297	0.0	0.0	0.0
0.0	0.0	3.136211032020719	0.7853981633974483	-1.98968	0.959931	0.0	0.0	0.2401369740092676	0.0	0.0	0.0	0.0	0.0	-6.836200395992506	0.0	0.0	0.0
0.0	0.0	3.1371177384251876	0.7853981633974483	-1.98968	0.959931	0.0	0.0	0.2134303823648125	0.0	0.0	0.0	0.0	0.0	-6.5149668823712545	0.0	0.0	0.0
0.0	0.0	3.1379202224800062	0.7853981633974483	-1.98968	0.959931	0.0	0.0	0.1880343594187721	0.0	0.0	0.0	0.0	0.0	-6.180893017375354	0.0	0.0	0.0
0.0	0.0	3.138623829551248	0.7853981633974483	-1.98968	0.959931	0.0	0.0	0.16400054292973465	0.0	0.0	0.0	0.0	0.0	-5.8338406244423595	0.0	0.0	0.0
0.0	0.0	3.139234112661441	0.7853981633974483	-1.98968	0.959931	0.0	0.0	0.1413811233625566	0.0	0.0	0.0	0.0	0.0	-5.473671527009884	0.0	0.0	0.0
0.0	0.0	3.1397568347003757	0.7853981633974483	-1.98968	0.959931	0.0	0.0	0.12022884388840538	0.0	0.0	0.0	0.0	0.0	-5.100247548515625	0.0	0.0	0.0
0.0	0.0	3.140197970635943	0.7853981633974483	-1.98968	0.959931	0.0	0.0	0.10059700038461017	0.0	0.0	0.0	0.0	0.0	-4.713430512397196	0.0	0.0	0.0
0.0	0.0	3.140563709724958	0.7853981633974483	-1.98968	0.959931	0.0	0.0	0.08253944143480396	0.0	0.0	0.0	0.0	0.0	-4.31308224209215	0.0	0.0	0.0
0.0	0.0	3.140860457723983	0.7853981633974483	-1.98968	0.959931	0.0	0.0	0.06611056832886675	0.0	0.0	0.0	0.0	0.0	-3.899064561038216	0.0	0.0	0.0
0.0	0.0	3.1410948391001448	0.7853981633974483	-1.98968	0.959931	0.0	0.0	0.0513653350629113	0.0	0.0	0.0	0.0	0.0	-3.471239292672948	0.0	0.0	0.0
0.0	0.0	3.141273699241977	0.7853981633974483	-1.98968	0.959931	0.0	0.0	0.0383592483393187	0.0	0.0	0.0	0.0	0.0	-3.029468260433987	0.0	0.0	0.0
0.0	0.0	3.1414041066702296	0.7853981633974483	-1.98968	0.959931	0.0	0.0	0.027148367566695697	0.0	0.0	0.0	0.0	0.0	-2.5736132877590023	0.0	0.0	0.0
0.0	0.0	3.1414933552486985	0.7853981633974483	-1.98968	0.959931	0.0	0.0	0.017789304859917365	0.0	0.0	0.0	0.0	0.0	-2.1035361980855782	0.0	0.0	0.0
0.0	0.0	3.1415489663950584	0.7853981633974483	-1.98968	0.959931	0.0	0.0	0.010339225040098654	0.0	0.0	0.0	0.0	0.0	-1.6190988148514691	0.0	0.0	0.0
0.0	0.0	3.1415786912916737	0.7853981633974483	-1.98968	0.959931	0.0	0.0	0.004855845634601508	0.0	0.0	0.0	0.0	0.0	-1.1201629614941737	0.0	0.0	0.0
0.0	0.0	3.1415905130964354	0.7853981633974483	-1.98968	0.959931	0.0	0.0	0.001397436877063285	0.0	0.0	0.0	0.0	0.0	-0.6065904614513045	0.0	0.0	0.0
0.0	0.0	3.14159264915358	0.7853981633974483	-1.98968	0.959931	0.0	0.0	2.2821707304387928e-05	0.0	0.0	0.0	0.0	0.0	-0.07824313816058748	0.0	0.0	0.0
0.0	0.0	3.141592653589793	0.7853981633974483	-1.98968	0.959931	0.0	0.0	0.0	0.0	0.0	0.0	0.0	0.0	0.0	0.0	0.0	0.0
0.0	0.0	3.141592653589793	0.7853933453576835	-1.98968	0.959931	0.0	0.0	0.0	-0.0035980194934677042	0.0	0.0	0.0	0.0	0.0	-1.7835260695161324	0.0	0.0
0.0	0.0	3.141592653589793	0.7853601137041077	-1.98968	0.959931	0.0	0.0	0.0	-0.014145405254946664	0.0	0.0	0.0	0.0	0.0	-3.4749496631454715	0.0	0.0
0.0	0.0	3.141592653589793	0.7852714035269895	-1.98968	0.959931	0.0	0.0	0.0	-0.03127694573056782	0.0	0.0	0.0	0.0	0.0	-5.075869955727072	0.0	0.0
0.0	0.0	3.141592653589793	0.7851015979694146	-1.98968	0.959931	0.0	0.0	0.0	-0.05463382606581832	0.0	0.0	0.0	0.0	0.0	-6.587886122099988	0.0	0.0
0.0	0.0	3.141592653589793	0.784826502640488	-1.98968	0.959931	0.0	0.0	0.0	-0.08386362810554156	0.0	0.0	0.0	0.0	0.0	-8.012597337103273	0.0	0.0
0.0	0.0	3.141592653589793	0.7844233200285364	-1.98968	0.959931	0.0	0.0	0.0	-0.11862033039393709	0.0	0.0	0.0	0.0	0.0	-9.351602775575985	0.0	0.0
0.0	0.0	3.141592653589793	0.7838706239143113	-1.98968	0.959931	0.0	0.0	0.0	-0.15856430817456074	0.0	0.0	0.0	0.0	0.0	-10.606501612357174	0.0	0.0
0.0	0.0	3.141592653589793	0.7831483337841909	-1.98968	0.959931	0.0	0.0	0.0	-0.20336233339032447	0.0	0.0	0.0	0.0	0.0	-11.778893022285898	0.0	0.0
0.0	0.0	3.141592653589793	0.7822376892433833	-1.98968	0.959931	0.0	0.0	0.0	-0.25268757468349673	0.0	0.0	0.0	0.0	0.0	-12.870376180201209	0.0	0.0
0.0	0.0	3.141592653589793	0.7811212244291287	-1.98968	0.959931	0.0	0.0	0.0	-0.30621959739570187	0.0	0.0	0.0	0.0	0.0	-13.882550260942164	0.0	0.0
0.0	0.0	3.141592653589793	0.7797827424239021	-1.98968	0.959931	0.0	0.0	0.0	-0.3636443635679204	0.0	0.0	0.0	0.0	0.0	-14.817014439347817	0.0	0.0
0.0	0.0	3.141592653589793	0.778207289668616	-1.98968	0.959931	0.0	0.0	0.0	-0.4246542319404895	0.0	0.0	0.0	0.0	0.0	-15.675367890257217	0.0	0.0
0.0	0.0	3.141592653589793	0.7763811303758225	-1.98968	0.959931	0.0	0.0	0.0	-0.488947957953102	0.0	0.0	0.0	0.0	0.0	-16.459209788509426	0.0	0.0
0.0	0.0	3.141592653589793	0.7742917209429168	-1.98968	0.959931	0.0	0.0	0.0	-0.5562306937448075	0.0	0.0	0.0	0.0	0.0	-17.170139308943494	0.0	0.0
0.0	0.0	3.141592653589793	0.7719276843653385	-1.98968	0.959931	0.0	0.0	0.0	-0.6262139881540112	0.0	0.0	0.0	0.0	0.0	-17.80975562639848	0.0	0.0
0.0	0.0	3.141592653589793	0.7692787846497753	-1.98968	0.959931	0.0	0.0	0.0	-0.6986157867184754	0.0	0.0	0.0	0.0	0.0	-18.37965791571343	0.0	0.0
0.0	0.0	3.141592653589793	0.7663359012273652	-1.98968	0.959931	0.0	0.0	0.0	-0.7731604316753178	0.0	0.0	0.0	0.0	0.0	-18.881445351727407	0.0	0.0
0.0	0.0	3.141592653589793	0.7630910033668988	-1.98968	0.959931	0.0	0.0	0.0	-0.8495786619610123	0.0	0.0	0.0	0.0	0.0	-19.31671710927946	0.0	0.0
0.0	0.0	3.141592653589793	0.7595371245880219	-1.98968	0.959931	0.0	0.0	0.0	-0.9276076132113897	0.0	0.0	0.0	0.0	0.0	-19.687072363208653	0.0	0.0
0.0	0.0	3.141592653589793	0.7556683370744388	-1.98968	0.959931	0.0	0.0	0.0	-1.0069908177616365	0.0	0.0	0.0	0.0	0.0	-19.994110288354026	0.0	0.0
0.0	0.0	3.141592653589793	0.7514797260871141	-1.98968	0.959931	0.0	0.0	0.0	-1.0874782046462956	0.0	0.0	0.0	0.0	0.0	-20.239430059554643	0.0	0.0
0.0	0.0	3.141592653589793	0.7469673643774751	-1.98968	0.959931	0.0	0.0	0.0	-1.168826099599266	0.0	0.0	0.0	0.0	0.0	-20.424630851649557	0.0	0.0
0.0	0.0	3.141592653589793	0.7421282866006155	-1.98968	0.959931	0.0	0.0	0.0	-1.2507972250538033	0.0	0.0	0.0	0.0	0.0	-20.551311839477812	0.0	0.0
0.0	0.0	3.141592653589793	0.7369604637284968	-1.98968	0.959931	0.0	0.0	0.0	-1.3331607001425185	0.0	0.0	0.0	0.0	0.0	-20.62107219787848	0.0	0.0
0.0	0.0	3.141592653589793	0.7314627774631516	-1.98968	0.959931	0.0	0.0	0.0	-1.41569204069738	0.0	0.0	0.0	0.0	0.0	-20.635511101690607	0.0	0.0
0.0	0.0	3.141592653589793	0.7256349946498856	-1.98968	0.959931	0.0	0.0	0.0	-1.498173159249711	0.0	0.0	0.0	0.0	0.0	-20.596227725753252	0.0	0.0
0.0	0.0	3.141592653589793	0.7194777416904807	-1.98968	0.959931	0.0	0.0	0.0	-1.580392365030192	0.0	0.0	0.0	0.0	0.0	-20.50482124490546	0.0	0.0
0.0	0.0	3.141592653589793	0.7129924789563976	-1.98968	0.959931	0.0	0.0	0.0	-1.6621443639688596	0.0	0.0	0.0	0.0	0.0	-20.3628908339863	0.0	0.0
0.0	0.0	3.141592653589793	0.7061814752019776	-1.98968	0.959931	0.0	0.0	0.0	-1.7432302586951063	0.0	0.0	0.0	0.0	0.0	-20.1720356678348	0.0	0.0
0.0	0.0	3.141592653589793	0.6990477819776459	-1.98968	0.959931	0.0	0.0	0.0	-1.8234575485376805	0.0	0.0	0.0	0.0	0.0	-19.933854921290045	0.0	0.0
0.0	0.0	3.141592653589793	0.6915952080431146	-1.98968	0.959931	0.0	0.0	0.0	-1.9026401295246875	0.0	0.0	0.0	0.0	0.0	-19.649947769191066	0.0	0.0
0.0	0.0	3.141592653589793	0.6838282937805837	-1.98968	0.959931	0.0	0.0	0.0	-1.9805982943835894	0.0	0.0	0.0	0.0	0.0	-19.32191338637693	0.0	0.0
0.0	0.0	3.141592653589793	0.6757522856079454	-1.98968	0.959931	0.0	0.0	0.0	-2.0571587325412017	0.0	0.0	0.0	0.0	0.0	-18.9513509476867	0.0	0.0
0.0	0.0	3.141592653589793	0.6673731103919853	-1.98968	0.959931	0.0	0.0	0.0	-2.1321545301237004	0.0	0.0	0.0	0.0	0.0	-18.53985962795941	0.0	0.0
0.0	0.0	3.141592653589793	0.6586973498615862	-1.98968	0.959931	0.0	0.0	0.0	-2.205425169956613	0.0	0.0	0.0	0.0	0.0	-18.08903860203413	0.0	0.0
0.0	0.0	3.141592653589793	0.6497322150209298	-1.98968	0.959931	0.0	0.0	0.0	-2.276816531564828	0.0	0.0	0.0	0.0	0.0	-17.600487044749904	0.0	0.0
0.0	0.0	3.141592653589793	0.6404855205626994	-1.98968	0.959931	0.0	0.0	0.0	-2.346180891172586	0.0	0.0	0.0	0.0	0.0	-17.0758041309458	0.0	0.0
0.0	0.0	3.141592653589793	0.6309656592812827	-1.98968	0.959931	0.0	0.0	0.0	-2.413376921703487	0.0	0.0	0.0	0.0	0.0	-16.51658903546085	0.0	0.0
0.0	0.0	3.141592653589793	0.6211815764859744	-1.98968	0.959931	0.0	0.0	0.0	-2.4782696927804846	0.0	0.0	0.0	0.0	0.0	-15.924440933134138	0.0	0.0
0.0	0.0	3.141592653589793	0.6111427444141786	-1.98968	0.959931	0.0	0.0	0.0	-2.5407306707258894	0.0	0.0	0.0	0.0	0.0	-15.300958998804685	0.0	0.0
0.0	0.0	3.141592653589793	0.6008591366446115	-1.98968	0.959931	0.0	0.0	0.0	-2.6006377185613703	0.0	0.0	0.0	0.0	0.0	-14.64774240731158	0.0	0.0
0.0	0.0	3.141592653589793	0.5903412025105039	-1.98968	0.959931	0.0	0.0	0.0	-2.657875096007949	0.0	0.0	0.0	0.0	0.0	-13.966390333493845	0.0	0.0
0.0	0.0	3.141592653589793	0.5795998415128037	-1.98968	0.959931	0.0	0.0	0.0	-2.712333459486007	0.0	0.0	0.0	0.0	0.0	-13.258501952190535	0.0	0.0
0.0	0.0	3.141592653589793	0.5686463777333787	-1.98968	0.959931	0.0	0.0	0.0	-2.763909862115278	0.0	0.0	0.0	0.0	0.0	-12.525676438240751	0.0	0.0
0.0	0.0	3.141592653589793	0.5574925342482188	-1.98968	0.959931	0.0	0.0	0.0	-2.812507753714857	0.0	0.0	0.0	0.0	0.0	-11.76951296648351	0.0	0.0
0.0	0.0	3.141592653589793	0.5461504075406391	-1.98968	0.959931	0.0	0.0	0.0	-2.8580369808031896	0.0	0.0	0.0	0.0	0.0	-10.991610711757868	0.0	0.0
0.0	0.0	3.141592653589793	0.5346324419144823	-1.98968	0.959931	0.0	0.0	0.0	-2.9004137865980795	0.0	0.0	0.0	0.0	0.0	-10.193568848902888	0.0	0.0
0.0	0.0	3.141592653589793	0.5229514039073206	-1.98968	0.959931	0.0	0.0	0.0	-2.939560811016692	0.0	0.0	0.0	0.0	0.0	-9.376986552757614	0.0	0.0
0.0	0.0	3.141592653589793	0.5111203567036595	-1.98968	0.959931	0.0	0.0	0.0	-2.975407090675538	0.0	0.0	0.0	0.0	0.0	-8.543462998161118	0.0	0.0
0.0	0.0	3.141592653589793	0.49915263454813924	-1.98968	0.959931	0.0	0.0	0.0	-3.007888058890499	0.0	0.0	0.0	0.0	0.0	-7.694597359952411	0.0	0.0
0.0	0.0	3.141592653589793	0.4870618171587382	-1.98968	0.959931	0.0	0.0	0.0	-3.0369455456767955	0.0	0.0	0.0	0.0	0.0	-6.831988812970621	0.0	0.0
0.0	0.0	3.141592653589793	0.47486170413997464	-1.98968	0.959931	0.0	0.0	0.0	-3.0625277777490174	0.0	0.0	0.0	0.0	0.0	-5.957236532054736	0.0	0.0
0.0	0.0	3.141592653589793	0.46256628939611066	-1.98968	0.959931	0.0	0.0	0.0	-3.0845893785211063	0.0	0.0	0.0	0.0	0.0	-5.071939692043848	0.0	0.0
0.0	0.0	3.141592653589793	0.45018973554435265	-1.98968	0.959931	0.0	0.0	0.0	-3.1030913681063605	0.0	0.0	0.0	0.0	0.0	-4.17769746777698	0.0	0.0
0.0	0.0	3.141592653589793	0.4377463483280564	-1.98968	0.959931	0.0	0.0	0.0	-3.1180011633174347	0.0	0.0	0.0	0.0	0.0	-3.276109034093224	0.0	0.0
0.0	0.0	3.141592653589793	0.4252505510299273	-1.98968	0.959931	0.0	0.0	0.0	-3.1292925776663343	0.0	0.0	0.0	0.0	0.0	-2.3687735658316242	0.0	0.0
0.0	0.0	3.141592653589793	0.41271685888522447	-1.98968	0.959931	0.0	0.0	0.0	-3.1369458213644332	0.0	0.0	0.0	0.0	0.0	-1.4572902378312307	0.0	0.0
0.0	0.0	3.141592653589793	0.4001598534949629	-1.98968	0.959931	0.0	0.0	0.0	-3.140947501322451	0.0	0.0	0.0	0.0	0.0	-0.5432582249310585	0.0	0.0
0.0	0.0	3.141592653589793	0.387594157239116	-1.98968	0.959931	0.0	0.0	0.0	-3.1412906211504676	0.0	0.0	0.0	0.0	0.0	0.3717232980297851	0.0	0.0
0.0	0.0	3.141592653589793	0.37503440768981755	-1.98968	0.959931	0.0	0.0	0.0	-3.1379745811579176	0.0	0.0	0.0	0.0	0.0	1.286055156212278	0.0	0.0
0.0	0.0	3.141592653589793	0.3624952320245661	-1.98968	0.959931	0.0	0.0	0.0	-3.131005178353593	0.0	0.0	0.0	0.0	0.0	2.19813817477732	0.0	0.0
0.0	0.0	3.141592653589793	0.3499912214394246	-1.98968	0.959931	0.0	0.0	0.0	-3.120394606445641	0.0	0.0	0.0	0.0	0.0	3.106373178885889	0.0	0.0
0.0	0.0	3.141592653589793	0.3375369055622268	-1.98968	0.959931	0.0	0.0	0.0	-3.106161455841569	0.0	0.0	0.0	0.0	0.0	4.00916099369897	0.0	0.0
0.0	0.0	3.141592653589793	0.3251467268657758	-1.98968	0.959931	0.0	0.0	0.0	-3.0883307136482303	0.0	0.0	0.0	0.0	0.0	4.904902444377427	0.0	0.0
0.0	0.0	3.141592653589793	0.31283501508104944	-1.98968	0.959931	0.0	0.0	0.0	-3.0669337636718446	0.0	0.0	0.0	0.0	0.0	5.791998356082232	0.0	0.0
0.0	0.0	3.141592653589793	0.30061596161040216	-1.98968	0.959931	0.0	0.0	0.0	-3.0420083864179883	0.0	0.0	0.0	0.0	0.0	6.668849553974368	0.0	0.0
0.0	0.0	3.141592653589793	0.28850359394076674	-1.98968	0.959931	0.0	0.0	0.0	-3.0135987590915896	0.0	0.0	0.0	0.0	0.0	7.5338568632147656	0.0	0.0
0.0	0.0	3.141592653589793	0.2765117500568579	-1.98968	0.959931	0.0	0.0	0.0	-2.9817554555969252	0.0	0.0	0.0	0.0	0.0	8.385421108964366	0.0	0.0
0.0	0.0	3.141592653589793	0.2646540528543752	-1.98968	0.959931	0.0	0.0	0.0	-2.946535446537645	0.0	0.0	0.0	0.0	0.0	9.221943116384082	0.0	0.0
0.0	0.0	3.141592653589793	0.2529438845532037	-1.98968	0.959931	0.0	0.0	0.0	-2.908002099216744	0.0	0.0	0.0	0.0	0.0	10.041823710634901	0.0	0.0
0.0	0.0	3.141592653589793	0.24139436111061802	-1.98968	0.959931	0.0	0.0	0.0	-2.8662251776365766	0.0	0.0	0.0	0.0	0.0	10.843463716877764	0.0	0.0
0.0	0.0	3.141592653589793	0.23001830663448547	-1.98968	0.959931	0.0	0.0	0.0	-2.821280842498851	0.0	0.0	0.0	0.0	0.0	11.625263960273585	0.0	0.0
0.0	0.0	3.141592653589793	0.21882822779646693	-1.98968	0.959931	0.0	0.0	0.0	-2.7732516512046326	0.0	0.0	0.0	0.0	0.0	12.385625265983336	0.0	0.0
0.0	0.0	3.141592653589793	0.207836288245221	-1.98968	0.959931	0.0	0.0	0.0	-2.7222265578543503	0.0	0.0	0.0	0.0	0.0	13.122948459167958	0.0	0.0
0.0	0.0	3.141592653589793	0.19705428301960481	-1.98968	0.959931	0.0	0.0	0.0	-2.668300913247773	0.0	0.0	0.0	0.0	0.0	13.835634364988394	0.0	0.0
0.0	0.0	3.141592653589793	0.18649361296187938	-1.98968	0.959931	0.0	0.0	0.0	-2.611576464884049	0.0	0.0	0.0	0.0	0.0	14.522083808605657	0.0	0.0
0.0	0.0	3.141592653589793	0.1761652591309083	-1.98968	0.959931	0.0	0.0	0.0	-2.552161356961655	0.0	0.0	0.0	0.0	0.0	15.180697615180549	0.0	0.0
0.0	0.0	3.141592653589793	0.16607975721536472	-1.98968	0.959931	0.0	0.0	0.0	-2.4901701303784467	0.0	0.0	0.0	0.0	0.0	15.80987660987411	0.0	0.0
0.0	0.0	3.141592653589793	0.15624717194692983	-1.98968	0.959931	0.0	0.0	0.0	-2.425723722731618	0.0	0.0	0.0	0.0	0.0	16.408021617847254	0.0	0.0
0.0	0.0	3.141592653589793	0.14667707151349918	-1.98968	0.959931	0.0	0.0	0.0	-2.3589494683177463	0.0	0.0	0.0	0.0	0.0	16.97353346426104	0.0	0.0
0.0	0.0	3.141592653589793	0.13737850197238077	-1.98968	0.959931	0.0	0.0	0.0	-2.2899810981327366	0.0	0.0	0.0	0.0	0.0	17.504812974276234	0.0	0.0
0.0	0.0	3.141592653589793	0.12835996166350283	-1.98968	0.959931	0.0	0.0	0.0	-2.2189587398718533	0.0	0.0	0.0	0.0	0.0	18.000260973053855	0.0	0.0
0.0	0.0	3.141592653589793	0.11962937562261189	-1.98968	0.959931	0.0	0.0	0.0	-2.146028917929735	0.0	0.0	0.0	0.0	0.0	18.458278285754858	0.0	0.0
0.0	0.0	3.141592653589793	0.11119406999447934	-1.98968	0.959931	0.0	0.0	0.0	-2.0713445534003654	0.0	0.0	0.0	0.0	0.0	18.877265737540256	0.0	0.0
0.0	0.0	3.141592653589793	0.10306074644609853	-1.98968	0.959931	0.0	0.0	0.0	-1.9950649640770841	0.0	0.0	0.0	0.0	0.0	19.255624153570892	0.0	0.0
0.0	0.0	3.141592653589793	0.09523545657989518	-1.98968	0.959931	0.0	0.0	0.0	-1.9173558644525919	0.0	0.0	0.0	0.0	0.0	19.59175435900778	0.0	0.0
0.0	0.0	3.141592653589793	0.08772357634692085	-1.98968	0.959931	0.0	0.0	0.0	-1.8383893657189319	0.0	0.0	0.0	0.0	0.0	19.884057179011705	0.0	0.0
0.0	0.0	3.141592653589793	0.08052978046006509	-1.98968	0.959931	0.0	0.0	0.0	-1.7583439757675219	0.0	0.0	0.0	0.0	0.0	20.130933438743853	0.0	0.0
0.0	0.0	3.141592653589793	0.0736580168072476	-1.98968	0.959931	0.0	0.0	0.0	-1.6774045991891313	0.0	0.0	0.0	0.0	0.0	20.330783963365008	0.0	0.0
0.0	0.0	3.141592653589793	0.06711148086463203	-1.98968	0.959931	0.0	0.0	0.0	-1.5957625372738775	0.0	0.0	0.0	0.0	0.0	20.482009578036184	0.0	0.0
0.0	0.0	3.141592653589793	0.060892590109817624	-1.98968	0.959931	0.0	0.0	0.0	-1.5136154880112223	0.0	0.0	0.0	0.0	0.0	20.58301110791831	0.0	0.0
0.0	0.0	3.141592653589793	0.05500295843505154	-1.98968	0.959931	0.0	0.0	0.0	-1.431167546090034	0.0	0.0	0.0	0.0	0.0	20.632189378172285	0.0	0.0
0.0	0.0	3.141592653589793	0.04944337056042314	-1.98968	0.959931	0.0	0.0	0.0	-1.3486292028984792	0.0	0.0	0.0	0.0	0.0	20.62794521395915	0.0	0.0
0.0	0.0	3.141592653589793	0.044213756447071484	-1.98968	0.959931	0.0	0.0	0.0	-1.2662173465240976	0.0	0.0	0.0	0.0	0.0	20.56867944043975	0.0	0.0
0.0	0.0	3.141592653589793	0.039313165710389564	-1.98968	0.959931	0.0	0.0	0.0	-1.184155261753812	0.0	0.0	0.0	0.0	0.0	20.452792882775128	0.0	0.0
0.0	0.0	3.141592653589793	0.0347397420332185	-1.98968	0.959931	0.0	0.0	0.0	-1.1026726300738794	0.0	0.0	0.0	0.0	0.0	20.278686366126124	0.0	0.0
0.0	0.0	3.141592653589793	0.030490697579060644	-1.98968	0.959931	0.0	0.0	0.0	-1.022005529669908	0.0	0.0	0.0	0.0	0.0	20.04476071565378	0.0	0.0
0.0	0.0	3.141592653589793	0.026562287405275775	-1.98968	0.959931	0.0	0.0	0.0	-0.9423964354268541	0.0	0.0	0.0	0.0	0.0	19.74941675651894	0.0	0.0
0.0	0.0	3.141592653589793	0.02294978387628399	-1.98968	0.959931	0.0	0.0	0.0	-0.8640942189290897	0.0	0.0	0.0	0.0	0.0	19.39105531388276	0.0	0.0
0.0	0.0	3.141592653589793	0.01964745107676924	-1.98968	0.959931	0.0	0.0	0.0	-0.7873541484602669	0.0	0.0	0.0	0.0	0.0	18.96807721290594	0.0	0.0
0.0	0.0	3.141592653589793	0.016648519224883085	-1.98968	0.959931	0.0	0.0	0.0	-0.7124378890034038	0.0	0.0	0.0	0.0	0.0	18.478883278749493	0.0	0.0
0.0	0.0	3.141592653589793	0.013945159085447134	-1.98968	0.959931	0.0	0.0	0.0	-0.6396135022409553	0.0	0.0	0.0	0.0	0.0	17.92187433657432	0.0	0.0
0.0	0.0	3.141592653589793	0.011528456383152363	-1.98968	0.959931	0.0	0.0	0.0	-0.5691554465546247	0.0	0.0	0.0	0.0	0.0	17.29545121154149	0.0	0.0
0.0	0.0	3.141592653589793	0.009388386215764655	-1.98968	0.959931	0.0	0.0	0.0	-0.5013445770255487	0.0	0.0	0.0	0.0	0.0	16.598014728812018	0.0	0.0
0.0	0.0	3.141592653589793	0.007513787467328559	-1.98968	0.959931	0.0	0.0	0.0	-0.43646814543417634	0.0	0.0	0.0	0.0	0.0	15.827965713546746	0.0	0.0
0.0	0.0	3.141592653589793	0.005892337221366173	-1.98968	0.959931	0.0	0.0	0.0	-0.37481980026034734	0.0	0.0	0.0	0.0	0.0	14.983704990906404	0.0	0.0
0.0	0.0	3.141592653589793	0.004510525174081792	-1.98968	0.959931	0.0	0.0	0.0	-0.31669958668322096	0.0	0.0	0.0	0.0	0.0	14.063633386052231	0.0	0.0
0.0	0.0	3.141592653589793	0.0033536280475625624	-1.98968	0.959931	0.0	0.0	0.0	-0.2624139465813258	0.0	0.0	0.0	0.0	0.0	13.06615172414513	0.0	0.0
0.0	0.0	3.141592653589793	0.002405684002989794	-1.98968	0.959931	0.0	0.0	0.0	-0.21227571853257388	0.0	0.0	0.0	0.0	0.0	11.98966083034594	0.0	0.0
0.0	0.0	3.141592653589793	0.0016494670538285128	-1.98968	0.959931	0.0	0.0	0.0	-0.16660413781421113	0.0	0.0	0.0	0.0	0.0	10.832561529815678	0.0	0.0
0.0	0.0	3.141592653589793	0.0010664614790329985	-1.98968	0.959931	0.0	0.0	0.0	-0.12572483640281007	0.0	0.0	0.0	0.0	0.0	9.593254647715241	0.0	0.0
0.0	0.0	3.141592653589793	0.0006368362362594304	-1.98968	0.959931	0.0	0.0	0.0	-0.08996984297435517	0.0	0.0	0.0	0.0	0.0	8.270141009205588	0.0	0.0
0.0	0.0	3.141592653589793	0.000339419375057215	-1.98968	0.959931	0.0	0.0	0.0	-0.059677582904164694	0.0	0.0	0.0	0.0	0.0	6.861621439447788	0.0	0.0
0.0	0.0	3.141592653589793	0.00015167245007940977	-1.98968	0.959931	0.0	0.0	0.0	-0.03519287826689066	0.0	0.0	0.0	0.0	0.0	5.366096763602457	0.0	0.0
0.0	0.0	3.141592653589793	4.9664934278048634e-05	-1.98968	0.959931	0.0	0.0	0.0	-0.016866947836568613	0.0	0.0	0.0	0.0	0.0	3.7819678068309486	0.0	0.0
0.0	0.0	3.141592653589793	8.048632111012921e-06	-1.98968	0.959931	0.0	0.0	0.0	-0.0050574070865962995	0.0	0.0	0.0	0.0	0.0	2.10763539429405	0.0	0.0
0.0	0.0	3.141592653589793	3.209274446192012e-08	-1.98968	0.959931	0.0	0.0	0.0	-0.00012826818969813303	0.0	0.0	0.0	0.0	0.0	0.3415003511526038	0.0	0.0
0.0	0.0	3.141592653589793	0.0	-1.98968	0.959931	0.0	0.0	0.0	0.0	0.0	0.0	0.0	0.0	0.0	0.0	0.0	0.0
0.0	0.0	3.141592653589793	0.0	-1.9896779815462085	0.959931	0.0	0.0	0.0	0.0	0.0015102902879362947	0.0	0.0	0.0	0.0	0.0	0.7515984198909192	0.0
0.0	0.0	3.141592653589793	0.0	-1.9896639657582267	0.959931	0.0	0.0	0.0	0.0	0.005984546830974305	0.0	0.0	0.0	0.0	0.0	1.4820164436670522	0.0
0.0	0.0	3.141592653589793	0.0	-1.9896262656811456	0.959931	0.0	0.0	0.0	0.0	0.013338447838049217	0.0	0.0	0.0	0.0	0.0	2.1914539680255642	0.0
0.0	0.0	3.141592653589793	0.0	-1.9895535300480465	0.959931	0.0	0.0	0.0	0.0	0.02348847110488488	0.0	0.0	0.0	0.0	0.0	2.880110889663621	0.0
0.0	0.0	3.141592653589793	0.0	-1.989434740081654	0.959931	0.0	0.0	0.0	0.0	0.03635189401399381	0.0	0.0	0.0	0.0	0.0	3.5481871052783887	0.0
0.0	0.0	3.141592653589793	0.0	-1.9892592062959897	0.959931	0.0	0.0	0.0	0.0	0.05184679353467716	0.0	0.0	0.0	0.0	0.0	4.195882511567033	0.0
0.0	0.0	3.141592653589793	0.0	-1.9890165652980236	0.959931	0.0	0.0	0.0	0.0	0.0698920462230248	0.0	0.0	0.0	0.0	0.0	4.823397005226718	0.0
0.0	0.0	3.141592653589793	0.0	-1.9886967765893289	0.959931	0.0	0.0	0.0	0.0	0.09040732822191516	0.0	0.0	0.0	0.0	0.0	5.43093048295461	0.0
0.0	0.0	3.141592653589793	0.0	-1.988290119367732	0.959931	0.0	0.0	0.0	0.0	0.1133131152610155	0.0	0.0	0.0	0.0	0.0	6.018682841447876	0.0
0.0	0.0	3.141592653589793	0.0	-1.987787189328969	0.959931	0.0	0.0	0.0	0.0	0.13853068265678162	0.0	0.0	0.0	0.0	0.0	6.58685397740368	0.0
0.0	0.0	3.141592653589793	0.0	-1.987178895468335	0.959931	0.0	0.0	0.0	0.0	0.16598210531245794	0.0	0.0	0.0	0.0	0.0	7.135643787519189	0.0
0.0	0.0	3.141592653589793	0.0	-1.9864564568823397	0.959931	0.0	0.0	0.0	0.0	0.19559025771807764	0.0	0.0	0.0	0.0	0.0	7.665252168491568	0.0
0.0	0.0	3.141592653589793	0.0	-1.9856113995703586	0.959931	0.0	0.0	0.0	0.0	0.2272788139504626	0.0	0.0	0.0	0.0	0.0	8.175879017017982	0.0
0.0	0.0	3.141592653589793	0.0	-1.984635553236286	0.959931	0.0	0.0	0.0	0.0	0.26097224767322313	0.0	0.0	0.0	0.0	0.0	8.667724229795594	0.0
