corentinberge/project_M2/Robot/Yaskawa/Code/src/identification_YASKAWA/All_positiondata_file.txt
q1	q2	q3	q4	q5	q6
0.001	0.001	1.69297	0.05	-1.98968	0.959931	0.0	0.0	0.0	0.0	0.0	0.0	0.0	0.0	0.0	0.0	0.0	0.0
0.0	0.001	1.69297	0.05	-1.98968	0.959931	0.0	0.0	0.0	0.0	0.0	0.0	0.0	0.0	0.0	0.0	0.0	0.0
0.0	0.0	1.69297	0.05	-1.98968	0.959931	0.0	0.0	0.0	0.0	0.0	0.0	0.0	0.0	0.0	0.0	0.0	0.0
0.0	0.0	1.6929920277354524	0.05	-1.98968	0.959931	0.0	0.0	0.006569792091166229	0.0	0.0	0.0	0.0	0.0	1.2985829839012826	0.0	0.0	0.0
0.0	0.0	1.693143153993448	0.05	-1.98968	0.959931	0.0	0.0	0.025667749339364766	0.0	0.0	0.0	0.0	0.0	2.5059928662043	0.0	0.0	0.0
0.0	0.0	1.6935441377539577	0.05	-1.98968	0.959931	0.0	0.0	0.056392935772548114	0.0	0.0	0.0	0.0	0.0	3.624388655696082	0.0	0.0	0.0
0.0	0.0	1.6943068365876701	0.05	-1.98968	0.959931	0.0	0.0	0.09786600550653907	0.0	0.0	0.0	0.0	0.0	4.655929361163661	0.0	0.0	0.0
0.0	0.0	1.6955344225568714	0.05	-1.98968	0.959931	0.0	0.0	0.14922920274503076	0.0	0.0	0.0	0.0	0.0	5.602773991394066	0.0	0.0	0.0
0.0	0.0	1.6973215981163254	0.05	-1.98968	0.959931	0.0	0.0	0.20964636177958662	0.0	0.0	0.0	0.0	0.0	6.467081555174328	0.0	0.0	0.0
0.0	0.0	1.6997548120141495	0.05	-1.98968	0.959931	0.0	0.0	0.27830290698964033	0.0	0.0	0.0	0.0	0.0	7.251011061291477	0.0	0.0	0.0
0.0	0.0	1.7029124751926956	0.05	-1.98968	0.959931	0.0	0.0	0.35440585284249587	0.0	0.0	0.0	0.0	0.0	7.956721518532543	0.0	0.0	0.0
0.0	0.0	1.7068651766894274	0.05	-1.98968	0.959931	0.0	0.0	0.4371838038933276	0.0	0.0	0.0	0.0	0.0	8.586371935684557	0.0	0.0	0.0
0.0	0.0	1.7116758995378	0.05	-1.98968	0.959931	0.0	0.0	0.5258869547851802	0.0	0.0	0.0	0.0	0.0	9.142121321534551	0.0	0.0	0.0
0.0	0.0	1.7174002366681387	0.05	-1.98968	0.959931	0.0	0.0	0.6197870902489686	0.0	0.0	0.0	0.0	0.0	9.626128684869553	0.0	0.0	0.0
0.0	0.0	1.7240866068085166	0.05	-1.98968	0.959931	0.0	0.0	0.7181775851034781	0.0	0.0	0.0	0.0	0.0	10.040553034476595	0.0	0.0	0.0
0.0	0.0	1.7317764703856342	0.05	-1.98968	0.959931	0.0	0.0	0.820373404255364	0.0	0.0	0.0	0.0	0.0	10.387553379142707	0.0	0.0	0.0
0.0	0.0	1.740504545425698	0.05	-1.98968	0.959931	0.0	0.0	0.9257111026991525	0.0	0.0	0.0	0.0	0.0	10.66928872765492	0.0	0.0	0.0
0.0	0.0	1.7502990234552998	0.05	-1.98968	0.959931	0.0	0.0	1.0335488255172396	0.0	0.0	0.0	0.0	0.0	10.887918088800266	0.0	0.0	0.0
0.0	0.0	1.7611817854022929	0.05	-1.98968	0.959931	0.0	0.0	1.1432663078798915	0.0	0.0	0.0	0.0	0.0	11.045600471365768	0.0	0.0	0.0
0.0	0.0	1.7731686174966745	0.05	-1.98968	0.959931	0.0	0.0	1.254264875045246	0.0	0.0	0.0	0.0	0.0	11.144494884138465	0.0	0.0	0.0
0.0	0.0	1.7862694271714614	0.05	-1.98968	0.959931	0.0	0.0	1.3659674423593084	0.0	0.0	0.0	0.0	0.0	11.186760335905383	0.0	0.0	0.0
0.0	0.0	1.8004884589635706	0.05	-1.98968	0.959931	0.0	0.0	1.477818515255958	0.0	0.0	0.0	0.0	0.0	11.17455583545355	0.0	0.0	0.0
0.0	0.0	1.8158245104146964	0.05	-1.98968	0.959931	0.0	0.0	1.5892841892569407	0.0	0.0	0.0	0.0	0.0	11.110040391570008	0.0	0.0	0.0
0.0	0.0	1.8322711479721907	0.05	-1.98968	0.959931	0.0	0.0	1.6998521499718762	0.0	0.0	0.0	0.0	0.0	10.995373013041775	0.0	0.0	0.0
0.0	0.0	1.8498169228899402	0.05	-1.98968	0.959931	0.0	0.0	1.809031673098251	0.0	0.0	0.0	0.0	0.0	10.83271270865589	0.0	0.0	0.0
0.0	0.0	1.8684455871292462	0.05	-1.98968	0.959931	0.0	0.0	1.916353624421425	0.0	0.0	0.0	0.0	0.0	10.624218487199375	0.0	0.0	0.0
0.0	0.0	1.8881363092597034	0.05	-1.98968	0.959931	0.0	0.0	2.0213704598146265	0.0	0.0	0.0	0.0	0.0	10.37204935745927	0.0	0.0	0.0
0.0	0.0	1.9088638903600774	0.05	-1.98968	0.959931	0.0	0.0	2.123656225238955	0.0	0.0	0.0	0.0	0.0	10.078364328222593	0.0	0.0	0.0
0.0	0.0	1.9305989799191845	0.05	-1.98968	0.959931	0.0	0.0	2.22280655674338	0.0	0.0	0.0	0.0	0.0	9.745322408276389	0.0	0.0	0.0
0.0	0.0	1.9533082917367692	0.05	-1.98968	0.959931	0.0	0.0	2.3184386804647406	0.0	0.0	0.0	0.0	0.0	9.37508260640768	0.0	0.0	0.0
0.0	0.0	1.9769548198243863	0.05	-1.98968	0.959931	0.0	0.0	2.410191412627748	0.0	0.0	0.0	0.0	0.0	8.969803931403492	0.0	0.0	0.0
0.0	0.0	2.0014980543062735	0.05	-1.98968	0.959931	0.0	0.0	2.4977251595449834	0.0	0.0	0.0	0.0	0.0	8.531645392050866	0.0	0.0	0.0
0.0	0.0	2.026894197320236	0.05	-1.98968	0.959931	0.0	0.0	2.580721917616895	0.0	0.0	0.0	0.0	0.0	8.062765997136825	0.0	0.0	0.0
0.0	0.0	2.0530963789185224	0.05	-1.98968	0.959931	0.0	0.0	2.658885273331806	0.0	0.0	0.0	0.0	0.0	7.565324755448403	0.0	0.0	0.0
0.0	0.0	2.080054872968704	0.05	-1.98968	0.959931	0.0	0.0	2.7319404032659054	0.0	0.0	0.0	0.0	0.0	7.0414806757726325	0.0	0.0	0.0
0.0	0.0	2.1077173130545526	0.05	-1.98968	0.959931	0.0	0.0	2.7996340740832575	0.0	0.0	0.0	0.0	0.0	6.493392766896539	0.0	0.0	0.0
0.0	0.0	2.1360289083769213	0.05	-1.98968	0.959931	0.0	0.0	2.861734642535792	0.0	0.0	0.0	0.0	0.0	5.923220037607164	0.0	0.0	0.0
0.0	0.0	2.16493265965462	0.05	-1.98968	0.959931	0.0	0.0	2.918032055463313	0.0	0.0	0.0	0.0	0.0	5.333121496691517	0.0	0.0	0.0
0.0	0.0	2.194369575025298	0.05	-1.98968	0.959931	0.0	0.0	2.9683378497934907	0.0	0.0	0.0	0.0	0.0	4.725256152936648	0.0	0.0	0.0
0.0	0.0	2.2242788859463185	0.05	-1.98968	0.959931	0.0	0.0	3.012485152541873	0.0	0.0	0.0	0.0	0.0	4.10178301512957	0.0	0.0	0.0
0.0	0.0	2.254598263095642	0.05	-1.98968	0.959931	0.0	0.0	3.050328680811867	0.0	0.0	0.0	0.0	0.0	3.4648610920573333	0.0	0.0	0.0
0.0	0.0	2.2852640322727003	0.05	-1.98968	0.959931	0.0	0.0	3.0817447417947577	0.0	0.0	0.0	0.0	0.0	2.816649392506939	0.0	0.0	0.0
0.0	0.0	2.3162113902992782	0.05	-1.98968	0.959931	0.0	0.0	3.1066312327697	0.0	0.0	0.0	0.0	0.0	2.1593069252654757	0.0	0.0	0.0
0.0	0.0	2.3473746209203927	0.05	-1.98968	0.959931	0.0	0.0	3.124907641103721	0.0	0.0	0.0	0.0	0.0	1.4949926991198978	0.0	0.0	0.0
0.0	0.0	2.3786873107051676	0.05	-1.98968	0.959931	0.0	0.0	3.1365150442517087	0.0	0.0	0.0	0.0	0.0	0.8258657228572908	0.0	0.0	0.0
0.0	0.0	2.4100825649477176	0.05	-1.98968	0.959931	0.0	0.0	3.141416109756433	0.0	0.0	0.0	0.0	0.0	0.1540850052646725	0.0	0.0	0.0
0.0	0.0	2.4414932235680227	0.05	-1.98968	0.959931	0.0	0.0	3.1395950952485236	0.0	0.0	0.0	0.0	0.0	-0.5181904448709354	0.0	0.0	0.0
0.0	0.0	2.472852077012808	0.05	-1.98968	0.959931	0.0	0.0	3.1310578484464937	0.0	0.0	0.0	0.0	0.0	-1.1888016187625112	0.0	0.0	0.0
0.0	0.0	2.5040920821564283	0.05	-1.98968	0.959931	0.0	0.0	3.115831807156712	0.0	0.0	0.0	0.0	0.0	-1.8555895076230087	0.0	0.0	0.0
0.0	0.0	2.535146578201732	0.05	-1.98968	0.959931	0.0	0.0	3.0939659992734265	0.0	0.0	0.0	0.0	0.0	-2.516395102665392	0.0	0.0	0.0
0.0	0.0	2.5659495025809593	0.05	-1.98968	0.959931	0.0	0.0	3.0655310427787548	0.0	0.0	0.0	0.0	0.0	-3.169059395102636	0.0	0.0	0.0
0.0	0.0	2.5964356068566046	0.05	-1.98968	0.959931	0.0	0.0	3.0306191457426825	0.0	0.0	0.0	0.0	0.0	-3.811423376147715	0.0	0.0	0.0
0.0	0.0	2.6265406726223026	0.05	-1.98968	0.959931	0.0	0.0	2.989344106323064	0.0	0.0	0.0	0.0	0.0	-4.441328037013605	0.0	0.0	0.0
0.0	0.0	2.6562017274037077	0.05	-1.98968	0.959931	0.0	0.0	2.9418413127656287	0.0	0.0	0.0	0.0	0.0	-5.056614368913252	0.0	0.0	0.0
0.0	0.0	2.685357260559369	0.05	-1.98968	0.959931	0.0	0.0	2.8882677434039765	0.0	0.0	0.0	0.0	0.0	-5.6551233630596585	0.0	0.0	0.0
0.0	0.0	2.7139474391816125	0.05	-1.98968	0.959931	0.0	0.0	2.8288019666595687	0.0	0.0	0.0	0.0	0.0	-6.234696010665772	0.0	0.0	0.0
0.0	0.0	2.7419143239974177	0.05	-1.98968	0.959931	0.0	0.0	2.763644141041752	0.0	0.0	0.0	0.0	0.0	-6.793173302944574	0.0	0.0	0.0
0.0	0.0	2.769202085269295	0.05	-1.98968	0.959931	0.0	0.0	2.693016015147725	0.0	0.0	0.0	0.0	0.0	-7.3283962311089965	0.0	0.0	0.0
0.0	0.0	2.7957572186961697	0.05	-1.98968	0.959931	0.0	0.0	2.6171609276625727	0.0	0.0	0.0	0.0	0.0	-7.838205786372079	0.0	0.0	0.0
0.0	0.0	2.8215287613142532	0.05	-1.98968	0.959931	0.0	0.0	2.536343807359243	0.0	0.0	0.0	0.0	0.0	-8.320442959946732	0.0	0.0	0.0
0.0	0.0	2.8464685073979306	0.05	-1.98968	0.959931	0.0	0.0	2.450851173098563	0.0	0.0	0.0	0.0	0.0	-8.772948743045944	0.0	0.0	0.0
0.0	0.0	2.8705312243606307	0.05	-1.98968	0.959931	0.0	0.0	2.3609911338292022	0.0	0.0	0.0	0.0	0.0	-9.193564126882691	0.0	0.0	0.0
0.0	0.0	2.8936748686557094	0.05	-1.98968	0.959931	0.0	0.0	2.2670933885877336	0.0	0.0	0.0	0.0	0.0	-9.58013010266994	0.0	0.0	0.0
0.0	0.0	2.915860801677328	0.05	-1.98968	0.959931	0.0	0.0	2.1695092264985956	0.0	0.0	0.0	0.0	0.0	-9.930487661620646	0.0	0.0	0.0
0.0	0.0	2.9370540056613317	0.05	-1.98968	0.959931	0.0	0.0	2.068611526774067	0.0	0.0	0.0	0.0	0.0	-10.242477794947789	0.0	0.0	0.0
0.0	0.0	2.9572232995861256	0.05	-1.98968	0.959931	0.0	0.0	1.9647947587143406	0.0	0.0	0.0	0.0	0.0	-10.513941493864351	0.0	0.0	0.0
0.0	0.0	2.976341555073562	0.05	-1.98968	0.959931	0.0	0.0	1.85847498170744	0.0	0.0	0.0	0.0	0.0	-10.742719749583287	0.0	0.0	0.0
0.0	0.0	2.9943859122898067	0.05	-1.98968	0.959931	0.0	0.0	1.7500898452292937	0.0	0.0	0.0	0.0	0.0	-10.926653553317564	0.0	0.0	0.0
0.0	0.0	3.0113379958462247	0.05	-1.98968	0.959931	0.0	0.0	1.64009858884366	0.0	0.0	0.0	0.0	0.0	-11.063583896280122	0.0	0.0	0.0
0.0	0.0	3.027184130700262	0.05	-1.98968	0.959931	0.0	0.0	1.528982042202216	0.0	0.0	0.0	0.0	0.0	-11.151351769684027	0.0	0.0	0.0
0.0	0.0	3.041915558056316	0.05	-1.98968	0.959931	0.0	0.0	1.4172426250444659	0.0	0.0	0.0	0.0	0.0	-11.187798164742134	0.0	0.0	0.0
0.0	0.0	3.055528651266622	0.05	-1.98968	0.959931	0.0	0.0	1.3054043471978112	0.0	0.0	0.0	0.0	0.0	-11.170764072667495	0.0	0.0	0.0
0.0	0.0	3.0680251317321274	0.05	-1.98968	0.959931	0.0	0.0	1.1940128085775115	0.0	0.0	0.0	0.0	0.0	-11.098090484673037	0.0	0.0	0.0
0.0	0.0	3.079412284803373	0.05	-1.98968	0.959931	0.0	0.0	1.083635199186702	0.0	0.0	0.0	0.0	0.0	-10.96761839197174	0.0	0.0	0.0
0.0	0.0	3.0897031756813655	0.05	-1.98968	0.959931	0.0	0.0	0.9748602991163899	0.0	0.0	0.0	0.0	0.0	-10.777188785776616	0.0	0.0	0.0
0.0	0.0	3.0989168653184667	0.05	-1.98968	0.959931	0.0	0.0	0.8682984785454444	0.0	0.0	0.0	0.0	0.0	-10.524642657300518	0.0	0.0	0.0
0.0	0.0	3.1070786263192627	0.05	-1.98968	0.959931	0.0	0.0	0.7645816977406135	0.0	0.0	0.0	0.0	0.0	-10.207820997756556	0.0	0.0	0.0
0.0	0.0	3.1142201588414498	0.05	-1.98968	0.959931	0.0	0.0	0.664363507056489	0.0	0.0	0.0	0.0	0.0	-9.824564798357585	0.0	0.0	0.0
0.0	0.0	3.1203798064967048	0.05	-1.98968	0.959931	0.0	0.0	0.5683190469355885	0.0	0.0	0.0	0.0	0.0	-9.372715050316657	0.0	0.0	0.0
0.0	0.0	3.1256027722515745	0.05	-1.98968	0.959931	0.0	0.0	0.47714504790826595	0.0	0.0	0.0	0.0	0.0	-8.850112744846797	0.0	0.0	0.0
0.0	0.0	3.1299413343283433	0.05	-1.98968	0.959931	0.0	0.0	0.39155983059271193	0.0	0.0	0.0	0.0	0.0	-8.254598873160688	0.0	0.0	0.0
0.0	0.0	3.1334550621059236	0.05	-1.98968	0.959931	0.0	0.0	0.31230330569504616	0.0	0.0	0.0	0.0	0.0	-7.584014426471697	0.0	0.0	0.0
0.0	0.0	3.136211032020718	0.05	-1.98968	0.959931	0.0	0.0	0.24013697400925338	0.0	0.0	0.0	0.0	0.0	-6.836200395992478	0.0	0.0	0.0
0.0	0.0	3.1382840434675225	0.05	-1.98968	0.959931	0.0	0.0	0.1758439264171372	0.0	0.0	0.0	0.0	0.0	-6.008997772936141	0.0	0.0	0.0
0.0	0.0	3.1397568347003757	0.05	-1.98968	0.959931	0.0	0.0	0.12022884388841248	0.0	0.0	0.0	0.0	0.0	-5.100247548515625	0.0	0.0	0.0
0.0	0.0	3.14072029873346	0.05	-1.98968	0.959931	0.0	0.0	0.07411799748064851	0.0	0.0	0.0	0.0	0.0	-4.107790713943956	0.0	0.0	0.0
0.0	0.0	3.141273699241977	0.05	-1.98968	0.959931	0.0	0.0	0.0383592483393258	0.0	0.0	0.0	0.0	0.0	-3.029468260433987	0.0	0.0	0.0
0.0	0.0	3.1415248864630128	0.05	-1.98968	0.959931	0.0	0.0	0.01382204769772244	0.0	0.0	0.0	0.0	0.0	-1.8631211791987994	0.0	0.0	0.0
0.0	0.0	3.141590513096432	0.05	-1.98968	0.959931	0.0	0.0	0.0013974368770561796	0.0	0.0	0.0	0.0	0.0	-0.6065904614513045	0.0	0.0	0.0
0.0	0.0	3.141592653589793	0.05	-1.98968	0.959931	0.0	0.0	0.0	0.0	0.0	0.0	0.0	0.0	0.0	0.0	0.0	0.0
0.0	0.0	3.141592653589793	0.03937472326385845	-1.98968	0.959931	0.0	0.0	0.0	-2.495373232293395	0.0	0.0	0.0	0.0	0.0	-247.54459944346962	0.0	0.0
0.0	0.0	3.141592653589793	0.010233021833025949	-1.98968	0.959931	0.0	0.0	0.0	-2.4556778890069726	0.0	0.0	0.0	0.0	0.0	253.47503107178363	0.0	0.0
0.0	0.0	3.141592653589793	0.0	-1.98968	0.959931	0.0	0.0	0.0	0.0	0.0	0.0	0.0	0.0	0.0	0.0	0.0	0.0
0.0	0.0	3.141592653589793	0.0	-1.989648793540213	0.959931	0.0	0.0	0.0	0.0	0.009306780654589768	0.0	0.0	0.0	0.0	0.0	1.8393452747299381	0.0
0.0	0.0	3.141592653589793	0.0	-1.989434740081654	0.959931	0.0	0.0	0.0	0.0	0.03635189401399381	0.0	0.0	0.0	0.0	0.0	3.5481871052783887	0.0
0.0	0.0	3.141592653589793	0.0	-1.9888669294130534	0.959931	0.0	0.0	0.0	0.0	0.0798459225658633	0.0	0.0	0.0	0.0	0.0	5.129648877538566	0.0
0.0	0.0	3.141592653589793	0.0	-1.987787189328969	0.959931	0.0	0.0	0.0	0.0	0.13853068265678156	0.0	0.0	0.0	0.0	0.0	6.58685397740368	0.0
0.0	0.0	3.141592653589793	0.0	-1.9860497732911981	0.959931	0.0	0.0	0.0	0.0	0.21117922449226412	0.0	0.0	0.0	0.0	0.0	7.9229257907669455	0.0
0.0	0.0	3.141592653589793	0.0	-1.983521048090189	0.959931	0.0	0.0	0.0	0.0	0.29659583213675844	0.0	0.0	0.0	0.0	0.0	9.140987703521574	0.0
0.0	0.0	3.141592653589793	0.0	-1.9800791815064505	0.959931	0.0	0.0	0.0	0.0	0.39361602351364416	0.0	0.0	0.0	0.0	0.0	10.24416310156078	0.0
0.0	0.0	3.141592653589793	0.0	-1.9756138299719623	0.959931	0.0	0.0	0.0	0.0	0.5011065504052333	0.0	0.0	0.0	0.0	0.0	11.235575370777772	0.0
0.0	0.0	3.141592653589793	0.0	-1.970025826231588	0.959931	0.0	0.0	0.0	0.0	0.6179653984527695	0.0	0.0	0.0	0.0	0.0	12.118347897065767	0.0
0.0	0.0	3.141592653589793	0.0	-1.9632268670044821	0.959931	0.0	0.0	0.0	0.0	0.7431217871564292	0.0	0.0	0.0	0.0	0.0	12.895604066317977	0.0
0.0	0.0	3.141592653589793	0.0	-1.9551392006455042	0.959931	0.0	0.0	0.0	0.0	0.8755361698753203	0.0	0.0	0.0	0.0	0.0	13.570467264427613	0.0
0.0	0.0	3.141592653589793	0.0	-1.945695314806627	0.959931	0.0	0.0	0.0	0.0	1.0142002338274836	0.0	0.0	0.0	0.0	0.0	14.146060877287889	0.0
0.0	0.0	3.141592653589793	0.0	-1.934837624098349	0.959931	0.0	0.0	0.0	0.0	1.158136900089891	0.0	0.0	0.0	0.0	0.0	14.625508290792018	0.0
0.0	0.0	3.141592653589793	0.0	-1.922518157751104	0.959931	0.0	0.0	0.0	0.0	1.3064003235984476	0.0	0.0	0.0	0.0	0.0	15.01193289083321	0.0
0.0	0.0	3.141592653589793	0.0	-1.9086982472766723	0.959931	0.0	0.0	0.0	0.0	1.4580758931479896	0.0	0.0	0.0	0.0	0.0	15.30845806330468	0.0
0.0	0.0	3.141592653589793	0.0	-1.8933482141295903	0.959931	0.0	0.0	0.0	0.0	1.6122802313922864	0.0	0.0	0.0	0.0	0.0	15.518207194099645	0.0
0.0	0.0	3.141592653589793	0.0	-1.8764470573685637	0.959931	0.0	0.0	0.0	0.0	1.7681611948440386	0.0	0.0	0.0	0.0	0.0	15.644303669111308	0.0
0.0	0.0	3.141592653589793	0.0	-1.8579821413178745	0.959931	0.0	0.0	0.0	0.0	1.9248978738748788	0.0	0.0	0.0	0.0	0.0	15.689870874232886	0.0
0.0	0.0	3.141592653589793	0.0	-1.8379488832287958	0.959931	0.0	0.0	0.0	0.0	2.0817005927153738	0.0	0.0	0.0	0.0	0.0	15.65803219535759	0.0
0.0	0.0	3.141592653589793	0.0	-1.816350440940999	0.959931	0.0	0.0	0.0	0.0	2.237810909455019	0.0	0.0	0.0	0.0	0.0	15.551911018378643	0.0
0.0	0.0	3.141592653589793	0.0	-1.7931974005439657	0.959931	0.0	0.0	0.0	0.0	2.392501616042245	0.0	0.0	0.0	0.0	0.0	15.374630729189242	0.0
0.0	0.0	3.141592653589793	0.0	-1.7685074640383993	0.959931	0.0	0.0	0.0	0.0	2.5450767382844135	0.0	0.0	0.0	0.0	0.0	15.129314713682604	0.0
0.0	0.0	3.141592653589793	0.0	-1.7423051369976352	0.959931	0.0	0.0	0.0	0.0	2.6948715358478177	0.0	0.0	0.0	0.0	0.0	14.819086357751956	0.0
0.0	0.0	3.141592653589793	0.0	-1.7146214162290503	0.959931	0.0	0.0	0.0	0.0	2.8412525022576833	0.0	0.0	0.0	0.0	0.0	14.447069047290498	0.0
0.0	0.0	3.141592653589793	0.0	-1.685493477435475	0.959931	0.0	0.0	0.0	0.0	2.9836173648981688	0.0	0.0	0.0	0.0	0.0	14.016386168191428	0.0
0.0	0.0	3.141592653589793	0.0	-1.6549643628766035	0.959931	0.0	0.0	0.0	0.0	3.121395085012364	0.0	0.0	0.0	0.0	0.0	13.530161106347995	0.0
0.0	0.0	3.141592653589793	0.0	-1.623082669030404	0.959931	0.0	0.0	0.0	0.0	3.2540458577022915	0.0	0.0	0.0	0.0	0.0	12.991517247653382	0.0
0.0	0.0	3.141592653589793	0.0	-1.5899022342545308	0.959931	0.0	0.0	0.0	0.0	3.3810611119289047	0.0	0.0	0.0	0.0	0.0	12.403577978000815	0.0
0.0	0.0	3.141592653589793	0.0	-1.5554818264477328	0.959931	0.0	0.0	0.0	0.0	3.5019635105120925	0.0	0.0	0.0	0.0	0.0	11.769466683283497	0.0
0.0	0.0	3.141592653589793	0.0	-1.5198848307112662	0.959931	0.0	0.0	0.0	0.0	3.616306950130671	0.0	0.0	0.0	0.0	0.0	11.092306749394645	0.0
0.0	0.0	3.141592653589793	0.0	-1.4831789370103043	0.959931	0.0	0.0	0.0	0.0	3.7236765613223906	0.0	0.0	0.0	0.0	0.0	10.375221562227475	0.0
0.0	0.0	3.141592653589793	0.0	-1.4454358278353479	0.959931	0.0	0.0	0.0	0.0	3.823688708483936	0.0	0.0	0.0	0.0	0.0	9.621334507675208	0.0
0.0	0.0	3.141592653589793	0.0	-1.4067308658636364	0.959931	0.0	0.0	0.0	0.0	3.915990989870922	0.0	0.0	0.0	0.0	0.0	8.833768971631034	0.0
0.0	0.0	3.141592653589793	0.0	-1.3671427816205581	0.959931	0.0	0.0	0.0	0.0	4.000262237597895	0.0	0.0	0.0	0.0	0.0	8.015648339988179	0.0
0.0	0.0	3.141592653589793	0.0	-1.3267533611410622	0.959931	0.0	0.0	0.0	0.0	4.076212517638336	0.0	0.0	0.0	0.0	0.0	7.170095998639869	0.0
0.0	0.0	3.141592653589793	0.0	-1.2856471336310673	0.959931	0.0	0.0	0.0	0.0	4.143583129824651	0.0	0.0	0.0	0.0	0.0	6.300235333479275	0.0
0.0	0.0	3.141592653589793	0.0	-1.2439110591288738	0.959931	0.0	0.0	0.0	0.0	4.202146607848192	0.0	0.0	0.0	0.0	0.0	5.409189730399643	0.0
0.0	0.0	3.141592653589793	0.0	-1.2016342161665738	0.959931	0.0	0.0	0.0	0.0	4.251706719259226	0.0	0.0	0.0	0.0	0.0	4.500082575294208	0.0
0.0	0.0	3.141592653589793	0.0	-1.1589074894314624	0.959931	0.0	0.0	0.0	0.0	4.292098465466966	0.0	0.0	0.0	0.0	0.0	3.576037254056118	0.0
0.0	0.0	3.141592653589793	0.0	-1.1158232574274471	0.959931	0.0	0.0	0.0	0.0	4.32318808173955	0.0	0.0	0.0	0.0	0.0	2.6401771525786586	0.0
0.0	0.0	3.141592653589793	0.0	-1.0724750801364606	0.959931	0.0	0.0	0.0	0.0	4.344873037204052	0.0	0.0	0.0	0.0	0.0	1.6956256567549843	0.0
0.0	0.0	3.141592653589793	0.0	-1.0289573866798682	0.959931	0.0	0.0	0.0	0.0	4.35708203484647	0.0	0.0	0.0	0.0	0.0	0.7455061524783346	0.0
0.0	0.0	3.141592653589793	0.0	-0.9853651629798833	0.959931	0.0	0.0	0.0	0.0	4.359775011511751	0.0	0.0	0.0	0.0	0.0	-0.20705797435807227	0.0
0.0	0.0	3.141592653589793	0.0	-0.9417936394209727	0.959931	0.0	0.0	0.0	0.0	4.352943137903754	0.0	0.0	0.0	0.0	0.0	-1.1589433378610465	0.0
0.0	0.0	3.141592653589793	0.0	-0.8983379785112718	0.959931	0.0	0.0	0.0	0.0	4.336608818585287	0.0	0.0	0.0	0.0	0.0	-2.107026552137377	0.0
0.0	0.0	3.141592653589793	0.0	-0.8550929625439914	0.959931	0.0	0.0	0.0	0.0	4.310825691978075	0.0	0.0	0.0	0.0	0.0	-3.048184231293831	0.0
0.0	0.0	3.141592653589793	0.0	-0.8121526812588327	0.959931	0.0	0.0	0.0	0.0	4.275678630362787	0.0	0.0	0.0	0.0	0.0	-3.9792929894371696	0.0
0.0	0.0	3.141592653589793	0.0	-0.769610219503393	0.959931	0.0	0.0	0.0	0.0	4.2312837398790215	0.0	0.0	0.0	0.0	0.0	-4.897229440674245	0.0
0.0	0.0	3.141592653589793	0.0	-0.7275573448945802	0.959931	0.0	0.0	0.0	0.0	4.177788360525297	0.0	0.0	0.0	0.0	0.0	-5.798870199111811	0.0
0.0	0.0	3.141592653589793	0.0	-0.6860841954800242	0.959931	0.0	0.0	0.0	0.0	4.115371066159094	0.0	0.0	0.0	0.0	0.0	-6.681091878856634	0.0
0.0	0.0	3.141592653589793	0.0	-0.6452789673994819	0.959931	0.0	0.0	0.0	0.0	4.0442416644967825	0.0	0.0	0.0	0.0	0.0	-7.5407710940155255	0.0
0.0	0.0	3.141592653589793	0.0	-0.6052276025462525	0.959931	0.0	0.0	0.0	0.0	3.9646411971137105	0.0	0.0	0.0	0.0	0.0	-8.374784458695302	0.0
0.0	0.0	3.141592653589793	0.0	-0.5660134762285909	0.959931	0.0	0.0	0.0	0.0	3.876841939444123	0.0	0.0	0.0	0.0	0.0	-9.180008587002703	0.0
0.0	0.0	3.141592653589793	0.0	-0.5277170848311104	0.959931	0.0	0.0	0.0	0.0	3.7811474007812134	0.0	0.0	0.0	0.0	0.0	-9.953320093044553	0.0
0.0	0.0	3.141592653589793	0.0	-0.49041573347619916	0.959931	0.0	0.0	0.0	0.0	3.6778923242770922	0.0	0.0	0.0	0.0	0.0	-10.691595590927548	0.0
0.0	0.0	3.141592653589793	0.0	-0.4541832236854302	0.959931	0.0	0.0	0.0	0.0	3.5674426869428295	0.0	0.0	0.0	0.0	0.0	-11.391711694758612	0.0
0.0	0.0	3.141592653589793	0.0	-0.41908954104097185	0.959931	0.0	0.0	0.0	0.0	3.450195699648406	0.0	0.0	0.0	0.0	0.0	-12.050545018644442	0.0
0.0	0.0	3.141592653589793	0.0	-0.38520054284699623	0.959931	0.0	0.0	0.0	0.0	3.326579807122739	0.0	0.0	0.0	0.0	0.0	-12.664972176691904	0.0
0.0	0.0	3.141592653589793	0.0	-0.35257764579109097	0.959931	0.0	0.0	0.0	0.0	3.1970546879536723	0.0	0.0	0.0	0.0	0.0	-13.231869783007653	0.0
0.0	0.0	3.141592653589793	0.0	-0.32127751360567336	0.959931	0.0	0.0	0.0	0.0	3.062111254587993	0.0	0.0	0.0	0.0	0.0	-13.748114451698584	0.0
0.0	0.0	3.141592653589793	0.0	-0.2913517447293956	0.959931	0.0	0.0	0.0	0.0	2.922271653331425	0.0	0.0	0.0	0.0	0.0	-14.210582796871478	0.0
0.0	0.0	3.141592653589793	0.0	-0.26284655996856054	0.959931	0.0	0.0	0.0	0.0	2.778089264348612	0.0	0.0	0.0	0.0	0.0	-14.616151432633089	0.0
0.0	0.0	3.141592653589793	0.0	-0.2358024901585285	0.959931	0.0	0.0	0.0	0.0	2.6301487016631135	0.0	0.0	0.0	0.0	0.0	-14.96169697309017	0.0
0.0	0.0	3.141592653589793	0.0	-0.2102540638251269	0.959931	0.0	0.0	0.0	0.0	2.479065813157465	0.0	0.0	0.0	0.0	0.0	-15.244096032349574	0.0
0.0	0.0	3.141592653589793	0.0	-0.18622949484606943	0.959931	0.0	0.0	0.0	0.0	2.3254876805730973	0.0	0.0	0.0	0.0	0.0	-15.460225224518126	0.0
0.0	0.0	3.141592653589793	0.0	-0.1637503701123566	0.959931	0.0	0.0	0.0	0.0	2.1700926195103847	0.0	0.0	0.0	0.0	0.0	-15.606961163702465	0.0
0.0	0.0	3.141592653589793	0.0	-0.14283133718968788	0.959931	0.0	0.0	0.0	0.0	2.013590179428636	0.0	0.0	0.0	0.0	0.0	-15.681180464009515	0.0
0.0	0.0	3.141592653589793	0.0	-0.12347979197988046	0.959931	0.0	0.0	0.0	0.0	1.8567211436460873	0.0	0.0	0.0	0.0	0.0	-15.679759739546029	0.0
0.0	0.0	3.141592653589793	0.0	-0.10569556638227517	0.959931	0.0	0.0	0.0	0.0	1.700257529339929	0.0	0.0	0.0	0.0	0.0	-15.599575604418732	0.0
0.0	0.0	3.141592653589793	0.0	-0.08947061595513706	0.959931	0.0	0.0	0.0	0.0	1.5450025875462394	0.0	0.0	0.0	0.0	0.0	-15.437504672734491	0.0
0.0	0.0	3.141592653589793	0.0	-0.07478870757708478	0.959931	0.0	0.0	0.0	0.0	1.3917908031600703	0.0	0.0	0.0	0.0	0.0	-15.19042355860006	0.0
0.0	0.0	3.141592653589793	0.0	-0.061625107108492116	0.959931	0.0	0.0	0.0	0.0	1.2414878949353891	0.0	0.0	0.0	0.0	0.0	-14.855208876122276	0.0
0.0	0.0	3.141592653589793	0.0	-0.049946267052893845	0.959931	0.0	0.0	0.0	0.0	1.0949908154850831	0.0	0.0	0.0	0.0	0.0	-14.428737239407837	0.0
0.0	0.0	3.141592653589793	0.0	-0.03970951421839963	0.959931	0.0	0.0	0.0	0.0	0.9532277512809912	0.0	0.0	0.0	0.0	0.0	-13.907885262563582	0.0
0.0	0.0	3.141592653589793	0.0	-0.030862737379111493	0.959931	0.0	0.0	0.0	0.0	0.8171581226538791	0.0	0.0	0.0	0.0	0.0	-13.289529559696206	0.0
0.0	0.0	3.141592653589793	0.0	-0.02334407493652879	0.959931	0.0	0.0	0.0	0.0	0.6877725837934534	0.0	0.0	0.0	0.0	0.0	-12.570546744912633	0.0
0.0	0.0	3.141592653589793	0.0	-0.017081602580955035	0.959931	0.0	0.0	0.0	0.0	0.5660930227483334	0.0	0.0	0.0	0.0	0.0	-11.747813432319731	0.0
0.0	0.0	3.141592653589793	0.0	-0.011993020952915323	0.959931	0.0	0.0	0.0	0.0	0.4531725614260793	0.0	0.0	0.0	0.0	0.0	-10.818206236024025	0.0
0.0	0.0	3.141592653589793	0.0	-0.00798534330456313	0.959931	0.0	0.0	0.0	0.0	0.35009555559316397	0.0	0.0	0.0	0.0	0.0	-9.778601770132468	0.0
0.0	0.0	3.141592653589793	0.0	-0.004954583161097759	0.959931	0.0	0.0	0.0	0.0	0.257977594875058	0.0	0.0	0.0	0.0	0.0	-8.625876648751785	0.0
0.0	0.0	3.141592653589793	0.0	-0.0027854419821586873	0.959931	0.0	0.0	0.0	0.0	0.1779655027560736	0.0	0.0	0.0	0.0	0.0	-7.356907485988756	0.0
0.0	0.0	3.141592653589793	0.0	-0.0013509968232625624	0.959931	0.0	0.0	0.0	0.0	0.11123733657953494	0.0	0.0	0.0	0.0	0.0	-5.968570895950165	0.0
0.0	0.0	3.141592653589793	0.0	-0.0005123879971851153	0.959931	0.0	0.0	0.0	0.0	0.059002387547636204	0.0	0.0	0.0	0.0	0.0	-4.4577434927429636	0.0
0.0	0.0	3.141592653589793	0.0	-0.00011850673538837952	0.959931	0.0	0.0	0.0	0.0	0.022501180721533842	0.0	0.0	0.0	0.0	0.0	-2.821301890473819	0.0
0.0	0.0	3.141592653589793	0.0	-5.682849426591474e-06	0.959931	0.0	0.0	0.0	0.0	0.003005475021339521	0.0	0.0	0.0	0.0	0.0	-1.0561227032494003	0.0
0.0	0.0	3.141592653589793	0.0	0.0	0.959931	0.0	0.0	0.0	0.0	0.0	0.0	0.0	0.0	0.0	0.0	0.0	0.0
0.0	0.0	3.141592653589793	0.0	0.0	0.959799459369073	0.0	0.0	0.0	0.0	0.0	-0.03897599125267944	0.0	0.0	0.0	0.0	0.0	-7.601679871941266
0.0	0.0	3.141592653589793	0.0	0.0	0.9589171864619893	0.0	0.0	0.0	0.0	0.0	-0.14825931302389767	0.0	0.0	0.0	0.0	0.0	-14.071074419404228
0.0	0.0	3.141592653589793	0.0	0.0	0.9566367614082175	0.0	0.0	0.0	0.0	0.0	-0.31681536153976586	0.0	0.0	0.0	0.0	0.0	-19.465833536567757
0.0	0.0	3.141592653589793	0.0	0.0	0.9524182278802568	0.0	0.0	0.0	0.0	0.0	-0.5341860319681841	0.0	0.0	0.0	0.0	0.0	-23.84360711761072
0.0	0.0	3.141592653589793	0.0	0.0	0.9458233281042177	0.0	0.0	0.0	0.0	0.0	-0.7904897184188414	0.0	0.0	0.0	0.0	0.0	-27.262045056711983
0.0	0.0	3.141592653589793	0.0	0.0	0.9365097378704055	0.0	0.0	0.0	0.0	0.0	-1.0764213139432148	0.0	0.0	0.0	0.0	0.0	-29.778797248050424
0.0	0.0	3.141592653589793	0.0	0.0	0.9242253015439015	0.0	0.0	0.0	0.0	0.0	-1.3832522105345701	0.0	0.0	0.0	0.0	0.0	-31.45151358580491
0.0	0.0	3.141592653589793	0.0	0.0	0.9088022670751453	0.0	0.0	0.0	0.0	0.0	-1.7028302991279625	0.0	0.0	0.0	0.0	0.0	-32.33784396415432
0.0	0.0	3.141592653589793	0.0	0.0	0.8901515210105172	0.0	0.0	0.0	0.0	0.0	-2.0275799696002355	0.0	0.0	0.0	0.0	0.0	-32.495438277277486
0.0	0.0	3.141592653589793	0.0	0.0	0.8682568235029202	0.0	0.0	0.0	0.0	0.0	-2.3505021107700204	0.0	0.0	0.0	0.0	0.0	-31.98194641935332
0.0	0.0	3.141592653589793	0.0	0.0	0.8431690433223618	0.0	0.0	0.0	0.0	0.0	-2.6651741103977398	0.0	0.0	0.0	0.0	0.0	-30.85501828456068
0.0	0.0	3.141592653589793	0.0	0.0	0.8150003928665362	0.0	0.0	0.0	0.0	0.0	-2.965749855185602	0.0	0.0	0.0	0.0	0.0	-29.172303767078425
0.0	0.0	3.141592653589793	0.0	0.0	0.7839186631714072	0.0	0.0	0.0	0.0	0.0	-3.2469597307776055	0.0	0.0	0.0	0.0	0.0	-26.991452761085434
0.0	0.0	3.141592653589793	0.0	0.0	0.7501414589217891	0.0	0.0	0.0	0.0	0.0	-3.504110621759537	0.0	0.0	0.0	0.0	0.0	-24.370115160760566
0.0	0.0	3.141592653589793	0.0	0.0	0.7139304334619295	0.0	0.0	0.0	0.0	0.0	-3.733085911658974	0.0	0.0	0.0	0.0	0.0	-21.365940860282677
0.0	0.0	3.141592653589793	0.0	0.0	0.675585523806091	0.0	0.0	0.0	0.0	0.0	-3.9303454829452775	0.0	0.0	0.0	0.0	0.0	-18.036579753830708
0.0	0.0	3.141592653589793	0.0	0.0	0.635439185649135	0.0	0.0	0.0	0.0	0.0	-4.092925717029605	0.0	0.0	0.0	0.0	0.0	-14.439681735583413
0.0	0.0	3.141592653589793	0.0	0.0	0.5938506283771005	0.0	0.0	0.0	0.0	0.0	-4.2184394942648895	0.0	0.0	0.0	0.0	0.0	-10.632896699719787
0.0	0.0	3.141592653589793	0.0	0.0	0.5512000500777895	0.0	0.0	0.0	0.0	0.0	-4.305076193945876	0.0	0.0	0.0	0.0	0.0	-6.673874540418566
0.0	0.0	3.141592653589793	0.0	0.0	0.5078828725513468	0.0	0.0	0.0	0.0	0.0	-4.3516016943090685	0.0	0.0	0.0	0.0	0.0	-2.6202651518587743
0.0	0.0	3.141592653589793	0.0	0.0	0.4643039763208442	0.0	0.0	0.0	0.0	0.0	-4.357358372532782	0.0	0.0	0.0	0.0	0.0	1.4702815717808875
0.0	0.0	3.141592653589793	0.0	0.0	0.4208719356428605	0.0	0.0	0.0	0.0	0.0	-4.322265104737113	0.0	0.0	0.0	0.0	0.0	5.540115736321383
0.0	0.0	3.141592653589793	0.0	0.0	0.37799325351806495	0.0	0.0	0.0	0.0	0.0	-4.246817265983947	0.0	0.0	0.0	0.0	0.0	9.531587447584002
0.0	0.0	3.141592653589793	0.0	0.0	0.33606659670179884	0.0	0.0	0.0	0.0	0.0	-4.132086730276956	0.0	0.0	0.0	0.0	0.0	13.387046811389723
0.0	0.0	3.141592653589793	0.0	0.0	0.2954770307146586	0.0	0.0	0.0	0.0	0.0	-3.9797218705616046	0.0	0.0	0.0	0.0	0.0	17.048843933559766
0.0	0.0	3.141592653589793	0.0	0.0	0.2565902548530754	0.0	0.0	0.0	0.0	0.0	-3.7919475587251465	0.0	0.0	0.0	0.0	0.0	20.459328919915293
0.0	0.0	3.141592653589793	0.0	0.0	0.2197468371999004	0.0	0.0	0.0	0.0	0.0	-3.5715651655966045	0.0	0.0	0.0	0.0	0.0	23.560851876277297
0.0	0.0	3.141592653589793	0.0	0.0	0.18525644963498544	0.0	0.0	0.0	0.0	0.0	-3.3219525609468317	0.0	0.0	0.0	0.0	0.0	26.295762908467083
0.0	0.0	3.141592653589793	0.0	0.0	0.1533921028457642	0.0	0.0	0.0	0.0	0.0	-3.0470641134884424	0.0	0.0	0.0	0.0	0.0	28.6064121223057
0.0	0.0	3.141592653589793	0.0	0.0	0.12438438133783447	0.0	0.0	0.0	0.0	0.0	-2.751430690875825	0.0	0.0	0.0	0.0	0.0	30.43514962361428
0.0	0.0	3.141592653589793	0.0	0.0	0.09841567844554522	0.0	0.0	0.0	0.0	0.0	-2.440159659705177	0.0	0.0	0.0	0.0	0.0	31.72432551821396
0.0	0.0	3.141592653589793	0.0	0.0	0.0756144313425704	0.0	0.0	0.0	0.0	0.0	-2.1189348855145056	0.0	0.0	0.0	0.0	0.0	32.41628991192573
0.0	0.0	3.141592653589793	0.0	0.0	0.056049356052494614	0.0	0.0	0.0	0.0	0.0	-1.7940167327835645	0.0	0.0	0.0	0.0	0.0	32.453392910570926
0.0	0.0	3.141592653589793	0.0	0.0	0.03972368245939961	0.0	0.0	0.0	0.0	0.0	-1.4722420649339085	0.0	0.0	0.0	0.0	0.0	31.777984619970653
0.0	0.0	3.141592653589793	0.0	0.0	0.026569389318439107	0.0	0.0	0.0	0.0	0.0	-1.1610242443288854	0.0	0.0	0.0	0.0	0.0	30.3324151459459
0.0	0.0	3.141592653589793	0.0	0.0	0.016441439266426272	0.0	0.0	0.0	0.0	0.0	-0.8683531322736613	0.0	0.0	0.0	0.0	0.0	28.059034594317893
0.0	0.0	3.141592653589793	0.0	0.0	0.009112013832414778	0.0	0.0	0.0	0.0	0.0	-0.6027950890151388	0.0	0.0	0.0	0.0	0.0	24.900193070908017
0.0	0.0	3.141592653589793	0.0	0.0	0.004264748448277178	0.0	0.0	0.0	0.0	0.0	-0.3734929737420458	0.0	0.0	0.0	0.0	0.0	20.798240681536868
0.0	0.0	3.141592653589793	0.0	0.0	0.0014889674592906132	0.0	0.0	0.0	0.0	0.0	-0.1901661445848717	0.0	0.0	0.0	0.0	0.0	15.695527532025949
0.0	0.0	3.141592653589793	0.0	0.0	0.0002739191347265191	0.0	0.0	0.0	0.0	0.0	-0.0631104586159239	0.0	0.0	0.0	0.0	0.0	9.53440372819614
0.0	0.0	3.141592653589793	0.0	0.0	3.0106784043582024e-06	0.0	0.0	0.0	0.0	0.0	-0.003198271849285561	0.0	0.0	0.0	0.0	0.0	2.2572193758687717
0.0	0.0	3.141592653589793	0.0	0.0	0.0	-1.9072316161431923e-16	0.0	0.0	0.0	0.0	0.0	6.627506998381603e-16	0.0	0.0	0.0	0.0	0.0
-1.1236369219759312e-06	0.0	3.141592653589793	0.0	0.0	0.0	-0.0003365757972970384	0.0	0.0	0.0	0.0	0.0	-0.0671091617666505	0.0	0.0	0.0	0.0	0.0
-8.947918642337278e-06	0.0	3.141592653589793	0.0	0.0	0.0	-0.0013380746840213468	0.0	0.0	0.0	0.0	0.0	-0.1329857581397456	0.0	0.0	0.0	0.0	0.0
-3.0060561811106246e-05	0.0	3.141592653589793	0.0	0.0	0.0	-0.002992205213865178	0.0	0.0	0.0	0.0	0.0	-0.19763663064480902	0.0	0.0	0.0	0.0	0.0
-7.092671069150192e-05	0.0	3.141592653589793	0.0	0.0	0.0	-0.005286744355775836	0.0	0.0	0.0	0.0	0.0	-0.2610686208073651	0.0	0.0	0.0	0.0	0.0
-0.00013788962131249256	0.0	3.141592653589793	0.0	0.0	0.0	-0.008209537493955872	0.0	0.0	0.0	0.0	0.0	-0.3232885701529381	0.0	0.0	0.0	0.0	0.0
-0.0002371713456213482	0.0	3.141592653589793	0.0	0.0	0.0	-0.011748498427863071	0.0	0.0	0.0	0.0	0.0	-0.3843033202070524	0.0	0.0	0.0	0.0	0.0
-0.000374873415636193	0.0	3.141592653589793	0.0	0.0	0.0	-0.015891609372210472	0.0	0.0	0.0	0.0	0.0	-0.44411971249523235	0.0	0.0	0.0	0.0	0.0
-0.0005569775275985576	0.0	3.141592653589793	0.0	0.0	0.0	-0.02062692095696635	0.0	0.0	0.0	0.0	0.0	-0.5027445885430022	0.0	0.0	0.0	0.0	0.0
-0.0007893462261259314	0.0	3.141592653589793	0.0	0.0	0.0	-0.025942552227354226	0.0	0.0	0.0	0.0	0.0	-0.5601847898758864	0.0	0.0	0.0	0.0	0.0
-0.001077723588364316	0.0	3.141592653589793	0.0	0.0	0.0	-0.031826690643852865	0.0	0.0	0.0	0.0	0.0	-0.6164471580194092	0.0	0.0	0.0	0.0	0.0
-0.001427735908140776	0.0	3.141592653589793	0.0	0.0	0.0	-0.03826759208219628	0.0	0.0	0.0	0.0	0.0	-0.6715385344990948	0.0	0.0	0.0	0.0	0.0
-0.001844892380115993	0.0	3.141592653589793	0.0	0.0	0.0	-0.04525358083337372	0.0	0.0	0.0	0.0	0.0	-0.7254657608404679	0.0	0.0	0.0	0.0	0.0
-0.002334585783936816	0.0	3.141592653589793	0.0	0.0	0.0	-0.052773049603629676	0.0	0.0	0.0	0.0	0.0	-0.7782356785690526	0.0	0.0	0.0	0.0	0.0
-0.0029020931683888186	0.0	3.141592653589793	0.0	0.0	0.0	-0.06081445951446389	0.0	0.0	0.0	0.0	0.0	-0.8298551292103733	0.0	0.0	0.0	0.0	0.0
-0.0035525765355488444	0.0	3.141592653589793	0.0	0.0	0.0	-0.06936634010263136	0.0	0.0	0.0	0.0	0.0	-0.8803309542899541	0.0	0.0	0.0	0.0	0.0
-0.004291083524937564	0.0	3.141592653589793	0.0	0.0	0.0	-0.07841728932014226	0.0	0.0	0.0	0.0	0.0	-0.9296699953333197	0.0	0.0	0.0	0.0	0.0
-0.005122548097672025	0.0	3.141592653589793	0.0	0.0	0.0	-0.08795597353426213	0.0	0.0	0.0	0.0	0.0	-0.9778790938659941	0.0	0.0	0.0	0.0	0.0
-0.006051791220618211	0.0	3.141592653589793	0.0	0.0	0.0	-0.09797112752751161	0.0	0.0	0.0	0.0	0.0	-1.0249650914135022	0.0	0.0	0.0	0.0	0.0
-0.0070835215505435836	0.0	3.141592653589793	0.0	0.0	0.0	-0.10845155449766672	0.0	0.0	0.0	0.0	0.0	-1.0709348295013672	0.0	0.0	0.0	0.0	0.0
-0.008222336118269643	0.0	3.141592653589793	0.0	0.0	0.0	-0.11938612605775857	0.0	0.0	0.0	0.0	0.0	-1.1157951496551146	0.0	0.0	0.0	0.0	0.0
-0.009472721012824474	0.0	3.141592653589793	0.0	0.0	0.0	-0.13076378223607374	0.0	0.0	0.0	0.0	0.0	-1.1595528934002683	0.0	0.0	0.0	0.0	0.0
-0.010839052065595307	0.0	3.141592653589793	0.0	0.0	0.0	-0.14257353147615376	0.0	0.0	0.0	0.0	0.0	-1.2022149022623525	0.0	0.0	0.0	0.0	0.0
-0.012325595534481062	0.0	3.141592653589793	0.0	0.0	0.0	-0.1548044506367956	0.0	0.0	0.0	0.0	0.0	-1.2437880177668919	0.0	0.0	0.0	0.0	0.0
-0.013936508788044906	0.0	3.141592653589793	0.0	0.0	0.0	-0.1674456849920515	0.0	0.0	0.0	0.0	0.0	-1.28427908143941	0.0	0.0	0.0	0.0	0.0
-0.0156758409896668	0.0	3.141592653589793	0.0	0.0	0.0	-0.1804864482312288	0.0	0.0	0.0	0.0	0.0	-1.323694934805432	0.0	0.0	0.0	0.0	0.0
-0.017547533781696066	0.0	3.141592653589793	0.0	0.0	0.0	-0.19391602245889025	0.0	0.0	0.0	0.0	0.0	-1.362042419390482	0.0	0.0	0.0	0.0	0.0
-0.01955542196960392	0.0	3.141592653589793	0.0	0.0	0.0	-0.20772375819485364	0.0	0.0	0.0	0.0	0.0	-1.3993283767200844	0.0	0.0	0.0	0.0	0.0
-0.021703234206136034	0.0	3.141592653589793	0.0	0.0	0.0	-0.22189907437419218	0.0	0.0	0.0	0.0	0.0	-1.4355596483197632	0.0	0.0	0.0	0.0	0.0
-0.023994593675465085	0.0	3.141592653589793	0.0	0.0	0.0	-0.23643145834723425	0.0	0.0	0.0	0.0	0.0	-1.4707430757150426	0.0	0.0	0.0	0.0	0.0
-0.02643301877734332	0.0	3.141592653589793	0.0	0.0	0.0	-0.2513104658795635	0.0	0.0	0.0	0.0	0.0	-1.504885500431448	0.0	0.0	0.0	0.0	0.0
-0.02902192381125509	0.0	3.141592653589793	0.0	0.0	0.0	-0.26652572115201884	0.0	0.0	0.0	0.0	0.0	-1.5379937639945025	0.0	0.0	0.0	0.0	0.0
-0.031764619660569406	0.0	3.141592653589793	0.0	0.0	0.0	-0.2820669167606942	0.0	0.0	0.0	0.0	0.0	-1.570074707929731	0.0	0.0	0.0	0.0	0.0
-0.03466431447669251	0.0	3.141592653589793	0.0	0.0	0.0	-0.29792381371693905	0.0	0.0	0.0	0.0	0.0	-1.6011351737626582	0.0	0.0	0.0	0.0	0.0
-0.03772411436322041	0.0	3.141592653589793	0.0	0.0	0.0	-0.3140862414473581	0.0	0.0	0.0	0.0	0.0	-1.6311820030188073	0.0	0.0	0.0	0.0	0.0
-0.04094702406009143	0.0	3.141592653589793	0.0	0.0	0.0	-0.33054409779381105	0.0	0.0	0.0	0.0	0.0	-1.6602220372237038	0.0	0.0	0.0	0.0	0.0
-0.044335947627738764	0.0	3.141592653589793	0.0	0.0	0.0	-0.34728734901341307	0.0	0.0	0.0	0.0	0.0	-1.6882621179028714	0.0	0.0	0.0	0.0	0.0
-0.04789368913124307	0.0	3.141592653589793	0.0	0.0	0.0	-0.36430602977853455	0.0	0.0	0.0	0.0	0.0	-1.7153090865818341	0.0	0.0	0.0	0.0	0.0
-0.051622953324484924	0.0	3.141592653589793	0.0	0.0	0.0	-0.3815902431768009	0.0	0.0	0.0	0.0	0.0	-1.7413697847861178	0.0	0.0	0.0	0.0	0.0
-0.05552634633429749	0.0	3.141592653589793	0.0	0.0	0.0	-0.399130160711093	0.0	0.0	0.0	0.0	0.0	-1.766451054041245	0.0	0.0	0.0	0.0	0.0
-0.05960637634461896	0.0	3.141592653589793	0.0	0.0	0.0	-0.416916022299547	0.0	0.0	0.0	0.0	0.0	-1.790559735872741	0.0	0.0	0.0	0.0	0.0
-0.06386545428064525	0.0	3.141592653589793	0.0	0.0	0.0	-0.4349381362755542	0.0	0.0	0.0	0.0	0.0	-1.8137026718061295	0.0	0.0	0.0	0.0	0.0
-0.06830589449298237	0.0	3.141592653589793	0.0	0.0	0.0	-0.4531868793877609	0.0	0.0	0.0	0.0	0.0	-1.8358867033669362	0.0	0.0	0.0	0.0	0.0
-0.07292991544179911	0.0	3.141592653589793	0.0	0.0	0.0	-0.4716526968000694	0.0	0.0	0.0	0.0	0.0	-1.8571186720806836	0.0	0.0	0.0	0.0	0.0
-0.07773964038097958	0.0	3.141592653589793	0.0	0.0	0.0	-0.4903261020916362	0.0	0.0	0.0	0.0	0.0	-1.877405419472897	0.0	0.0	0.0	0.0	0.0
-0.0827370980422757	0.0	3.141592653589793	0.0	0.0	0.0	-0.509197677256874	0.0	0.0	0.0	0.0	0.0	-1.8967537870691007	0.0	0.0	0.0	0.0	0.0
-0.08792422331945986	0.0	3.141592653589793	0.0	0.0	0.0	-0.5282580727054501	0.0	0.0	0.0	0.0	0.0	-1.915170616394819	0.0	0.0	0.0	0.0	0.0
-0.09330285795247724	0.0	3.141592653589793	0.0	0.0	0.0	-0.5474980072622873	0.0	0.0	0.0	0.0	0.0	-1.9326627489755765	0.0	0.0	0.0	0.0	0.0
-0.0988747512115987	0.0	3.141592653589793	0.0	0.0	0.0	-0.5669082681675635	0.0	0.0	0.0	0.0	0.0	-1.9492370263368972	0.0	0.0	0.0	0.0	0.0
-0.10464156058157309	0.0	3.141592653589793	0.0	0.0	0.0	-0.5864797110767122	0.0	0.0	0.0	0.0	0.0	-1.9649002900043053	0.0	0.0	0.0	0.0	0.0
-0.11060485244577975	0.0	3.141592653589793	0.0	0.0	0.0	-0.6062032600604217	0.0	0.0	0.0	0.0	0.0	-1.979659381503325	0.0	0.0	0.0	0.0	0.0
-0.11676610277038146	0.0	3.141592653589793	0.0	0.0	0.0	-0.6260699076046357	0.0	0.0	0.0	0.0	0.0	-1.9935211423594816	0.0	0.0	0.0	0.0	0.0
-0.12312669778847646	0.0	3.141592653589793	0.0	0.0	0.0	-0.6460707146105535	0.0	0.0	0.0	0.0	0.0	-2.0064924140982985	0.0	0.0	0.0	0.0	0.0
-0.12968793468425138	0.0	3.141592653589793	0.0	0.0	0.0	-0.666196810394629	0.0	0.0	0.0	0.0	0.0	-2.0185800382453	0.0	0.0	0.0	0.0	0.0
-0.13645102227713357	0.0	3.141592653589793	0.0	0.0	0.0	-0.6864393926885719	0.0	0.0	0.0	0.0	0.0	-2.0297908563260108	0.0	0.0	0.0	0.0	0.0
-0.1434170817059439	0.0	3.141592653589793	0.0	0.0	0.0	-0.7067897276393466	0.0	0.0	0.0	0.0	0.0	-2.0401317098659555	0.0	0.0	0.0	0.0	0.0
-0.15058714711304905	0.0	3.141592653589793	0.0	0.0	0.0	-0.7272391498091736	0.0	0.0	0.0	0.0	0.0	-2.049609440390658	0.0	0.0	0.0	0.0	0.0
-0.15796216632851412	0.0	3.141592653589793	0.0	0.0	0.0	-0.7477790621755274	0.0	0.0	0.0	0.0	0.0	-2.058230889425643	0.0	0.0	0.0	0.0	0.0
-0.1655430015542554	0.0	3.141592653589793	0.0	0.0	0.0	-0.7684009361311391	0.0	0.0	0.0	0.0	0.0	-2.0660028984964334	0.0	0.0	0.0	0.0	0.0
-0.1733304300481927	0.0	3.141592653589793	0.0	0.0	0.0	-0.789096311483994	0.0	0.0	0.0	0.0	0.0	-2.072932309128556	0.0	0.0	0.0	0.0	0.0
-0.1813251448084019	0.0	3.141592653589793	0.0	0.0	0.0	-0.8098567964573331	0.0	0.0	0.0	0.0	0.0	-2.079025962847533	0.0	0.0	0.0	0.0	0.0
-0.1895277552572676	0.0	3.141592653589793	0.0	0.0	0.0	-0.8306740676896526	0.0	0.0	0.0	0.0	0.0	-2.0842907011788903	0.0	0.0	0.0	0.0	0.0
-0.1979387879256357	0.0	3.141592653589793	0.0	0.0	0.0	-0.8515398702347039	0.0	0.0	0.0	0.0	0.0	-2.088733365648151	0.0	0.0	0.0	0.0	0.0
-0.20655868713696582	0.0	3.141592653589793	0.0	0.0	0.0	-0.8724460175614936	0.0	0.0	0.0	0.0	0.0	-2.09236079778084	0.0	0.0	0.0	0.0	0.0
-0.21538781569148388	0.0	3.141592653589793	0.0	0.0	0.0	-0.893384391554284	0.0	0.0	0.0	0.0	0.0	-2.0951798391024807	0.0	0.0	0.0	0.0	0.0
-0.22442645555033489	0.0	3.141592653589793	0.0	0.0	0.0	-0.9143469425125916	0.0	0.0	0.0	0.0	0.0	-2.097197331138599	0.0	0.0	0.0	0.0	0.0
-0.23367480851973504	0.0	3.141592653589793	0.0	0.0	0.0	-0.9353256891511894	0.0	0.0	0.0	0.0	0.0	-2.098420115414719	0.0	0.0	0.0	0.0	0.0
-0.2431329969351247	0.0	3.141592653589793	0.0	0.0	0.0	-0.9563127186001046	0.0	0.0	0.0	0.0	0.0	-2.0988550334563647	0.0	0.0	0.0	0.0	0.0
-0.2528010643453208	0.0	3.141592653589793	0.0	0.0	0.0	-0.9773001864046201	0.0	0.0	0.0	0.0	0.0	-2.09850892678906	0.0	0.0	0.0	0.0	0.0
-0.26267897619666924	0.0	3.141592653589793	0.0	0.0	0.0	-0.9982803165252743	0.0	0.0	0.0	0.0	0.0	-2.097388636938329	0.0	0.0	0.0	0.0	0.0
-0.27276662051719763	0.0	3.141592653589793	0.0	0.0	0.0	-1.0192454013378602	0.0	0.0	0.0	0.0	0.0	-2.0955010054296968	0.0	0.0	0.0	0.0	0.0
-0.28306380860076796	0.0	3.141592653589793	0.0	0.0	0.0	-1.0401878016334267	0.0	0.0	0.0	0.0	0.0	-2.092852873788688	0.0	0.0	0.0	0.0	0.0
-0.2935702756912288	0.0	3.141592653589793	0.0	0.0	0.0	-1.061099946618278	0.0	0.0	0.0	0.0	0.0	-2.0894510835408253	0.0	0.0	0.0	0.0	0.0
-0.30428568166656805	0.0	3.141592653589793	0.0	0.0	0.0	-1.0819743339139725	0.0	0.0	0.0	0.0	0.0	-2.085302476211635	0.0	0.0	0.0	0.0	0.0
-0.3152096117230654	0.0	3.141592653589793	0.0	0.0	0.0	-1.1028035295573246	0.0	0.0	0.0	0.0	0.0	-2.0804138933266403	0.0	0.0	0.0	0.0	0.0
-0.32634157705944533	0.0	3.141592653589793	0.0	0.0	0.0	-1.1235801680004043	0.0	0.0	0.0	0.0	0.0	-2.0747921764113655	0.0	0.0	0.0	0.0	0.0
-0.3376810155610287	0.0	3.141592653589793	0.0	0.0	0.0	-1.1442969521105362	0.0	0.0	0.0	0.0	0.0	-2.068444166991336	0.0	0.0	0.0	0.0	0.0
-0.34922729248388645	0.0	3.141592653589793	0.0	0.0	0.0	-1.1649466531703006	0.0	0.0	0.0	0.0	0.0	-2.061376706592075	0.0	0.0	0.0	0.0	0.0
-0.3609797011389913	0.0	3.141592653589793	0.0	0.0	0.0	-1.1855221108775318	0.0	0.0	0.0	0.0	0.0	-2.0535966367391074	0.0	0.0	0.0	0.0	0.0
-0.3729374635763705	0.0	3.141592653589793	0.0	0.0	0.0	-1.206016233345322	0.0	0.0	0.0	0.0	0.0	-2.0451107989579573	0.0	0.0	0.0	0.0	0.0
-0.3850997312692589	0.0	3.141592653589793	0.0	0.0	0.0	-1.226421997102016	0.0	0.0	0.0	0.0	0.0	-2.035926034774149	0.0	0.0	0.0	0.0	0.0
-0.3974655857982508	0.0	3.141592653589793	0.0	0.0	0.0	-1.2467324470912147	0.0	0.0	0.0	0.0	0.0	-2.026049185713206	0.0	0.0	0.0	0.0	0.0
-0.4100340395354527	0.0	3.141592653589793	0.0	0.0	0.0	-1.2669406966717744	0.0	0.0	0.0	0.0	0.0	-2.0154870933006546	0.0	0.0	0.0	0.0	0.0
-0.4228040363286362	0.0	3.141592653589793	0.0	0.0	0.0	-1.2870399276178073	0.0	0.0	0.0	0.0	0.0	-2.0042465990620175	0.0	0.0	0.0	0.0	0.0
-0.43577445218539007	0.0	3.141592653589793	0.0	0.0	0.0	-1.3070233901186794	0.0	0.0	0.0	0.0	0.0	-1.9923345445228198	0.0	0.0	0.0	0.0	0.0
-0.44894409595727297	0.0	3.141592653589793	0.0	0.0	0.0	-1.3268844027790136	0.0	0.0	0.0	0.0	0.0	-1.9797577712085856	0.0	0.0	0.0	0.0	0.0
-0.4623117100239664	0.0	3.141592653589793	0.0	0.0	0.0	-1.346616352618686	0.0	0.0	0.0	0.0	0.0	-1.9665231206448401	0.0	0.0	0.0	0.0	0.0
-0.47587597097742673	0.0	3.141592653589793	0.0	0.0	0.0	-1.3662126950728302	0.0	0.0	0.0	0.0	0.0	-1.9526374343571067	0.0	0.0	0.0	0.0	0.0
-0.4896354903060376	0.0	3.141592653589793	0.0	0.0	0.0	-1.3856669539918336	0.0	0.0	0.0	0.0	0.0	-1.9381075538709083	0.0	0.0	0.0	0.0	0.0
-0.5035888150787634	0.0	3.141592653589793	0.0	0.0	0.0	-1.4049727216413388	0.0	0.0	0.0	0.0	0.0	-1.9229403207117717	0.0	0.0	0.0	0.0	0.0
-0.5177344286293009	0.0	3.141592653589793	0.0	0.0	0.0	-1.424123658702244	0.0	0.0	0.0	0.0	0.0	-1.90714257640522	0.0	0.0	0.0	0.0	0.0
-0.5320707512402318	0.0	3.141592653589793	0.0	0.0	0.0	-1.4431134942707038	0.0	0.0	0.0	0.0	0.0	-1.8907211624767781	0.0	0.0	0.0	0.0	0.0
-0.5465961408271764	0.0	3.141592653589793	0.0	0.0	0.0	-1.4619360258581253	0.0	0.0	0.0	0.0	0.0	-1.873682920451971	0.0	0.0	0.0	0.0	0.0
-0.5613088936229447	0.0	3.141592653589793	0.0	0.0	0.0	-1.4805851193911739	0.0	0.0	0.0	0.0	0.0	-1.85603469185632	0.0	0.0	0.0	0.0	0.0
-0.5762072448616901	0.0	3.141592653589793	0.0	0.0	0.0	-1.4990547092117676	0.0	0.0	0.0	0.0	0.0	-1.8377833182153527	0.0	0.0	0.0	0.0	0.0
-0.5912893694630608	0.0	3.141592653589793	0.0	0.0	0.0	-1.5173387980770814	0.0	0.0	0.0	0.0	0.0	-1.8189356410545932	0.0	0.0	0.0	0.0	0.0
-0.6065533827163538	0.0	3.141592653589793	0.0	0.0	0.0	-1.5354314571595453	0.0	0.0	0.0	0.0	0.0	-1.7994985018995635	0.0	0.0	0.0	0.0	0.0
-0.621997340964666	0.0	3.141592653589793	0.0	0.0	0.0	-1.553326826046844	0.0	0.0	0.0	0.0	0.0	-1.7794787422757892	0.0	0.0	0.0	0.0	0.0
-0.6376192422890482	0.0	3.141592653589793	0.0	0.0	0.0	-1.5710191127419169	0.0	0.0	0.0	0.0	0.0	-1.7588832037087954	0.0	0.0	0.0	0.0	0.0
-0.653417027192656	0.0	3.141592653589793	0.0	0.0	0.0	-1.588502593662961	0.0	0.0	0.0	0.0	0.0	-1.7377187277241053	0.0	0.0	0.0	0.0	0.0
-0.6693885792849038	0.0	3.141592653589793	0.0	0.0	0.0	-1.6057716136434252	0.0	0.0	0.0	0.0	0.0	-1.7159921558472444	0.0	0.0	0.0	0.0	0.0
-0.6855317259656167	0.0	3.141592653589793	0.0	0.0	0.0	-1.6228205859320164	0.0	0.0	0.0	0.0	0.0	-1.6937103296037361	0.0	0.0	0.0	0.0	0.0
-0.7018442391091829	0.0	3.141592653589793	0.0	0.0	0.0	-1.6396439921926957	0.0	0.0	0.0	0.0	0.0	-1.6708800905191048	0.0	0.0	0.0	0.0	0.0
-0.7183238357487065	0.0	3.141592653589793	0.0	0.0	0.0	-1.6562363825046802	0.0	0.0	0.0	0.0	0.0	-1.6475082801188736	0.0	0.0	0.0	0.0	0.0
-0.7349681787601607	0.0	3.141592653589793	0.0	0.0	0.0	-1.6725923753624399	0.0	0.0	0.0	0.0	0.0	-1.6236017399285718	0.0	0.0	0.0	0.0	0.0
-0.7517748775465386	0.0	3.141592653589793	0.0	0.0	0.0	-1.6887066576757033	0.0	0.0	0.0	0.0	0.0	-1.599167311473717	0.0	0.0	0.0	0.0	0.0
-0.7687414887220081	0.0	3.141592653589793	0.0	0.0	0.0	-1.704573984769451	0.0	0.0	0.0	0.0	0.0	-1.5742118362798385	0.0	0.0	0.0	0.0	0.0
-0.7858655167960619	0.0	3.141592653589793	0.0	0.0	0.0	-1.7201891803839215	0.0	0.0	0.0	0.0	0.0	-1.5487421558724572	0.0	0.0	0.0	0.0	0.0
-0.8031444148576723	0.0	3.141592653589793	0.0	0.0	0.0	-1.7355471366746071	0.0	0.0	0.0	0.0	0.0	-1.5227651117771	0.0	0.0	0.0	0.0	0.0
-0.8205755852594422	0.0	3.141592653589793	0.0	0.0	0.0	-1.7506428142122556	0.0	0.0	0.0	0.0	0.0	-1.4962875455192899	0.0	0.0	0.0	0.0	0.0
-0.8381563803017589	0.0	3.141592653589793	0.0	0.0	0.0	-1.7654712419828695	0.0	0.0	0.0	0.0	0.0	-1.4693162986245516	0.0	0.0	0.0	0.0	0.0
-0.8558841029169454	0.0	3.141592653589793	0.0	0.0	0.0	-1.7800275173877076	0.0	0.0	0.0	0.0	0.0	-1.4418582126184099	0.0	0.0	0.0	0.0	0.0
-0.8737560073534137	0.0	3.141592653589793	0.0	0.0	0.0	-1.7943068062432845	0.0	0.0	0.0	0.0	0.0	-1.413920129026389	0.0	0.0	0.0	0.0	0.0
-0.8917692998598177	0.0	3.141592653589793	0.0	0.0	0.0	-1.8083043427813679	0.0	0.0	0.0	0.0	0.0	-1.385508889374013	0.0	0.0	0.0	0.0	0.0
-0.9099211393692048	0.0	3.141592653589793	0.0	0.0	0.0	-1.8220154296489819	0.0	0.0	0.0	0.0	0.0	-1.356631335186806	0.0	0.0	0.0	0.0	0.0
-0.9282086381831683	0.0	3.141592653589793	0.0	0.0	0.0	-1.835435437908406	0.0	0.0	0.0	0.0	0.0	-1.3272943079902928	0.0	0.0	0.0	0.0	0.0
-0.9466288626560021	0.0	3.141592653589793	0.0	0.0	0.0	-1.848559807037176	0.0	0.0	0.0	0.0	0.0	-1.2975046493099964	0.0	0.0	0.0	0.0	0.0
-0.9651788338788506	0.0	3.141592653589793	0.0	0.0	0.0	-1.8613840449280796	0.0	0.0	0.0	0.0	0.0	-1.267269200671441	0.0	0.0	0.0	0.0	0.0
-0.9838555283638626	0.0	3.141592653589793	0.0	0.0	0.0	-1.8739037278891613	0.0	0.0	0.0	0.0	0.0	-1.2365948036001544	0.0	0.0	0.0	0.0	0.0
-1.002655878728344	0.0	3.141592653589793	0.0	0.0	0.0	-1.8861145006437243	0.0	0.0	0.0	0.0	0.0	-1.2054882996216587	0.0	0.0	0.0	0.0	0.0
-1.0215767743789095	0.0	3.141592653589793	0.0	0.0	0.0	-1.898012076330322	0.0	0.0	0.0	0.0	0.0	-1.1739565302614785	0.0	0.0	0.0	0.0	0.0
-1.0406150621956347	0.0	3.141592653589793	0.0	0.0	0.0	-1.9095922365027669	0.0	0.0	0.0	0.0	0.0	-1.1420063370451365	0.0	0.0	0.0	0.0	0.0
-1.0597675472162122	0.0	3.141592653589793	0.0	0.0	0.0	-1.9208508311301231	0.0	0.0	0.0	0.0	0.0	-1.1096445614981572	0.0	0.0	0.0	0.0	0.0
-1.0790309933200999	0.0	3.141592653589793	0.0	0.0	0.0	-1.9317837785967127	0.0	0.0	0.0	0.0	0.0	-1.0768780451460667	0.0	0.0	0.0	0.0	0.0
-1.0984021239126744	0.0	3.141592653589793	0.0	0.0	0.0	-1.9423870657021123	0.0	0.0	0.0	0.0	0.0	-1.0437136295143912	0.0	0.0	0.0	0.0	0.0
-1.1178776226093858	0.0	3.141592653589793	0.0	0.0	0.0	-1.9526567476611532	0.0	0.0	0.0	0.0	0.0	-1.0101581561286492	0.0	0.0	0.0	0.0	0.0
-1.137454133919908	0.0	3.141592653589793	0.0	0.0	0.0	-1.9625889481039247	0.0	0.0	0.0	0.0	0.0	-0.9762184665143692	0.0	0.0	0.0	0.0	0.0
-1.1571282639322924	0.0	3.141592653589793	0.0	0.0	0.0	-1.972179859075764	0.0	0.0	0.0	0.0	0.0	-0.9419014021970753	0.0	0.0	0.0	0.0	0.0
-1.1768965809971206	0.0	3.141592653589793	0.0	0.0	0.0	-1.981425741037274	0.0	0.0	0.0	0.0	0.0	-0.9072138047022915	0.0	0.0	0.0	0.0	0.0
-1.196755616411655	0.0	3.141592653589793	0.0	0.0	0.0	-1.9903229228643038	0.0	0.0	0.0	0.0	0.0	-0.872162515555543	0.0	0.0	0.0	0.0	0.0
-1.216701865103994	0.0	3.141592653589793	0.0	0.0	0.0	-1.9988678018479629	0.0	0.0	0.0	0.0	0.0	-0.8367543762823502	0.0	0.0	0.0	0.0	0.0
-1.2367317863172225	0.0	3.141592653589793	0.0	0.0	0.0	-2.007056843694614	0.0	0.0	0.0	0.0	0.0	-0.8009962284082421	0.0	0.0	0.0	0.0	0.0
-1.2568418042935667	0.0	3.141592653589793	0.0	0.0	0.0	-2.014886582525877	0.0	0.0	0.0	0.0	0.0	-0.7648949134587384	0.0	0.0	0.0	0.0	0.0
-1.2770283089585435	0.0	3.141592653589793	0.0	0.0	0.0	-2.0223536208786235	0.0	0.0	0.0	0.0	0.0	-0.7284572729593699	0.0	0.0	0.0	0.0	0.0
-1.2972876566051161	0.0	3.141592653589793	0.0	0.0	0.0	-2.029454629704982	0.0	0.0	0.0	0.0	0.0	-0.6916901484356548	0.0	0.0	0.0	0.0	0.0
-1.3176161705778449	0.0	3.141592653589793	0.0	0.0	0.0	-2.0361863483723406	0.0	0.0	0.0	0.0	0.0	-0.6546003814131218	0.0	0.0	0.0	0.0	0.0
-1.3380101419570405	0.0	3.141592653589793	0.0	0.0	0.0	-2.042545584663334	0.0	0.0	0.0	0.0	0.0	-0.6171948134172909	0.0	0.0	0.0	0.0	0.0
-1.3584658302429147	0.0	3.141592653589793	0.0	0.0	0.0	-2.04852921477586	0.0	0.0	0.0	0.0	0.0	-0.5794802859736903	0.0	0.0	0.0	0.0	0.0
-1.378979464039738	0.0	3.141592653589793	0.0	0.0	0.0	-2.054134183323067	0.0	0.0	0.0	0.0	0.0	-0.5414636406078439	0.0	0.0	0.0	0.0	0.0
-1.399547241739985	0.0	3.141592653589793	0.0	0.0	0.0	-2.059357503333362	0.0	0.0	0.0	0.0	0.0	-0.5031517188452721	0.0	0.0	0.0	0.0	0.0
-1.4201653322084926	0.0	3.141592653589793	0.0	0.0	0.0	-2.0641962562504026	0.0	0.0	0.0	0.0	0.0	-0.4645513622115045	0.0	0.0	0.0	0.0	0.0
-1.44082987546661	0.0	3.141592653589793	0.0	0.0	0.0	-2.068647591933106	0.0	0.0	0.0	0.0	0.0	-0.4256694122320601	0.0	0.0	0.0	0.0	0.0
-1.4615369833763527	0.0	3.141592653589793	0.0	0.0	0.0	-2.0727087286556434	0.0	0.0	0.0	0.0	0.0	-0.38651271043246904	0.0	0.0	0.0	0.0	0.0
-1.482282740324552	0.0	3.141592653589793	0.0	0.0	0.0	-2.0763769531074394	0.0	0.0	0.0	0.0	0.0	-0.34708809833825205	0.0	0.0	0.0	0.0	0.0
-1.5030632039070126	0.0	3.141592653589793	0.0	0.0	0.0	-2.0796496203931776	0.0	0.0	0.0	0.0	0.0	-0.3074024174749339	0.0	0.0	0.0	0.0	0.0
-1.52387440561266	0.0	3.141592653589793	0.0	0.0	0.0	-2.082524154032794	0.0	0.0	0.0	0.0	0.0	-0.26746250936803806	0.0	0.0	0.0	0.0	0.0
-1.5447123515076968	0.0	3.141592653589793	0.0	0.0	0.0	-2.0849980459614796	0.0	0.0	0.0	0.0	0.0	-0.22727521554309238	0.0	0.0	0.0	0.0	0.0
-1.5655730229197535	0.0	3.141592653589793	0.0	0.0	0.0	-2.087068856529681	0.0	0.0	0.0	0.0	0.0	-0.18684737752561764	0.0	0.0	0.0	0.0	0.0
-1.5864523771220405	0.0	3.141592653589793	0.0	0.0	0.0	-2.0887342145031003	0.0	0.0	0.0	0.0	0.0	-0.14618583684113817	0.0	0.0	0.0	0.0	0.0
-1.6073463480175005	0.0	3.141592653589793	0.0	0.0	0.0	-2.089991817062697	0.0	0.0	0.0	0.0	0.0	-0.10529743501518363	0.0	0.0	0.0	0.0	0.0
-1.6282508468229668	0.0	3.141592653589793	0.0	0.0	0.0	-2.090839429804685	0.0	0.0	0.0	0.0	0.0	-0.06418901357326767	0.0	0.0	0.0	0.0	0.0
-1.6491617627533062	0.0	3.141592653589793	0.0	0.0	0.0	-2.091274886740529	0.0	0.0	0.0	0.0	0.0	-0.022867414040925294	0.0	0.0	0.0	0.0	0.0
-1.670074963705578	0.0	3.141592653589793	0.0	0.0	0.0	-2.0912960902969533	0.0	0.0	0.0	0.0	0.0	0.018660522056324957	0.0	0.0	0.0	0.0	0.0
-1.6909862969431841	0.0	3.141592653589793	0.0	0.0	0.0	-2.090901011315938	0.0	0.0	0.0	0.0	0.0	0.06038795319295431	0.0	0.0	0.0	0.0	0.0
-1.7118915897800266	0.0	3.141592653589793	0.0	0.0	0.0	-2.090087689054714	0.0	0.0	0.0	0.0	0.0	0.10230803784344378	0.0	0.0	0.0	0.0	0.0
-1.7327866502646523	0.0	3.141592653589793	0.0	0.0	0.0	-2.088854231185773	0.0	0.0	0.0	0.0	0.0	0.14441393448226236	0.0	0.0	0.0	0.0	0.0
-1.7536672678644072	0.0	3.141592653589793	0.0	0.0	0.0	-2.087198813796862	0.0	0.0	0.0	0.0	0.0	0.18669880158389418	0.0	0.0	0.0	0.0	0.0
-1.7745292141495972	0.0	3.141592653589793	0.0	0.0	0.0	-2.0851196813909714	0.0	0.0	0.0	0.0	0.0	0.22915579762280913	0.0	0.0	0.0	0.0	0.0
-1.7953682434776304	0.0	3.141592653589793	0.0	0.0	0.0	-2.0826151468863645	0.0	0.0	0.0	0.0	0.0	0.2717780810734869	0.0	0.0	0.0	0.0	0.0
-1.816180093677172	0.0	3.141592653589793	0.0	0.0	0.0	-2.0796835916165497	0.0	0.0	0.0	0.0	0.0	0.31455881041039646	0.0	0.0	0.0	0.0	0.0
-1.8369604867323042	0.0	3.141592653589793	0.0	0.0	0.0	-2.0763234653302898	0.0	0.0	0.0	0.0	0.0	0.3574911441080211	0.0	0.0	0.0	0.0	0.0
-1.8577051294666682	0.0	3.141592653589793	0.0	0.0	0.0	-2.0725332861916055	0.0	0.0	0.0	0.0	0.0	0.4005682406408315	0.0	0.0	0.0	0.0	0.0
-1.8784097142276237	0.0	3.141592653589793	0.0	0.0	0.0	-2.068311640779773	0.0	0.0	0.0	0.0	0.0	0.443783258483303	0.0	0.0	0.0	0.0	0.0
-1.8990699195704002	0.0	3.141592653589793	0.0	0.0	0.0	-2.063657184089322	0.0	0.0	0.0	0.0	0.0	0.4871293561099135	0.0	0.0	0.0	0.0	0.0
-1.9196814109422462	0.0	3.141592653589793	0.0	0.0	0.0	-2.0585686395300447	0.0	0.0	0.0	0.0	0.0	0.5305996919951399	0.0	0.0	0.0	0.0	0.0
-1.9402398413665873	0.0	3.141592653589793	0.0	0.0	0.0	-2.053044798926976	0.0	0.0	0.0	0.0	0.0	0.5741874246134548	0.0	0.0	0.0	0.0	0.0
-1.9607408521271723	0.0	3.141592653589793	0.0	0.0	0.0	-2.0470845225204184	0.0	0.0	0.0	0.0	0.0	0.6178857124393407	0.0	0.0	0.0	0.0	0.0
-1.9811800734522338	0.0	3.141592653589793	0.0	0.0	0.0	-2.0406867389659173	0.0	0.0	0.0	0.0	0.0	0.6616877139472619	0.0	0.0	0.0	0.0	0.0
-2.001553125198632	0.0	3.141592653589793	0.0	0.0	0.0	-2.033850445334283	0.0	0.0	0.0	0.0	0.0	0.7055865876117009	0.0	0.0	0.0	0.0	0.0
-2.0218556175360143	0.0	3.141592653589793	0.0	0.0	0.0	-2.026574707111581	0.0	0.0	0.0	0.0	0.0	0.7495754919071347	0.0	0.0	0.0	0.0	0.0
-2.0420831516309628	0.0	3.141592653589793	0.0	0.0	0.0	-2.0188586581991212	0.0	0.0	0.0	0.0	0.0	0.7936475853080331	0.0	0.0	0.0	0.0	0.0
-2.0622313203311515	0.0	3.141592653589793	0.0	0.0	0.0	-2.010701500913485	0.0	0.0	0.0	0.0	0.0	0.837796026288876	0.0	0.0	0.0	0.0	0.0
-2.082295708849493	0.0	3.141592653589793	0.0	0.0	0.0	-2.0021025059864965	0.0	0.0	0.0	0.0	0.0	0.8820139733241419	0.0	0.0	0.0	0.0	0.0
-2.102271895448299	0.0	3.141592653589793	0.0	0.0	0.0	-1.9930610125652382	0.0	0.0	0.0	0.0	0.0	0.9262945848882982	0.0	0.0	0.0	0.0	0.0
-2.1221554521234234	0.0	3.141592653589793	0.0	0.0	0.0	-1.9835764282120518	0.0	0.0	0.0	0.0	0.0	0.9706310194558299	0.0	0.0	0.0	0.0	0.0
-2.1419419452884245	0.0	3.141592653589793	0.0	0.0	0.0	-1.9736482289045272	0.0	0.0	0.0	0.0	0.0	1.015016435501205	0.0	0.0	0.0	0.0	0.0
-2.161626936458708	0.0	3.141592653589793	0.0	0.0	0.0	-1.9632759590355215	0.0	0.0	0.0	0.0	0.0	1.0594439914989051	0.0	0.0	0.0	0.0	0.0
-2.181205982935688	0.0	3.141592653589793	0.0	0.0	0.0	-1.9524592314131284	0.0	0.0	0.0	0.0	0.0	1.1039068459234018	0.0	0.0	0.0	0.0	0.0
-2.200674638490935	0.0	3.141592653589793	0.0	0.0	0.0	-1.941197727260715	0.0	0.0	0.0	0.0	0.0	1.1483981572491713	0.0	0.0	0.0	0.0	0.0
-2.220028454050328	0.0	3.141592653589793	0.0	0.0	0.0	-1.9294911962168935	0.0	0.0	0.0	0.0	0.0	1.1929110839506913	0.0	0.0	0.0	0.0	0.0
-2.2392629783782123	0.0	3.141592653589793	0.0	0.0	0.0	-1.9173394563355335	0.0	0.0	0.0	0.0	0.0	1.2374387845024373	0.0	0.0	0.0	0.0	0.0
-2.2583737587615436	0.0	3.141592653589793	0.0	0.0	0.0	-1.9047423940857606	0.0	0.0	0.0	0.0	0.0	1.2819744173788816	0.0	0.0	0.0	0.0	0.0
-2.2773563416940457	0.0	3.141592653589793	0.0	0.0	0.0	-1.891699964351957	0.0	0.0	0.0	0.0	0.0	1.3265111410545023	0.0	0.0	0.0	0.0	0.0
-2.2962062735603657	0.0	3.141592653589793	0.0	0.0	0.0	-1.8782121904337608	0.0	0.0	0.0	0.0	0.0	1.3710421140037754	0.0	0.0	0.0	0.0	0.0
-2.3149191013202213	0.0	3.141592653589793	0.0	0.0	0.0	-1.8642791640460552	0.0	0.0	0.0	0.0	0.0	1.4155604947011762	0.0	0.0	0.0	0.0	0.0
-2.3334903731925554	0.0	3.141592653589793	0.0	0.0	0.0	-1.8499010453189921	0.0	0.0	0.0	0.0	0.0	1.4600594416211816	0.0	0.0	0.0	0.0	0.0
-2.3519156393396856	0.0	3.141592653589793	0.0	0.0	0.0	-1.8350780627979741	0.0	0.0	0.0	0.0	0.0	1.5045321132382643	0.0	0.0	0.0	0.0	0.0
-2.3701904525514683	0.0	3.141592653589793	0.0	0.0	0.0	-1.8198105134436569	0.0	0.0	0.0	0.0	0.0	1.548971668026903	0.0	0.0	0.0	0.0	0.0
-2.3883103689294334	0.0	3.141592653589793	0.0	0.0	0.0	-1.8040987626319507	0.0	0.0	0.0	0.0	0.0	1.593371264461573	0.0	0.0	0.0	0.0	0.0
-2.4062709485709513	0.0	3.141592653589793	0.0	0.0	0.0	-1.787943244154024	0.0	0.0	0.0	0.0	0.0	1.637724061016745	0.0	0.0	0.0	0.0	0.0
-2.42406775625338	0.0	3.141592653589793	0.0	0.0	0.0	-1.7713444602162984	0.0	0.0	0.0	0.0	0.0	1.6820232161669013	0.0	0.0	0.0	0.0	0.0
-2.441696362118215	0.0	3.141592653589793	0.0	0.0	0.0	-1.7543029814404534	0.0	0.0	0.0	0.0	0.0	1.726261888386511	0.0	0.0	0.0	0.0	0.0
-2.4591523423552504	0.0	3.141592653589793	0.0	0.0	0.0	-1.7368194468634206	0.0	0.0	0.0	0.0	0.0	1.77043323615006	0.0	0.0	0.0	0.0	0.0
-2.4764312798867194	0.0	3.141592653589793	0.0	0.0	0.0	-1.7188945639373903	0.0	0.0	0.0	0.0	0.0	1.8145304179320103	0.0	0.0	0.0	0.0	0.0
-2.493528765051459	0.0	3.141592653589793	0.0	0.0	0.0	-1.700529108529805	0.0	0.0	0.0	0.0	0.0	1.8585465922068494	0.0	0.0	0.0	0.0	0.0
-2.5104403962890514	0.0	3.141592653589793	0.0	0.0	0.0	-1.6817239249233626	0.0	0.0	0.0	0.0	0.0	1.9024749174490498	0.0	0.0	0.0	0.0	0.0
-2.5271617808239855	0.0	3.141592653589793	0.0	0.0	0.0	-1.6624799258160197	0.0	0.0	0.0	0.0	0.0	1.9463085521330825	0.0	0.0	0.0	0.0	0.0
-2.54368853534981	0.0	3.141592653589793	0.0	0.0	0.0	-1.642798092320982	0.0	0.0	0.0	0.0	0.0	1.9900406547334306	0.0	0.0	0.0	0.0	0.0
-2.560016286713273	0.0	3.141592653589793	0.0	0.0	0.0	-1.6226794739667127	0.0	0.0	0.0	0.0	0.0	2.0336643837245596	0.0	0.0	0.0	0.0	0.0
-2.576140672598491	0.0	3.141592653589793	0.0	0.0	0.0	-1.6021251886969363	0.0	0.0	0.0	0.0	0.0	2.0771728975809562	0.0	0.0	0.0	0.0	0.0
-2.5920573422110884	0.0	3.141592653589793	0.0	0.0	0.0	-1.58113642287063	0.0	0.0	0.0	0.0	0.0	2.120559354777088	0.0	0.0	0.0	0.0	0.0
-2.60776195696236	0.0	3.141592653589793	0.0	0.0	0.0	-1.5597144312620168	0.0	0.0	0.0	0.0	0.0	2.163816913787432	0.0	0.0	0.0	0.0	0.0
-2.623250191153418	0.0	3.141592653589793	0.0	0.0	0.0	-1.537860537060583	0.0	0.0	0.0	0.0	0.0	2.206938733086469	0.0	0.0	0.0	0.0	0.0
-2.638517732659343	0.0	3.141592653589793	0.0	0.0	0.0	-1.5155761318710743	0.0	0.0	0.0	0.0	0.0	2.2499179711486708	0.0	0.0	0.0	0.0	0.0
-2.6535602836133427	0.0	3.141592653589793	0.0	0.0	0.0	-1.492862675713484	0.0	0.0	0.0	0.0	0.0	2.292747786448512	0.0	0.0	0.0	0.0	0.0
-2.6683735610908985	0.0	3.141592653589793	0.0	0.0	0.0	-1.469721697023071	0.0	0.0	0.0	0.0	0.0	2.335421337460474	0.0	0.0	0.0	0.0	0.0
-2.6829532977939263	0.0	3.141592653589793	0.0	0.0	0.0	-1.4461547926503249	0.0	0.0	0.0	0.0	0.0	2.3779317826590223	0.0	0.0	0.0	0.0	0.0
-2.6972952427349153	0.0	3.141592653589793	0.0	0.0	0.0	-1.4221636278610186	0.0	0.0	0.0	0.0	0.0	2.420272280518642	0.0	0.0	0.0	0.0	0.0
-2.711395161921093	0.0	3.141592653589793	0.0	0.0	0.0	-1.397749936336166	0.0	0.0	0.0	0.0	0.0	2.4624359895138053	0.0	0.0	0.0	0.0	0.0
-2.7252488390385734	0.0	3.141592653589793	0.0	0.0	0.0	-1.3729155201720404	0.0	0.0	0.0	0.0	0.0	2.504416068118985	0.0	0.0	0.0	0.0	0.0
-2.7388520761365034	0.0	3.141592653589793	0.0	0.0	0.0	-1.3476622498801776	0.0	0.0	0.0	0.0	0.0	2.5462056748086646	0.0	0.0	0.0	0.0	0.0
-2.752200694311237	0.0	3.141592653589793	0.0	0.0	0.0	-1.3219920643873415	0.0	0.0	0.0	0.0	0.0	2.5877979680573127	0.0	0.0	0.0	0.0	0.0
-2.765290534390453	0.0	3.141592653589793	0.0	0.0	0.0	-1.2959069710355813	0.0	0.0	0.0	0.0	0.0	2.629186106339402	0.0	0.0	0.0	0.0	0.0
-2.7781174576173417	0.0	3.141592653589793	0.0	0.0	0.0	-1.2694090455821971	0.0	0.0	0.0	0.0	0.0	2.670363248129423	0.0	0.0	0.0	0.0	0.0
-2.790677346334732	0.0	3.141592653589793	0.0	0.0	0.0	-1.2425004321997193	0.0	0.0	0.0	0.0	0.0	2.7113225519018354	0.0	0.0	0.0	0.0	0.0
-2.8029661046692604	0.0	3.141592653589793	0.0	0.0	0.0	-1.2151833434759682	0.0	0.0	0.0	0.0	0.0	2.752057176131119	0.0	0.0	0.0	0.0	0.0
-2.814979659215523	0.0	3.141592653589793	0.0	0.0	0.0	-1.1874600604139953	0.0	0.0	0.0	0.0	0.0	2.792560279291754	0.0	0.0	0.0	0.0	0.0
-2.8267139597202084	0.0	3.141592653589793	0.0	0.0	0.0	-1.159332932432112	0.0	0.0	0.0	0.0	0.0	2.832825019858216	0.0	0.0	0.0	0.0	0.0
-2.8381649797662742	0.0	3.141592653589793	0.0	0.0	0.0	-1.1308043773639014	0.0	0.0	0.0	0.0	0.0	2.872844556304976	0.0	0.0	0.0	0.0	0.0
-2.8493287174570905	0.0	3.141592653589793	0.0	0.0	0.0	-1.1018768814581739	0.0	0.0	0.0	0.0	0.0	2.9126120471065153	0.0	0.0	0.0	0.0	0.0
-2.8602011961005904	0.0	3.141592653589793	0.0	0.0	0.0	-1.0725529993790097	0.0	0.0	0.0	0.0	0.0	2.9521206507373066	0.0	0.0	0.0	0.0	0.0
-2.870778464893422	0.0	3.141592653589793	0.0	0.0	0.0	-1.0428353542057458	0.0	0.0	0.0	0.0	0.0	2.991363525671817	0.0	0.0	0.0	0.0	0.0
-2.8810565996051047	0.0	3.141592653589793	0.0	0.0	0.0	-1.0127266374329764	0.0	0.0	0.0	0.0	0.0	3.030333830384535	0.0	0.0	0.0	0.0	0.0
-2.8910317032621813	0.0	3.141592653589793	0.0	0.0	0.0	-0.9822296089705453	0.0	0.0	0.0	0.0	0.0	3.069024723349937	0.0	0.0	0.0	0.0	0.0
-2.900699906832366	0.0	3.141592653589793	0.0	0.0	0.0	-0.9513470971435565	0.0	0.0	0.0	0.0	0.0	3.1074293630424847	0.0	0.0	0.0	0.0	0.0
-2.9100573699087033	0.0	3.141592653589793	0.0	0.0	0.0	-0.9200819986923596	0.0	0.0	0.0	0.0	0.0	3.145540907936665	0.0	0.0	0.0	0.0	0.0
-2.9191002813937144	0.0	3.141592653589793	0.0	0.0	0.0	-0.8884372787725718	0.0	0.0	0.0	0.0	0.0	3.183352516506954	0.0	0.0	0.0	0.0	0.0
-2.9278248601835593	0.0	3.141592653589793	0.0	0.0	0.0	-0.8564159709550543	0.0	0.0	0.0	0.0	0.0	3.220857347227824	0.0	0.0	0.0	0.0	0.0
-2.936227355852174	0.0	3.141592653589793	0.0	0.0	0.0	-0.8240211772259327	0.0	0.0	0.0	0.0	0.0	3.2580485585737495	0.0	0.0	0.0	0.0	0.0
-2.944304049335441	0.0	3.141592653589793	0.0	0.0	0.0	-0.7912560679865814	0.0	0.0	0.0	0.0	0.0	3.2949193090192086	0.0	0.0	0.0	0.0	0.0
-2.952051253615329	0.0	3.141592653589793	0.0	0.0	0.0	-0.7581238820536358	0.0	0.0	0.0	0.0	0.0	3.3314627570386754	0.0	0.0	0.0	0.0	0.0
-2.9594653144040395	0.0	3.141592653589793	0.0	0.0	0.0	-0.7246279266589806	0.0	0.0	0.0	0.0	0.0	3.3676720611066244	0.0	0.0	0.0	0.0	0.0
-2.96654261082819	0.0	3.141592653589793	0.0	0.0	0.0	-0.6907715774497589	0.0	0.0	0.0	0.0	0.0	3.403540379697537	0.0	0.0	0.0	0.0	0.0
-2.973279556112928	0.0	3.141592653589793	0.0	0.0	0.0	-0.6565582784883741	0.0	0.0	0.0	0.0	0.0	3.4390608712858874	0.0	0.0	0.0	0.0	0.0
-2.979672598266108	0.0	3.141592653589793	0.0	0.0	0.0	-0.6219915422524718	0.0	0.0	0.0	0.0	0.0	3.4742266943461413	0.0	0.0	0.0	0.0	0.0
-2.9857182207624335	0.0	3.141592653589793	0.0	0.0	0.0	-0.5870749496349639	0.0	0.0	0.0	0.0	0.0	3.5090310073527835	0.0	0.0	0.0	0.0	0.0
-2.9914129432276244	0.0	3.141592653589793	0.0	0.0	0.0	-0.5518121499440145	0.0	0.0	0.0	0.0	0.0	3.543466968780283	0.0	0.0	0.0	0.0	0.0
-2.9967533221225446	0.0	3.141592653589793	0.0	0.0	0.0	-0.5162068609030452	0.0	0.0	0.0	0.0	0.0	3.5775277371031287	0.0	0.0	0.0	0.0	0.0
-3.0017359514273796	0.0	3.141592653589793	0.0	0.0	0.0	-0.4802628686507173	0.0	0.0	0.0	0.0	0.0	3.611206470795789	0.0	0.0	0.0	0.0	0.0
-3.0063574633257684	0.0	3.141592653589793	0.0	0.0	0.0	-0.44398402774098145	0.0	0.0	0.0	0.0	0.0	3.6444963283327354	0.0	0.0	0.0	0.0	0.0
-3.010614528888971	0.0	3.141592653589793	0.0	0.0	0.0	-0.4073742611430067	0.0	0.0	0.0	0.0	0.0	3.677390468188447	0.0	0.0	0.0	0.0	0.0
-3.0145038587600137	0.0	3.141592653589793	0.0	0.0	0.0	-0.37043756024123553	0.0	0.0	0.0	0.0	0.0	3.7098820488373967	0.0	0.0	0.0	0.0	0.0
-3.0180222038378473	0.0	3.141592653589793	0.0	0.0	0.0	-0.3331779848353662	0.0	0.0	0.0	0.0	0.0	3.7419642287540675	0.0	0.0	0.0	0.0	0.0
-3.0211663559614887	0.0	3.141592653589793	0.0	0.0	0.0	-0.295599663140349	0.0	0.0	0.0	0.0	0.0	3.7736301664129286	0.0	0.0	0.0	0.0	0.0
-3.02393314859419	0.0	3.141592653589793	0.0	0.0	0.0	-0.25770679178638645	0.0	0.0	0.0	0.0	0.0	3.8048730202884578	0.0	0.0	0.0	0.0	0.0
-3.0263194575075714	0.0	3.141592653589793	0.0	0.0	0.0	-0.2195036358189455	0.0	0.0	0.0	0.0	0.0	3.835685948855133	0.0	0.0	0.0	0.0	0.0
-3.028322201465791	0.0	3.141592653589793	0.0	0.0	0.0	-0.18099452869873467	0.0	0.0	0.0	0.0	0.0	3.8660621105874142	0.0	0.0	0.0	0.0	0.0
-3.0299383429096904	0.0	3.141592653589793	0.0	0.0	0.0	-0.14218387230172702	0.0	0.0	0.0	0.0	0.0	3.895994663959801	0.0	0.0	0.0	0.0	0.0
-3.03116488864094	0.0	3.141592653589793	0.0	0.0	0.0	-0.1030761369191584	0.0	0.0	0.0	0.0	0.0	3.92547676744676	0.0	0.0	0.0	0.0	0.0
-3.0319988905062054	0.0	3.141592653589793	0.0	0.0	0.0	-0.0636758612575008	0.0	0.0	0.0	0.0	0.0	3.9545015795227627	0.0	0.0	0.0	0.0	0.0
-3.032437446081298	0.0	3.141592653589793	0.0	0.0	0.0	-0.023987652438494322	0.0	0.0	0.0	0.0	0.0	3.98306225866229	0.0	0.0	0.0	0.0	0.0
-3.0325095753401476	0.0	3.141592653589793	0.0	0.0	0.0	0.0	0.0	0.0	0.0	0.0	0.0	1.9999999999997797	0.0	0.0	0.0	0.0	0.0
-3.0325095753401476	0.0	3.141592653589793	0.0	0.0	0.0	0.019999999999997797	0.0	0.0	0.0	0.0	0.0	3.99999999999956	0.0	0.0	0.0	0.0	0.0
-3.0323095753401477	0.0	3.141592653589793	0.0	0.0	0.0	0.0599999999999934	0.0	0.0	0.0	0.0	0.0	3.999999999999558	0.0	0.0	0.0	0.0	0.0
-3.0317095753401477	0.0	3.141592653589793	0.0	0.0	0.0	0.09999999999998897	0.0	0.0	0.0	0.0	0.0	4.000000000003999	0.0	0.0	0.0	0.0	0.0
-3.030709575340148	0.0	3.141592653589793	0.0	0.0	0.0	0.14000000000002896	0.0	0.0	0.0	0.0	0.0	3.9999999999951177	0.0	0.0	0.0	0.0	0.0
-3.0293095753401476	0.0	3.141592653589793	0.0	0.0	0.0	0.17999999999998015	0.0	0.0	0.0	0.0	0.0	4.000000000003997	0.0	0.0	0.0	0.0	0.0
-3.0275095753401478	0.0	3.141592653589793	0.0	0.0	0.0	0.22000000000002012	0.0	0.0	0.0	0.0	0.0	3.9999999999951346	0.0	0.0	0.0	0.0	0.0
-3.0253095753401475	0.0	3.141592653589793	0.0	0.0	0.0	0.2599999999999715	0.0	0.0	0.0	0.0	0.0	4.000000000004008	0.0	0.0	0.0	0.0	0.0
-3.022709575340148	0.0	3.141592653589793	0.0	0.0	0.0	0.30000000000001154	0.0	0.0	0.0	0.0	0.0	3.9999999999995612	0.0	0.0	0.0	0.0	0.0
-3.0197095753401477	0.0	3.141592653589793	0.0	0.0	0.0	0.34000000000000713	0.0	0.0	0.0	0.0	0.0	3.9999999999995612	0.0	0.0	0.0	0.0	0.0
-3.0163095753401477	0.0	3.141592653589793	0.0	0.0	0.0	0.3800000000000027	0.0	0.0	0.0	0.0	0.0	3.999999999999567	0.0	0.0	0.0	0.0	0.0
-3.0125095753401476	0.0	3.141592653589793	0.0	0.0	0.0	0.4199999999999984	0.0	0.0	0.0	0.0	0.0	3.9999999999995612	0.0	0.0	0.0	0.0	0.0
-3.0083095753401476	0.0	3.141592653589793	0.0	0.0	0.0	0.45999999999999397	0.0	0.0	0.0	0.0	0.0	3.9999999999994946	0.0	0.0	0.0	0.0	0.0
-3.0037095753401477	0.0	3.141592653589793	0.0	0.0	0.0	0.4999999999999889	0.0	0.0	0.0	0.0	0.0	4.000000000003997	0.0	0.0	0.0	0.0	0.0
-2.998709575340148	0.0	3.141592653589793	0.0	0.0	0.0	0.5400000000000289	0.0	0.0	0.0	0.0	0.0	3.999999999995104	0.0	0.0	0.0	0.0	0.0
-2.9933095753401475	0.0	3.141592653589793	0.0	0.0	0.0	0.57999999999998	0.0	0.0	0.0	0.0	0.0	4.000000000003997	0.0	0.0	0.0	0.0	0.0
-2.9875095753401477	0.0	3.141592653589793	0.0	0.0	0.0	0.62000000000002	0.0	0.0	0.0	0.0	0.0	3.999999999995115	0.0	0.0	0.0	0.0	0.0
-2.9813095753401475	0.0	3.141592653589793	0.0	0.0	0.0	0.6599999999999712	0.0	0.0	0.0	0.0	0.0	4.000000000003985	0.0	0.0	0.0	0.0	0.0
-2.974709575340148	0.0	3.141592653589793	0.0	0.0	0.0	0.7000000000000111	0.0	0.0	0.0	0.0	0.0	3.999999999999556	0.0	0.0	0.0	0.0	0.0
-2.9677095753401477	0.0	3.141592653589793	0.0	0.0	0.0	0.7400000000000067	0.0	0.0	0.0	0.0	0.0	3.999999999999556	0.0	0.0	0.0	0.0	0.0
-2.9603095753401476	0.0	3.141592653589793	0.0	0.0	0.0	0.7800000000000022	0.0	0.0	0.0	0.0	0.0	3.999999999999545	0.0	0.0	0.0	0.0	0.0
-2.9525095753401476	0.0	3.141592653589793	0.0	0.0	0.0	0.8199999999999977	0.0	0.0	0.0	0.0	0.0	3.999999999999556	0.0	0.0	0.0	0.0	0.0
-2.9443095753401476	0.0	3.141592653589793	0.0	0.0	0.0	0.8599999999999933	0.0	0.0	0.0	0.0	0.0	3.999999999999556	0.0	0.0	0.0	0.0	0.0
-2.9357095753401476	0.0	3.141592653589793	0.0	0.0	0.0	0.8999999999999889	0.0	0.0	0.0	0.0	0.0	4.000000000004252	0.0	0.0	0.0	0.0	0.0
-2.9267095753401478	0.0	3.141592653589793	0.0	0.0	0.0	0.9400000000000315	0.0	0.0	0.0	0.0	0.0	3.9999999999948597	0.0	0.0	0.0	0.0	0.0
-2.9173095753401475	0.0	3.141592653589793	0.0	0.0	0.0	0.97999999999998	0.0	0.0	0.0	0.0	0.0	4.000000000003997	0.0	0.0	0.0	0.0	0.0
-2.9075095753401476	0.0	3.141592653589793	0.0	0.0	0.0	1.02000000000002	0.0	0.0	0.0	0.0	0.0	3.999999999995115	0.0	0.0	0.0	0.0	0.0
-2.8973095753401474	0.0	3.141592653589793	0.0	0.0	0.0	1.0599999999999712	0.0	0.0	0.0	0.0	0.0	4.000000000003997	0.0	0.0	0.0	0.0	0.0
-2.8867095753401477	0.0	3.141592653589793	0.0	0.0	0.0	1.1000000000000112	0.0	0.0	0.0	0.0	0.0	3.1848917607568445	0.0	0.0	0.0	0.0	0.0
-2.8757095753401476	0.0	3.141592653589793	0.0	0.0	0.0	1.1318489176075797	0.0	0.0	0.0	0.0	0.0	0.2615096188707253	0.0	0.0	0.0	0.0	0.0
-2.864391086164072	0.0	3.141592653589793	0.0	0.0	0.0	1.134464013796287	0.0	0.0	0.0	0.0	0.0	4.440892098500622e-12	0.0	0.0	0.0	0.0	0.0
-2.853046446026109	0.0	3.141592653589793	0.0	0.0	0.0	1.1344640137963313	0.0	0.0	0.0	0.0	0.0	0.0	0.0	0.0	0.0	0.0	0.0
-2.8417018058881456	0.0	3.141592653589793	0.0	0.0	0.0	1.1344640137963313	0.0	0.0	0.0	0.0	0.0	-4.440892098500622e-12	0.0	0.0	0.0	0.0	0.0
-2.8303571657501823	0.0	3.141592653589793	0.0	0.0	0.0	1.134464013796287	0.0	0.0	0.0	0.0	0.0	4.440892098500622e-12	0.0	0.0	0.0	0.0	0.0
-2.8190125256122194	0.0	3.141592653589793	0.0	0.0	0.0	1.1344640137963313	0.0	0.0	0.0	0.0	0.0	-4.440892098500622e-12	0.0	0.0	0.0	0.0	0.0
-2.807667885474256	0.0	3.141592653589793	0.0	0.0	0.0	1.134464013796287	0.0	0.0	0.0	0.0	0.0	4.440892098500622e-12	0.0	0.0	0.0	0.0	0.0
-2.796323245336293	0.0	3.141592653589793	0.0	0.0	0.0	1.1344640137963313	0.0	0.0	0.0	0.0	0.0	0.0	0.0	0.0	0.0	0.0	0.0
-2.78497860519833	0.0	3.141592653589793	0.0	0.0	0.0	1.1344640137963313	0.0	0.0	0.0	0.0	0.0	-4.440892098500622e-12	0.0	0.0	0.0	0.0	0.0
-2.7736339650603665	0.0	3.141592653589793	0.0	0.0	0.0	1.134464013796287	0.0	0.0	0.0	0.0	0.0	4.440892098500622e-12	0.0	0.0	0.0	0.0	0.0
-2.7622893249224036	0.0	3.141592653589793	0.0	0.0	0.0	1.1344640137963313	0.0	0.0	0.0	0.0	0.0	0.0	0.0	0.0	0.0	0.0	0.0
-2.7509446847844403	0.0	3.141592653589793	0.0	0.0	0.0	1.1344640137963313	0.0	0.0	0.0	0.0	0.0	-4.440892098500622e-12	0.0	0.0	0.0	0.0	0.0
-2.739600044646477	0.0	3.141592653589793	0.0	0.0	0.0	1.134464013796287	0.0	0.0	0.0	0.0	0.0	4.440892098500622e-12	0.0	0.0	0.0	0.0	0.0
-2.728255404508514	0.0	3.141592653589793	0.0	0.0	0.0	1.1344640137963313	0.0	0.0	0.0	0.0	0.0	-4.440892098500622e-12	0.0	0.0	0.0	0.0	0.0
-2.716910764370551	0.0	3.141592653589793	0.0	0.0	0.0	1.134464013796287	0.0	0.0	0.0	0.0	0.0	4.440892098500622e-12	0.0	0.0	0.0	0.0	0.0
-2.705566124232588	0.0	3.141592653589793	0.0	0.0	0.0	1.1344640137963313	0.0	0.0	0.0	0.0	0.0	0.0	0.0	0.0	0.0	0.0	0.0
-2.6942214840946246	0.0	3.141592653589793	0.0	0.0	0.0	1.1344640137963313	0.0	0.0	0.0	0.0	0.0	-4.440892098500622e-12	0.0	0.0	0.0	0.0	0.0
-2.6828768439566613	0.0	3.141592653589793	0.0	0.0	0.0	1.134464013796287	0.0	0.0	0.0	0.0	0.0	4.440892098500622e-12	0.0	0.0	0.0	0.0	0.0
-2.6715322038186984	0.0	3.141592653589793	0.0	0.0	0.0	1.1344640137963313	0.0	0.0	0.0	0.0	0.0	-4.440892098500622e-12	0.0	0.0	0.0	0.0	0.0
-2.660187563680735	0.0	3.141592653589793	0.0	0.0	0.0	1.134464013796287	0.0	0.0	0.0	0.0	0.0	5.084821452783212e-12	0.0	0.0	0.0	0.0	0.0
-2.648842923542772	0.0	3.141592653589793	0.0	0.0	0.0	1.1344640137963378	0.0	0.0	0.0	0.0	0.0	-6.439293542825938e-13	0.0	0.0	0.0	0.0	0.0
-2.637498283404809	0.0	3.141592653589793	0.0	0.0	0.0	1.1344640137963313	0.0	0.0	0.0	0.0	0.0	-4.440892098500622e-12	0.0	0.0	0.0	0.0	0.0
-2.6261536432668455	0.0	3.141592653589793	0.0	0.0	0.0	1.134464013796287	0.0	0.0	0.0	0.0	0.0	4.440892098500622e-12	0.0	0.0	0.0	0.0	0.0
-2.6148090031288826	0.0	3.141592653589793	0.0	0.0	0.0	1.1344640137963313	0.0	0.0	0.0	0.0	0.0	-4.440892098500622e-12	0.0	0.0	0.0	0.0	0.0
-2.6034643629909193	0.0	3.141592653589793	0.0	0.0	0.0	1.134464013796287	0.0	0.0	0.0	0.0	0.0	4.440892098500622e-12	0.0	0.0	0.0	0.0	0.0
-2.5921197228529564	0.0	3.141592653589793	0.0	0.0	0.0	1.1344640137963313	0.0	0.0	0.0	0.0	0.0	0.0	0.0	0.0	0.0	0.0	0.0
-2.580775082714993	0.0	3.141592653589793	0.0	0.0	0.0	1.1344640137963313	0.0	0.0	0.0	0.0	0.0	-4.440892098500622e-12	0.0	0.0	0.0	0.0	0.0
-2.56943044257703	0.0	3.141592653589793	0.0	0.0	0.0	1.134464013796287	0.0	0.0	0.0	0.0	0.0	4.440892098500622e-12	0.0	0.0	0.0	0.0	0.0
-2.558085802439067	0.0	3.141592653589793	0.0	0.0	0.0	1.1344640137963313	0.0	0.0	0.0	0.0	0.0	-4.440892098500622e-12	0.0	0.0	0.0	0.0	0.0
-2.5467411623011036	0.0	3.141592653589793	0.0	0.0	0.0	1.134464013796287	0.0	0.0	0.0	0.0	0.0	4.440892098500622e-12	0.0	0.0	0.0	0.0	0.0
-2.5353965221631407	0.0	3.141592653589793	0.0	0.0	0.0	1.1344640137963313	0.0	0.0	0.0	0.0	0.0	0.0	0.0	0.0	0.0	0.0	0.0
-2.5240518820251774	0.0	3.141592653589793	0.0	0.0	0.0	1.1344640137963313	0.0	0.0	0.0	0.0	0.0	-4.440892098500622e-12	0.0	0.0	0.0	0.0	0.0
-2.512707241887214	0.0	3.141592653589793	0.0	0.0	0.0	1.134464013796287	0.0	0.0	0.0	0.0	0.0	4.440892098500622e-12	0.0	0.0	0.0	0.0	0.0
-2.501362601749251	0.0	3.141592653589793	0.0	0.0	0.0	1.1344640137963313	0.0	0.0	0.0	0.0	0.0	-4.440892098500622e-12	0.0	0.0	0.0	0.0	0.0
-2.490017961611288	0.0	3.141592653589793	0.0	0.0	0.0	1.134464013796287	0.0	0.0	0.0	0.0	0.0	4.440892098500622e-12	0.0	0.0	0.0	0.0	0.0
-2.478673321473325	0.0	3.141592653589793	0.0	0.0	0.0	1.1344640137963313	0.0	0.0	0.0	0.0	0.0	0.0	0.0	0.0	0.0	0.0	0.0
-2.4673286813353617	0.0	3.141592653589793	0.0	0.0	0.0	1.1344640137963313	0.0	0.0	0.0	0.0	0.0	-4.440892098500622e-12	0.0	0.0	0.0	0.0	0.0
-2.4559840411973983	0.0	3.141592653589793	0.0	0.0	0.0	1.134464013796287	0.0	0.0	0.0	0.0	0.0	4.440892098500622e-12	0.0	0.0	0.0	0.0	0.0
-2.4446394010594354	0.0	3.141592653589793	0.0	0.0	0.0	1.1344640137963313	0.0	0.0	0.0	0.0	0.0	-4.440892098500622e-12	0.0	0.0	0.0	0.0	0.0
-2.433294760921472	0.0	3.141592653589793	0.0	0.0	0.0	1.134464013796287	0.0	0.0	0.0	0.0	0.0	4.440892098500622e-12	0.0	0.0	0.0	0.0	0.0
-2.4219501207835092	0.0	3.141592653589793	0.0	0.0	0.0	1.1344640137963313	0.0	0.0	0.0	0.0	0.0	0.0	0.0	0.0	0.0	0.0	0.0
-2.410605480645546	0.0	3.141592653589793	0.0	0.0	0.0	1.1344640137963313	0.0	0.0	0.0	0.0	0.0	-4.440892098500622e-12	0.0	0.0	0.0	0.0	0.0
-2.3992608405075826	0.0	3.141592653589793	0.0	0.0	0.0	1.134464013796287	0.0	0.0	0.0	0.0	0.0	4.440892098500622e-12	0.0	0.0	0.0	0.0	0.0
-2.3879162003696197	0.0	3.141592653589793	0.0	0.0	0.0	1.1344640137963313	0.0	0.0	0.0	0.0	0.0	-4.440892098500622e-12	0.0	0.0	0.0	0.0	0.0
-2.3765715602316564	0.0	3.141592653589793	0.0	0.0	0.0	1.134464013796287	0.0	0.0	0.0	0.0	0.0	4.440892098500622e-12	0.0	0.0	0.0	0.0	0.0
-2.3652269200936935	0.0	3.141592653589793	0.0	0.0	0.0	1.1344640137963313	0.0	0.0	0.0	0.0	0.0	0.0	0.0	0.0	0.0	0.0	0.0
-2.35388227995573	0.0	3.141592653589793	0.0	0.0	0.0	1.1344640137963313	0.0	0.0	0.0	0.0	0.0	-4.440892098500622e-12	0.0	0.0	0.0	0.0	0.0
-2.342537639817767	0.0	3.141592653589793	0.0	0.0	0.0	1.134464013796287	0.0	0.0	0.0	0.0	0.0	4.440892098500622e-12	0.0	0.0	0.0	0.0	0.0
-2.331192999679804	0.0	3.141592653589793	0.0	0.0	0.0	1.1344640137963313	0.0	0.0	0.0	0.0	0.0	-4.440892098500622e-12	0.0	0.0	0.0	0.0	0.0
-2.3198483595418407	0.0	3.141592653589793	0.0	0.0	0.0	1.134464013796287	0.0	0.0	0.0	0.0	0.0	4.440892098500622e-12	0.0	0.0	0.0	0.0	0.0
-2.3085037194038778	0.0	3.141592653589793	0.0	0.0	0.0	1.1344640137963313	0.0	0.0	0.0	0.0	0.0	0.0	0.0	0.0	0.0	0.0	0.0
-2.2971590792659144	0.0	3.141592653589793	0.0	0.0	0.0	1.1344640137963313	0.0	0.0	0.0	0.0	0.0	-4.440892098500622e-12	0.0	0.0	0.0	0.0	0.0
-2.285814439127951	0.0	3.141592653589793	0.0	0.0	0.0	1.134464013796287	0.0	0.0	0.0	0.0	0.0	4.440892098500622e-12	0.0	0.0	0.0	0.0	0.0
-2.2744697989899882	0.0	3.141592653589793	0.0	0.0	0.0	1.1344640137963313	0.0	0.0	0.0	0.0	0.0	-4.440892098500622e-12	0.0	0.0	0.0	0.0	0.0
-2.263125158852025	0.0	3.141592653589793	0.0	0.0	0.0	1.134464013796287	0.0	0.0	0.0	0.0	0.0	4.440892098500622e-12	0.0	0.0	0.0	0.0	0.0
-2.251780518714062	0.0	3.141592653589793	0.0	0.0	0.0	1.1344640137963313	0.0	0.0	0.0	0.0	0.0	0.0	0.0	0.0	0.0	0.0	0.0
-2.2404358785760987	0.0	3.141592653589793	0.0	0.0	0.0	1.1344640137963313	0.0	0.0	0.0	0.0	0.0	0.0	0.0	0.0	0.0	0.0	0.0
-2.2290912384381354	0.0	3.141592653589793	0.0	0.0	0.0	1.1344640137963313	0.0	0.0	0.0	0.0	0.0	-4.440892098500622e-12	0.0	0.0	0.0	0.0	0.0
-2.217746598300172	0.0	3.141592653589793	0.0	0.0	0.0	1.134464013796287	0.0	0.0	0.0	0.0	0.0	0.0	0.0	0.0	0.0	0.0	0.0
-2.206401958162209	0.0	3.141592653589793	0.0	0.0	0.0	1.134464013796287	0.0	0.0	0.0	0.0	0.0	4.440892098500622e-12	0.0	0.0	0.0	0.0	0.0
-2.1950573180242463	0.0	3.141592653589793	0.0	0.0	0.0	1.1344640137963313	0.0	0.0	0.0	0.0	0.0	0.0	0.0	0.0	0.0	0.0	0.0
-2.183712677886283	0.0	3.141592653589793	0.0	0.0	0.0	1.1344640137963313	0.0	0.0	0.0	0.0	0.0	0.0	0.0	0.0	0.0	0.0	0.0
-2.1723680377483197	0.0	3.141592653589793	0.0	0.0	0.0	1.1344640137963313	0.0	0.0	0.0	0.0	0.0	-4.440892098500622e-12	0.0	0.0	0.0	0.0	0.0
-2.1610233976103563	0.0	3.141592653589793	0.0	0.0	0.0	1.134464013796287	0.0	0.0	0.0	0.0	0.0	4.440892098500622e-12	0.0	0.0	0.0	0.0	0.0
-2.1496787574723935	0.0	3.141592653589793	0.0	0.0	0.0	1.1344640137963313	0.0	0.0	0.0	0.0	0.0	-4.440892098500622e-12	0.0	0.0	0.0	0.0	0.0
-2.13833411733443	0.0	3.141592653589793	0.0	0.0	0.0	1.134464013796287	0.0	0.0	0.0	0.0	0.0	4.440892098500622e-12	0.0	0.0	0.0	0.0	0.0
-2.1269894771964672	0.0	3.141592653589793	0.0	0.0	0.0	1.1344640137963313	0.0	0.0	0.0	0.0	0.0	0.0	0.0	0.0	0.0	0.0	0.0
-2.115644837058504	0.0	3.141592653589793	0.0	0.0	0.0	1.1344640137963313	0.0	0.0	0.0	0.0	0.0	-4.440892098500622e-12	0.0	0.0	0.0	0.0	0.0
-2.1043001969205406	0.0	3.141592653589793	0.0	0.0	0.0	1.134464013796287	0.0	0.0	0.0	0.0	0.0	4.440892098500622e-12	0.0	0.0	0.0	0.0	0.0
-2.0929555567825777	0.0	3.141592653589793	0.0	0.0	0.0	1.1344640137963313	0.0	0.0	0.0	0.0	0.0	-4.440892098500622e-12	0.0	0.0	0.0	0.0	0.0
-2.0816109166446144	0.0	3.141592653589793	0.0	0.0	0.0	1.134464013796287	0.0	0.0	0.0	0.0	0.0	4.440892098500622e-12	0.0	0.0	0.0	0.0	0.0
-2.0702662765066515	0.0	3.141592653589793	0.0	0.0	0.0	1.1344640137963313	0.0	0.0	0.0	0.0	0.0	0.0	0.0	0.0	0.0	0.0	0.0
-2.058921636368688	0.0	3.141592653589793	0.0	0.0	0.0	1.1344640137963313	0.0	0.0	0.0	0.0	0.0	-4.440892098500622e-12	0.0	0.0	0.0	0.0	0.0
-2.047576996230725	0.0	3.141592653589793	0.0	0.0	0.0	1.134464013796287	0.0	0.0	0.0	0.0	0.0	4.440892098500622e-12	0.0	0.0	0.0	0.0	0.0
-2.036232356092762	0.0	3.141592653589793	0.0	0.0	0.0	1.1344640137963313	0.0	0.0	0.0	0.0	0.0	-4.440892098500622e-12	0.0	0.0	0.0	0.0	0.0
-2.0248877159547987	0.0	3.141592653589793	0.0	0.0	0.0	1.134464013796287	0.0	0.0	0.0	0.0	0.0	4.440892098500622e-12	0.0	0.0	0.0	0.0	0.0
-2.013543075816836	0.0	3.141592653589793	0.0	0.0	0.0	1.1344640137963313	0.0	0.0	0.0	0.0	0.0	-2.220446049250311e-12	0.0	0.0	0.0	0.0	0.0
-2.0021984356788725	0.0	3.141592653589793	0.0	0.0	0.0	1.1344640137963091	0.0	0.0	0.0	0.0	0.0	2.220446049250311e-12	0.0	0.0	0.0	0.0	0.0
-1.9908537955409094	0.0	3.141592653589793	0.0	0.0	0.0	1.1344640137963313	0.0	0.0	0.0	0.0	0.0	-2.220446049250311e-12	0.0	0.0	0.0	0.0	0.0
-1.979509155402946	0.0	3.141592653589793	0.0	0.0	0.0	1.1344640137963091	0.0	0.0	0.0	0.0	0.0	0.0	0.0	0.0	0.0	0.0	0.0
-1.968164515264983	0.0	3.141592653589793	0.0	0.0	0.0	1.1344640137963091	0.0	0.0	0.0	0.0	0.0	0.0	0.0	0.0	0.0	0.0	0.0
-1.9568198751270198	0.0	3.141592653589793	0.0	0.0	0.0	1.1344640137963091	0.0	0.0	0.0	0.0	0.0	0.0	0.0	0.0	0.0	0.0	0.0
-1.9454752349890567	0.0	3.141592653589793	0.0	0.0	0.0	1.1344640137963091	0.0	0.0	0.0	0.0	0.0	2.220446049250311e-12	0.0	0.0	0.0	0.0	0.0
-1.9341305948510936	0.0	3.141592653589793	0.0	0.0	0.0	1.1344640137963313	0.0	0.0	0.0	0.0	0.0	-2.220446049250311e-12	0.0	0.0	0.0	0.0	0.0
-1.9227859547131303	0.0	3.141592653589793	0.0	0.0	0.0	1.1344640137963091	0.0	0.0	0.0	0.0	0.0	0.0	0.0	0.0	0.0	0.0	0.0
-1.9114413145751672	0.0	3.141592653589793	0.0	0.0	0.0	1.1344640137963091	0.0	0.0	0.0	0.0	0.0	0.0	0.0	0.0	0.0	0.0	0.0
-1.900096674437204	0.0	3.141592653589793	0.0	0.0	0.0	1.1344640137963091	0.0	0.0	0.0	0.0	0.0	2.220446049250311e-12	0.0	0.0	0.0	0.0	0.0
-1.888752034299241	0.0	3.141592653589793	0.0	0.0	0.0	1.1344640137963313	0.0	0.0	0.0	0.0	0.0	-2.220446049250311e-12	0.0	0.0	0.0	0.0	0.0
-1.8774073941612777	0.0	3.141592653589793	0.0	0.0	0.0	1.1344640137963091	0.0	0.0	0.0	0.0	0.0	0.0	0.0	0.0	0.0	0.0	0.0
-1.8660627540233146	0.0	3.141592653589793	0.0	0.0	0.0	1.1344640137963091	0.0	0.0	0.0	0.0	0.0	0.0	0.0	0.0	0.0	0.0	0.0
-1.8547181138853515	0.0	3.141592653589793	0.0	0.0	0.0	1.1344640137963091	0.0	0.0	0.0	0.0	0.0	0.0	0.0	0.0	0.0	0.0	0.0
-1.8433734737473884	0.0	3.141592653589793	0.0	0.0	0.0	1.1344640137963091	0.0	0.0	0.0	0.0	0.0	2.220446049250311e-12	0.0	0.0	0.0	0.0	0.0
-1.8320288336094253	0.0	3.141592653589793	0.0	0.0	0.0	1.1344640137963313	0.0	0.0	0.0	0.0	0.0	-2.220446049250311e-12	0.0	0.0	0.0	0.0	0.0
-1.820684193471462	0.0	3.141592653589793	0.0	0.0	0.0	1.1344640137963091	0.0	0.0	0.0	0.0	0.0	0.0	0.0	0.0	0.0	0.0	0.0
-1.8093395533334988	0.0	3.141592653589793	0.0	0.0	0.0	1.1344640137963091	0.0	0.0	0.0	0.0	0.0	0.0	0.0	0.0	0.0	0.0	0.0
-1.7979949131955357	0.0	3.141592653589793	0.0	0.0	0.0	1.1344640137963091	0.0	0.0	0.0	0.0	0.0	2.220446049250311e-12	0.0	0.0	0.0	0.0	0.0
-1.7866502730575726	0.0	3.141592653589793	0.0	0.0	0.0	1.1344640137963313	0.0	0.0	0.0	0.0	0.0	-2.220446049250311e-12	0.0	0.0	0.0	0.0	0.0
-1.7753056329196093	0.0	3.141592653589793	0.0	0.0	0.0	1.1344640137963091	0.0	0.0	0.0	0.0	0.0	0.0	0.0	0.0	0.0	0.0	0.0
-1.7639609927816462	0.0	3.141592653589793	0.0	0.0	0.0	1.1344640137963091	0.0	0.0	0.0	0.0	0.0	0.0	0.0	0.0	0.0	0.0	0.0
-1.752616352643683	0.0	3.141592653589793	0.0	0.0	0.0	1.1344640137963091	0.0	0.0	0.0	0.0	0.0	0.0	0.0	0.0	0.0	0.0	0.0
-1.74127171250572	0.0	3.141592653589793	0.0	0.0	0.0	1.1344640137963091	0.0	0.0	0.0	0.0	0.0	2.220446049250311e-12	0.0	0.0	0.0	0.0	0.0
-1.729927072367757	0.0	3.141592653589793	0.0	0.0	0.0	1.1344640137963313	0.0	0.0	0.0	0.0	0.0	-2.220446049250311e-12	0.0	0.0	0.0	0.0	0.0
-1.7185824322297936	0.0	3.141592653589793	0.0	0.0	0.0	1.1344640137963091	0.0	0.0	0.0	0.0	0.0	0.0	0.0	0.0	0.0	0.0	0.0
-1.7072377920918305	0.0	3.141592653589793	0.0	0.0	0.0	1.1344640137963091	0.0	0.0	0.0	0.0	0.0	0.0	0.0	0.0	0.0	0.0	0.0
-1.6958931519538674	0.0	3.141592653589793	0.0	0.0	0.0	1.1344640137963091	0.0	0.0	0.0	0.0	0.0	2.220446049250311e-12	0.0	0.0	0.0	0.0	0.0
-1.6845485118159043	0.0	3.141592653589793	0.0	0.0	0.0	1.1344640137963313	0.0	0.0	0.0	0.0	0.0	-2.220446049250311e-12	0.0	0.0	0.0	0.0	0.0
-1.673203871677941	0.0	3.141592653589793	0.0	0.0	0.0	1.1344640137963091	0.0	0.0	0.0	0.0	0.0	0.0	0.0	0.0	0.0	0.0	0.0
-1.6618592315399778	0.0	3.141592653589793	0.0	0.0	0.0	1.1344640137963091	0.0	0.0	0.0	0.0	0.0	0.0	0.0	0.0	0.0	0.0	0.0
-1.6505145914020147	0.0	3.141592653589793	0.0	0.0	0.0	1.1344640137963091	0.0	0.0	0.0	0.0	0.0	2.220446049250311e-12	0.0	0.0	0.0	0.0	0.0
-1.6391699512640516	0.0	3.141592653589793	0.0	0.0	0.0	1.1344640137963313	0.0	0.0	0.0	0.0	0.0	-2.220446049250311e-12	0.0	0.0	0.0	0.0	0.0
-1.6278253111260883	0.0	3.141592653589793	0.0	0.0	0.0	1.1344640137963091	0.0	0.0	0.0	0.0	0.0	0.0	0.0	0.0	0.0	0.0	0.0
-1.6164806709881252	0.0	3.141592653589793	0.0	0.0	0.0	1.1344640137963091	0.0	0.0	0.0	0.0	0.0	0.0	0.0	0.0	0.0	0.0	0.0
-1.605136030850162	0.0	3.141592653589793	0.0	0.0	0.0	1.1344640137963091	0.0	0.0	0.0	0.0	0.0	0.0	0.0	0.0	0.0	0.0	0.0
-1.593791390712199	0.0	3.141592653589793	0.0	0.0	0.0	1.1344640137963091	0.0	0.0	0.0	0.0	0.0	2.220446049250311e-12	0.0	0.0	0.0	0.0	0.0
-1.582446750574236	0.0	3.141592653589793	0.0	0.0	0.0	1.1344640137963313	0.0	0.0	0.0	0.0	0.0	-2.220446049250311e-12	0.0	0.0	0.0	0.0	0.0
-1.5711021104362726	0.0	3.141592653589793	0.0	0.0	0.0	1.1344640137963091	0.0	0.0	0.0	0.0	0.0	0.0	0.0	0.0	0.0	0.0	0.0
-1.5597574702983095	0.0	3.141592653589793	0.0	0.0	0.0	1.1344640137963091	0.0	0.0	0.0	0.0	0.0	0.0	0.0	0.0	0.0	0.0	0.0
-1.5484128301603464	0.0	3.141592653589793	0.0	0.0	0.0	1.1344640137963091	0.0	0.0	0.0	0.0	0.0	2.220446049250311e-12	0.0	0.0	0.0	0.0	0.0
-1.5370681900223833	0.0	3.141592653589793	0.0	0.0	0.0	1.1344640137963313	0.0	0.0	0.0	0.0	0.0	-2.220446049250311e-12	0.0	0.0	0.0	0.0	0.0
-1.52572354988442	0.0	3.141592653589793	0.0	0.0	0.0	1.1344640137963091	0.0	0.0	0.0	0.0	0.0	0.0	0.0	0.0	0.0	0.0	0.0
-1.5143789097464568	0.0	3.141592653589793	0.0	0.0	0.0	1.1344640137963091	0.0	0.0	0.0	0.0	0.0	0.0	0.0	0.0	0.0	0.0	0.0
-1.5030342696084937	0.0	3.141592653589793	0.0	0.0	0.0	1.1344640137963091	0.0	0.0	0.0	0.0	0.0	0.0	0.0	0.0	0.0	0.0	0.0
-1.4916896294705306	0.0	3.141592653589793	0.0	0.0	0.0	1.1344640137963091	0.0	0.0	0.0	0.0	0.0	2.220446049250311e-12	0.0	0.0	0.0	0.0	0.0
-1.4803449893325675	0.0	3.141592653589793	0.0	0.0	0.0	1.1344640137963313	0.0	0.0	0.0	0.0	0.0	-2.220446049250311e-12	0.0	0.0	0.0	0.0	0.0
-1.4690003491946042	0.0	3.141592653589793	0.0	0.0	0.0	1.1344640137963091	0.0	0.0	0.0	0.0	0.0	0.0	0.0	0.0	0.0	0.0	0.0
-1.457655709056641	0.0	3.141592653589793	0.0	0.0	0.0	1.1344640137963091	0.0	0.0	0.0	0.0	0.0	0.0	0.0	0.0	0.0	0.0	0.0
-1.446311068918678	0.0	3.141592653589793	0.0	0.0	0.0	1.1344640137963091	0.0	0.0	0.0	0.0	0.0	2.220446049250311e-12	0.0	0.0	0.0	0.0	0.0
-1.434966428780715	0.0	3.141592653589793	0.0	0.0	0.0	1.1344640137963313	0.0	0.0	0.0	0.0	0.0	-2.220446049250311e-12	0.0	0.0	0.0	0.0	0.0
-1.4236217886427516	0.0	3.141592653589793	0.0	0.0	0.0	1.1344640137963091	0.0	0.0	0.0	0.0	0.0	0.0	0.0	0.0	0.0	0.0	0.0
-1.4122771485047885	0.0	3.141592653589793	0.0	0.0	0.0	1.1344640137963091	0.0	0.0	0.0	0.0	0.0	0.0	0.0	0.0	0.0	0.0	0.0
-1.4009325083668254	0.0	3.141592653589793	0.0	0.0	0.0	1.1344640137963091	0.0	0.0	0.0	0.0	0.0	0.0	0.0	0.0	0.0	0.0	0.0
-1.3895878682288623	0.0	3.141592653589793	0.0	0.0	0.0	1.1344640137963091	0.0	0.0	0.0	0.0	0.0	2.220446049250311e-12	0.0	0.0	0.0	0.0	0.0
-1.3782432280908992	0.0	3.141592653589793	0.0	0.0	0.0	1.1344640137963313	0.0	0.0	0.0	0.0	0.0	-2.220446049250311e-12	0.0	0.0	0.0	0.0	0.0
-1.3668985879529358	0.0	3.141592653589793	0.0	0.0	0.0	1.1344640137963091	0.0	0.0	0.0	0.0	0.0	0.0	0.0	0.0	0.0	0.0	0.0
-1.3555539478149727	0.0	3.141592653589793	0.0	0.0	0.0	1.1344640137963091	0.0	0.0	0.0	0.0	0.0	0.0	0.0	0.0	0.0	0.0	0.0
-1.3442093076770096	0.0	3.141592653589793	0.0	0.0	0.0	1.1344640137963091	0.0	0.0	0.0	0.0	0.0	2.220446049250311e-12	0.0	0.0	0.0	0.0	0.0
-1.3328646675390465	0.0	3.141592653589793	0.0	0.0	0.0	1.1344640137963313	0.0	0.0	0.0	0.0	0.0	-2.220446049250311e-12	0.0	0.0	0.0	0.0	0.0
-1.3215200274010832	0.0	3.141592653589793	0.0	0.0	0.0	1.1344640137963091	0.0	0.0	0.0	0.0	0.0	0.0	0.0	0.0	0.0	0.0	0.0
-1.31017538726312	0.0	3.141592653589793	0.0	0.0	0.0	1.1344640137963091	0.0	0.0	0.0	0.0	0.0	0.0	0.0	0.0	0.0	0.0	0.0
-1.298830747125157	0.0	3.141592653589793	0.0	0.0	0.0	1.1344640137963091	0.0	0.0	0.0	0.0	0.0	0.0	0.0	0.0	0.0	0.0	0.0
-1.287486106987194	0.0	3.141592653589793	0.0	0.0	0.0	1.1344640137963091	0.0	0.0	0.0	0.0	0.0	2.220446049250311e-12	0.0	0.0	0.0	0.0	0.0
-1.2761414668492308	0.0	3.141592653589793	0.0	0.0	0.0	1.1344640137963313	0.0	0.0	0.0	0.0	0.0	-2.220446049250311e-12	0.0	0.0	0.0	0.0	0.0
-1.2647968267112675	0.0	3.141592653589793	0.0	0.0	0.0	1.1344640137963091	0.0	0.0	0.0	0.0	0.0	0.0	0.0	0.0	0.0	0.0	0.0
-1.2534521865733044	0.0	3.141592653589793	0.0	0.0	0.0	1.1344640137963091	0.0	0.0	0.0	0.0	0.0	0.0	0.0	0.0	0.0	0.0	0.0
-1.2421075464353413	0.0	3.141592653589793	0.0	0.0	0.0	1.1344640137963091	0.0	0.0	0.0	0.0	0.0	2.220446049250311e-12	0.0	0.0	0.0	0.0	0.0
-1.2307629062973782	0.0	3.141592653589793	0.0	0.0	0.0	1.1344640137963313	0.0	0.0	0.0	0.0	0.0	-2.220446049250311e-12	0.0	0.0	0.0	0.0	0.0
-1.2194182661594148	0.0	3.141592653589793	0.0	0.0	0.0	1.1344640137963091	0.0	0.0	0.0	0.0	0.0	0.0	0.0	0.0	0.0	0.0	0.0
-1.2080736260214517	0.0	3.141592653589793	0.0	0.0	0.0	1.1344640137963091	0.0	0.0	0.0	0.0	0.0	0.0	0.0	0.0	0.0	0.0	0.0
-1.1967289858834886	0.0	3.141592653589793	0.0	0.0	0.0	1.1344640137963091	0.0	0.0	0.0	0.0	0.0	2.220446049250311e-12	0.0	0.0	0.0	0.0	0.0
-1.1853843457455255	0.0	3.141592653589793	0.0	0.0	0.0	1.1344640137963313	0.0	0.0	0.0	0.0	0.0	-2.220446049250311e-12	0.0	0.0	0.0	0.0	0.0
-1.1740397056075622	0.0	3.141592653589793	0.0	0.0	0.0	1.1344640137963091	0.0	0.0	0.0	0.0	0.0	0.0	0.0	0.0	0.0	0.0	0.0
-1.162695065469599	0.0	3.141592653589793	0.0	0.0	0.0	1.1344640137963091	0.0	0.0	0.0	0.0	0.0	0.0	0.0	0.0	0.0	0.0	0.0
-1.151350425331636	0.0	3.141592653589793	0.0	0.0	0.0	1.1344640137963091	0.0	0.0	0.0	0.0	0.0	0.0	0.0	0.0	0.0	0.0	0.0
-1.140005785193673	0.0	3.141592653589793	0.0	0.0	0.0	1.1344640137963091	0.0	0.0	0.0	0.0	0.0	2.220446049250311e-12	0.0	0.0	0.0	0.0	0.0
-1.1286611450557098	0.0	3.141592653589793	0.0	0.0	0.0	1.1344640137963313	0.0	0.0	0.0	0.0	0.0	-2.220446049250311e-12	0.0	0.0	0.0	0.0	0.0
-1.1173165049177465	0.0	3.141592653589793	0.0	0.0	0.0	1.1344640137963091	0.0	0.0	0.0	0.0	0.0	0.0	0.0	0.0	0.0	0.0	0.0
-1.1059718647797834	0.0	3.141592653589793	0.0	0.0	0.0	1.1344640137963091	0.0	0.0	0.0	0.0	0.0	0.0	0.0	0.0	0.0	0.0	0.0
-1.0946272246418203	0.0	3.141592653589793	0.0	0.0	0.0	1.1344640137963091	0.0	0.0	0.0	0.0	0.0	2.220446049250311e-12	0.0	0.0	0.0	0.0	0.0
-1.0832825845038572	0.0	3.141592653589793	0.0	0.0	0.0	1.1344640137963313	0.0	0.0	0.0	0.0	0.0	-2.220446049250311e-12	0.0	0.0	0.0	0.0	0.0
-1.0719379443658938	0.0	3.141592653589793	0.0	0.0	0.0	1.1344640137963091	0.0	0.0	0.0	0.0	0.0	0.0	0.0	0.0	0.0	0.0	0.0
-1.0605933042279307	0.0	3.141592653589793	0.0	0.0	0.0	1.1344640137963091	0.0	0.0	0.0	0.0	0.0	0.0	0.0	0.0	0.0	0.0	0.0
-1.0492486640899676	0.0	3.141592653589793	0.0	0.0	0.0	1.1344640137963091	0.0	0.0	0.0	0.0	0.0	2.220446049250311e-12	0.0	0.0	0.0	0.0	0.0
-1.0379040239520045	0.0	3.141592653589793	0.0	0.0	0.0	1.1344640137963313	0.0	0.0	0.0	0.0	0.0	-4.440892098500622e-12	0.0	0.0	0.0	0.0	0.0
-1.0265593838140412	0.0	3.141592653589793	0.0	0.0	0.0	1.134464013796287	0.0	0.0	0.0	0.0	0.0	4.440892098500622e-12	0.0	0.0	0.0	0.0	0.0
-1.0152147436760783	0.0	3.141592653589793	0.0	0.0	0.0	1.1344640137963313	0.0	0.0	0.0	0.0	0.0	0.0	0.0	0.0	0.0	0.0	0.0
-1.003870103538115	0.0	3.141592653589793	0.0	0.0	0.0	1.1344640137963313	0.0	0.0	0.0	0.0	0.0	-4.440892098500622e-12	0.0	0.0	0.0	0.0	0.0
-0.9925254634001517	0.0	3.141592653589793	0.0	0.0	0.0	1.134464013796287	0.0	0.0	0.0	0.0	0.0	4.440892098500622e-12	0.0	0.0	0.0	0.0	0.0
-0.9811808232621888	0.0	3.141592653589793	0.0	0.0	0.0	1.1344640137963313	0.0	0.0	0.0	0.0	0.0	-4.440892098500622e-12	0.0	0.0	0.0	0.0	0.0
-0.9698361831242255	0.0	3.141592653589793	0.0	0.0	0.0	1.134464013796287	0.0	0.0	0.0	0.0	0.0	4.440892098500622e-12	0.0	0.0	0.0	0.0	0.0
-0.9584915429862626	0.0	3.141592653589793	0.0	0.0	0.0	1.1344640137963313	0.0	0.0	0.0	0.0	0.0	2.5313084961453545e-12	0.0	0.0	0.0	0.0	0.0
-0.9471469028482993	0.0	3.141592653589793	0.0	0.0	0.0	1.1344640137963566	0.0	0.0	0.0	0.0	0.0	-4.440892098500721e-12	0.0	0.0	0.0	0.0	0.0
-0.935802262710336	0.0	3.141592653589793	0.0	0.0	0.0	1.1344640137963122	0.0	0.0	0.0	0.0	0.0	0.0	0.0	0.0	0.0	0.0	0.0
-0.9244576225723731	0.0	3.141592653589793	0.0	0.0	0.0	1.1344640137963122	0.0	0.0	0.0	0.0	0.0	0.0	0.0	0.0	0.0	0.0	0.0
-0.9131129824344102	0.0	3.141592653589793	0.0	0.0	0.0	1.1344640137963122	0.0	0.0	0.0	0.0	0.0	0.0	0.0	0.0	0.0	0.0	0.0
-0.9017683422964473	0.0	3.141592653589793	0.0	0.0	0.0	1.1344640137963122	0.0	0.0	0.0	0.0	0.0	0.0	0.0	0.0	0.0	0.0	0.0
-0.8904237021584844	0.0	3.141592653589793	0.0	0.0	0.0	1.1344640137963122	0.0	0.0	0.0	0.0	0.0	0.0	0.0	0.0	0.0	0.0	0.0
-0.8790790620205216	0.0	3.141592653589793	0.0	0.0	0.0	1.1344640137963122	0.0	0.0	0.0	0.0	0.0	0.0	0.0	0.0	0.0	0.0	0.0
-0.8677344218825587	0.0	3.141592653589793	0.0	0.0	0.0	1.1344640137963122	0.0	0.0	0.0	0.0	0.0	0.0	0.0	0.0	0.0	0.0	0.0
-0.8563897817445958	0.0	3.141592653589793	0.0	0.0	0.0	1.1344640137963122	0.0	0.0	0.0	0.0	0.0	0.0	0.0	0.0	0.0	0.0	0.0
-0.8450451416066329	0.0	3.141592653589793	0.0	0.0	0.0	1.1344640137963122	0.0	0.0	0.0	0.0	0.0	0.0	0.0	0.0	0.0	0.0	0.0
-0.83370050146867	0.0	3.141592653589793	0.0	0.0	0.0	1.1344640137963122	0.0	0.0	0.0	0.0	0.0	0.0	0.0	0.0	0.0	0.0	0.0
-0.8223558613307071	0.0	3.141592653589793	0.0	0.0	0.0	1.1344640137963122	0.0	0.0	0.0	0.0	0.0	0.0	0.0	0.0	0.0	0.0	0.0
-0.8110112211927443	0.0	3.141592653589793	0.0	0.0	0.0	1.1344640137963122	0.0	0.0	0.0	0.0	0.0	0.0	0.0	0.0	0.0	0.0	0.0
-0.7996665810547814	0.0	3.141592653589793	0.0	0.0	0.0	1.1344640137963122	0.0	0.0	0.0	0.0	0.0	0.0	0.0	0.0	0.0	0.0	0.0
-0.7883219409168185	0.0	3.141592653589793	0.0	0.0	0.0	1.1344640137963122	0.0	0.0	0.0	0.0	0.0	0.0	0.0	0.0	0.0	0.0	0.0
-0.7769773007788556	0.0	3.141592653589793	0.0	0.0	0.0	1.1344640137963122	0.0	0.0	0.0	0.0	0.0	0.0	0.0	0.0	0.0	0.0	0.0
-0.7656326606408927	0.0	3.141592653589793	0.0	0.0	0.0	1.1344640137963122	0.0	0.0	0.0	0.0	0.0	0.0	0.0	0.0	0.0	0.0	0.0
-0.7542880205029299	0.0	3.141592653589793	0.0	0.0	0.0	1.1344640137963122	0.0	0.0	0.0	0.0	0.0	0.0	0.0	0.0	0.0	0.0	0.0
-0.742943380364967	0.0	3.141592653589793	0.0	0.0	0.0	1.1344640137963122	0.0	0.0	0.0	0.0	0.0	0.0	0.0	0.0	0.0	0.0	0.0
-0.7315987402270041	0.0	3.141592653589793	0.0	0.0	0.0	1.1344640137963122	0.0	0.0	0.0	0.0	0.0	4.440892098500721e-12	0.0	0.0	0.0	0.0	0.0
-0.7202541000890412	0.0	3.141592653589793	0.0	0.0	0.0	1.1344640137963566	0.0	0.0	0.0	0.0	0.0	-4.440892098500721e-12	0.0	0.0	0.0	0.0	0.0
-0.7089094599510779	0.0	3.141592653589793	0.0	0.0	0.0	1.1344640137963122	0.0	0.0	0.0	0.0	0.0	0.0	0.0	0.0	0.0	0.0	0.0
-0.697564819813115	0.0	3.141592653589793	0.0	0.0	0.0	1.1344640137963122	0.0	0.0	0.0	0.0	0.0	0.0	0.0	0.0	0.0	0.0	0.0
-0.6862201796751521	0.0	3.141592653589793	0.0	0.0	0.0	1.1344640137963122	0.0	0.0	0.0	0.0	0.0	0.0	0.0	0.0	0.0	0.0	0.0
-0.6748755395371893	0.0	3.141592653589793	0.0	0.0	0.0	1.1344640137963122	0.0	0.0	0.0	0.0	0.0	0.0	0.0	0.0	0.0	0.0	0.0
-0.6635308993992264	0.0	3.141592653589793	0.0	0.0	0.0	1.1344640137963122	0.0	0.0	0.0	0.0	0.0	0.0	0.0	0.0	0.0	0.0	0.0
-0.6521862592612635	0.0	3.141592653589793	0.0	0.0	0.0	1.1344640137963122	0.0	0.0	0.0	0.0	0.0	0.0	0.0	0.0	0.0	0.0	0.0
-0.6408416191233006	0.0	3.141592653589793	0.0	0.0	0.0	1.1344640137963122	0.0	0.0	0.0	0.0	0.0	0.0	0.0	0.0	0.0	0.0	0.0
-0.6294969789853377	0.0	3.141592653589793	0.0	0.0	0.0	1.1344640137963122	0.0	0.0	0.0	0.0	0.0	0.0	0.0	0.0	0.0	0.0	0.0
-0.6181523388473749	0.0	3.141592653589793	0.0	0.0	0.0	1.1344640137963122	0.0	0.0	0.0	0.0	0.0	0.0	0.0	0.0	0.0	0.0	0.0
-0.606807698709412	0.0	3.141592653589793	0.0	0.0	0.0	1.1344640137963122	0.0	0.0	0.0	0.0	0.0	0.0	0.0	0.0	0.0	0.0	0.0
-0.5954630585714491	0.0	3.141592653589793	0.0	0.0	0.0	1.1344640137963122	0.0	0.0	0.0	0.0	0.0	0.0	0.0	0.0	0.0	0.0	0.0
-0.5841184184334862	0.0	3.141592653589793	0.0	0.0	0.0	1.1344640137963122	0.0	0.0	0.0	0.0	0.0	0.0	0.0	0.0	0.0	0.0	0.0
-0.5727737782955233	0.0	3.141592653589793	0.0	0.0	0.0	1.1344640137963122	0.0	0.0	0.0	0.0	0.0	0.0	0.0	0.0	0.0	0.0	0.0
-0.5614291381575605	0.0	3.141592653589793	0.0	0.0	0.0	1.1344640137963122	0.0	0.0	0.0	0.0	0.0	0.0	0.0	0.0	0.0	0.0	0.0
-0.5500844980195976	0.0	3.141592653589793	0.0	0.0	0.0	1.1344640137963122	0.0	0.0	0.0	0.0	0.0	0.0	0.0	0.0	0.0	0.0	0.0
-0.5387398578816347	0.0	3.141592653589793	0.0	0.0	0.0	1.1344640137963122	0.0	0.0	0.0	0.0	0.0	0.0	0.0	0.0	0.0	0.0	0.0
-0.5273952177436718	0.0	3.141592653589793	0.0	0.0	0.0	1.1344640137963122	0.0	0.0	0.0	0.0	0.0	0.0	0.0	0.0	0.0	0.0	0.0
-0.5160505776057089	0.0	3.141592653589793	0.0	0.0	0.0	1.1344640137963122	0.0	0.0	0.0	0.0	0.0	0.0	0.0	0.0	0.0	0.0	0.0
-0.5047059374677461	0.0	3.141592653589793	0.0	0.0	0.0	1.1344640137963122	0.0	0.0	0.0	0.0	0.0	0.0	0.0	0.0	0.0	0.0	0.0
-0.4933612973297832	0.0	3.141592653589793	0.0	0.0	0.0	1.1344640137963122	0.0	0.0	0.0	0.0	0.0	0.0	0.0	0.0	0.0	0.0	0.0
-0.4820166571918203	0.0	3.141592653589793	0.0	0.0	0.0	1.1344640137963122	0.0	0.0	0.0	0.0	0.0	4.440892098500721e-12	0.0	0.0	0.0	0.0	0.0
-0.4706720170538574	0.0	3.141592653589793	0.0	0.0	0.0	1.1344640137963566	0.0	0.0	0.0	0.0	0.0	-4.440892098500721e-12	0.0	0.0	0.0	0.0	0.0
-0.4593273769158941	0.0	3.141592653589793	0.0	0.0	0.0	1.1344640137963122	0.0	0.0	0.0	0.0	0.0	0.0	0.0	0.0	0.0	0.0	0.0
-0.4479827367779312	0.0	3.141592653589793	0.0	0.0	0.0	1.1344640137963122	0.0	0.0	0.0	0.0	0.0	0.0	0.0	0.0	0.0	0.0	0.0
-0.43663809663996833	0.0	3.141592653589793	0.0	0.0	0.0	1.1344640137963122	0.0	0.0	0.0	0.0	0.0	0.0	0.0	0.0	0.0	0.0	0.0
-0.42529345650200545	0.0	3.141592653589793	0.0	0.0	0.0	1.1344640137963122	0.0	0.0	0.0	0.0	0.0	0.0	0.0	0.0	0.0	0.0	0.0
-0.41394881636404257	0.0	3.141592653589793	0.0	0.0	0.0	1.1344640137963122	0.0	0.0	0.0	0.0	0.0	0.0	0.0	0.0	0.0	0.0	0.0
-0.4026041762260797	0.0	3.141592653589793	0.0	0.0	0.0	1.1344640137963122	0.0	0.0	0.0	0.0	0.0	0.0	0.0	0.0	0.0	0.0	0.0
-0.3912595360881168	0.0	3.141592653589793	0.0	0.0	0.0	1.1344640137963122	0.0	0.0	0.0	0.0	0.0	0.0	0.0	0.0	0.0	0.0	0.0
-0.37991489595015393	0.0	3.141592653589793	0.0	0.0	0.0	1.1344640137963122	0.0	0.0	0.0	0.0	0.0	0.0	0.0	0.0	0.0	0.0	0.0
-0.36857025581219105	0.0	3.141592653589793	0.0	0.0	0.0	1.1344640137963122	0.0	0.0	0.0	0.0	0.0	0.0	0.0	0.0	0.0	0.0	0.0
-0.35722561567422817	0.0	3.141592653589793	0.0	0.0	0.0	1.1344640137963122	0.0	0.0	0.0	0.0	0.0	0.0	0.0	0.0	0.0	0.0	0.0
-0.3458809755362653	0.0	3.141592653589793	0.0	0.0	0.0	1.1344640137963122	0.0	0.0	0.0	0.0	0.0	0.0	0.0	0.0	0.0	0.0	0.0
-0.3345363353983024	0.0	3.141592653589793	0.0	0.0	0.0	1.1344640137963122	0.0	0.0	0.0	0.0	0.0	0.0	0.0	0.0	0.0	0.0	0.0
-0.32319169526033953	0.0	3.141592653589793	0.0	0.0	0.0	1.1344640137963122	0.0	0.0	0.0	0.0	0.0	0.0	0.0	0.0	0.0	0.0	0.0
-0.31184705512237665	0.0	3.141592653589793	0.0	0.0	0.0	1.1344640137963122	0.0	0.0	0.0	0.0	0.0	0.0	0.0	0.0	0.0	0.0	0.0
-0.30050241498441377	0.0	3.141592653589793	0.0	0.0	0.0	1.1344640137963122	0.0	0.0	0.0	0.0	0.0	0.0	0.0	0.0	0.0	0.0	0.0
-0.2891577748464509	0.0	3.141592653589793	0.0	0.0	0.0	1.1344640137963122	0.0	0.0	0.0	0.0	0.0	0.0	0.0	0.0	0.0	0.0	0.0
-0.277813134708488	0.0	3.141592653589793	0.0	0.0	0.0	1.1344640137963122	0.0	0.0	0.0	0.0	0.0	0.0	0.0	0.0	0.0	0.0	0.0
-0.2664684945705251	0.0	3.141592653589793	0.0	0.0	0.0	1.1344640137963122	0.0	0.0	0.0	0.0	0.0	0.0	0.0	0.0	0.0	0.0	0.0
-0.25512385443256225	0.0	3.141592653589793	0.0	0.0	0.0	1.1344640137963122	0.0	0.0	0.0	0.0	0.0	0.0	0.0	0.0	0.0	0.0	0.0
-0.24377921429459937	0.0	3.141592653589793	0.0	0.0	0.0	1.1344640137963122	0.0	0.0	0.0	0.0	0.0	0.0	0.0	0.0	0.0	0.0	0.0
-0.2324345741566365	0.0	3.141592653589793	0.0	0.0	0.0	1.1344640137963122	0.0	0.0	0.0	0.0	0.0	4.440892098500721e-12	0.0	0.0	0.0	0.0	0.0
-0.2210899340186736	0.0	3.141592653589793	0.0	0.0	0.0	1.1344640137963566	0.0	0.0	0.0	0.0	0.0	-4.440892098500721e-12	0.0	0.0	0.0	0.0	0.0
-0.20974529388071028	0.0	3.141592653589793	0.0	0.0	0.0	1.1344640137963122	0.0	0.0	0.0	0.0	0.0	0.0	0.0	0.0	0.0	0.0	0.0
-0.1984006537427474	0.0	3.141592653589793	0.0	0.0	0.0	1.1344640137963122	0.0	0.0	0.0	0.0	0.0	0.0	0.0	0.0	0.0	0.0	0.0
-0.18705601360478452	0.0	3.141592653589793	0.0	0.0	0.0	1.1344640137963122	0.0	0.0	0.0	0.0	0.0	0.0	0.0	0.0	0.0	0.0	0.0
-0.17571137346682164	0.0	3.141592653589793	0.0	0.0	0.0	1.1344640137963122	0.0	0.0	0.0	0.0	0.0	0.0	0.0	0.0	0.0	0.0	0.0
-0.16436673332885876	0.0	3.141592653589793	0.0	0.0	0.0	1.1344640137963122	0.0	0.0	0.0	0.0	0.0	0.0	0.0	0.0	0.0	0.0	0.0
-0.15302209319089588	0.0	3.141592653589793	0.0	0.0	0.0	1.1344640137963122	0.0	0.0	0.0	0.0	0.0	0.0	0.0	0.0	0.0	0.0	0.0
-0.141677453052933	0.0	3.141592653589793	0.0	0.0	0.0	1.1344640137963122	0.0	0.0	0.0	0.0	0.0	0.0	0.0	0.0	0.0	0.0	0.0
-0.13033281291497012	0.0	3.141592653589793	0.0	0.0	0.0	1.1344640137963122	0.0	0.0	0.0	0.0	0.0	0.0	0.0	0.0	0.0	0.0	0.0
-0.11898817277700724	0.0	3.141592653589793	0.0	0.0	0.0	1.1344640137963122	0.0	0.0	0.0	0.0	0.0	0.0	0.0	0.0	0.0	0.0	0.0
-0.10764353263904436	0.0	3.141592653589793	0.0	0.0	0.0	1.1344640137963122	0.0	0.0	0.0	0.0	0.0	0.0	0.0	0.0	0.0	0.0	0.0
-0.09629889250108148	0.0	3.141592653589793	0.0	0.0	0.0	1.1344640137963122	0.0	0.0	0.0	0.0	0.0	0.0	0.0	0.0	0.0	0.0	0.0
-0.0849542523631186	0.0	3.141592653589793	0.0	0.0	0.0	1.1344640137963122	0.0	0.0	0.0	0.0	0.0	0.0	0.0	0.0	0.0	0.0	0.0
-0.07360961222515572	0.0	3.141592653589793	0.0	0.0	0.0	1.1344640137963122	0.0	0.0	0.0	0.0	0.0	0.0	0.0	0.0	0.0	0.0	0.0
-0.06226497208719284	0.0	3.141592653589793	0.0	0.0	0.0	1.1344640137963122	0.0	0.0	0.0	0.0	0.0	0.0	0.0	0.0	0.0	0.0	0.0
-0.05092033194922996	0.0	3.141592653589793	0.0	0.0	0.0	1.1344640137963122	0.0	0.0	0.0	0.0	0.0	0.0	0.0	0.0	0.0	0.0	0.0
-0.03957569181126708	0.0	3.141592653589793	0.0	0.0	0.0	1.1344640137963122	0.0	0.0	0.0	0.0	0.0	0.0	0.0	0.0	0.0	0.0	0.0
-0.028231051673304197	0.0	3.141592653589793	0.0	0.0	0.0	1.1344640137963122	0.0	0.0	0.0	0.0	0.0	0.0	0.0	0.0	0.0	0.0	0.0
-0.016886411535341317	0.0	3.141592653589793	0.0	0.0	0.0	1.1344640137963122	0.0	0.0	0.0	0.0	0.0	0.0	0.0	0.0	0.0	0.0	0.0
-0.005541771397378437	0.0	3.141592653589793	0.0	0.0	0.0	1.1344640137963122	0.0	0.0	0.0	0.0	0.0	0.0	0.0	0.0	0.0	0.0	0.0
0.005802868740584444	0.0	3.141592653589793	0.0	0.0	0.0	1.1344640137963122	0.0	0.0	0.0	0.0	0.0	0.0	0.0	0.0	0.0	0.0	0.0
0.017147508878547324	0.0	3.141592653589793	0.0	0.0	0.0	1.1344640137963122	0.0	0.0	0.0	0.0	0.0	4.440892098500721e-12	0.0	0.0	0.0	0.0	0.0
0.028492149016510204	0.0	3.141592653589793	0.0	0.0	0.0	1.1344640137963566	0.0	0.0	0.0	0.0	0.0	-4.440892098500721e-12	0.0	0.0	0.0	0.0	0.0
0.03983678915447353	0.0	3.141592653589793	0.0	0.0	0.0	1.1344640137963122	0.0	0.0	0.0	0.0	0.0	0.0	0.0	0.0	0.0	0.0	0.0
0.05118142929243641	0.0	3.141592653589793	0.0	0.0	0.0	1.1344640137963122	0.0	0.0	0.0	0.0	0.0	0.0	0.0	0.0	0.0	0.0	0.0
0.06252606943039929	0.0	3.141592653589793	0.0	0.0	0.0	1.1344640137963122	0.0	0.0	0.0	0.0	0.0	0.0	0.0	0.0	0.0	0.0	0.0
0.07387070956836217	0.0	3.141592653589793	0.0	0.0	0.0	1.1344640137963122	0.0	0.0	0.0	0.0	0.0	0.0	0.0	0.0	0.0	0.0	0.0
0.08521534970632505	0.0	3.141592653589793	0.0	0.0	0.0	1.1344640137963122	0.0	0.0	0.0	0.0	0.0	0.0	0.0	0.0	0.0	0.0	0.0
0.09655998984428793	0.0	3.141592653589793	0.0	0.0	0.0	1.1344640137963122	0.0	0.0	0.0	0.0	0.0	0.0	0.0	0.0	0.0	0.0	0.0
0.10790462998225081	0.0	3.141592653589793	0.0	0.0	0.0	1.1344640137963122	0.0	0.0	0.0	0.0	0.0	0.0	0.0	0.0	0.0	0.0	0.0
0.11924927012021369	0.0	3.141592653589793	0.0	0.0	0.0	1.1344640137963122	0.0	0.0	0.0	0.0	0.0	0.0	0.0	0.0	0.0	0.0	0.0
0.13059391025817657	0.0	3.141592653589793	0.0	0.0	0.0	1.1344640137963122	0.0	0.0	0.0	0.0	0.0	0.0	0.0	0.0	0.0	0.0	0.0
0.14193855039613945	0.0	3.141592653589793	0.0	0.0	0.0	1.1344640137963122	0.0	0.0	0.0	0.0	0.0	0.0	0.0	0.0	0.0	0.0	0.0
0.15328319053410233	0.0	3.141592653589793	0.0	0.0	0.0	1.1344640137963122	0.0	0.0	0.0	0.0	0.0	0.0	0.0	0.0	0.0	0.0	0.0
0.1646278306720652	0.0	3.141592653589793	0.0	0.0	0.0	1.1344640137963122	0.0	0.0	0.0	0.0	0.0	0.0	0.0	0.0	0.0	0.0	0.0
0.1759724708100281	0.0	3.141592653589793	0.0	0.0	0.0	1.1344640137963122	0.0	0.0	0.0	0.0	0.0	0.0	0.0	0.0	0.0	0.0	0.0
0.18731711094799097	0.0	3.141592653589793	0.0	0.0	0.0	1.1344640137963122	0.0	0.0	0.0	0.0	0.0	0.0	0.0	0.0	0.0	0.0	0.0
