corentinberge/project_M2/Robot/Yaskawa/Code/src/identification_YASKAWA/All_positiondata_file.txt
q1	q2	q3	q4	q5	q6
-0.959931	-0.314159	1.69297	0.05	-1.98968	0.959931
-0.9599121318306642	-0.314159	1.69297	0.05	-1.98968	0.959931
-0.9597829196088373	-0.314159	1.69297	0.05	-1.98968	0.959931
-0.9594407989210091	-0.314159	1.69297	0.05	-1.98968	0.959931
-0.958791492210917	-0.314159	1.69297	0.05	-1.98968	0.959931
-0.9577487887557441	-0.314159	1.69297	0.05	-1.98968	0.959931
-0.9562343246423144	-0.314159	1.69297	0.05	-1.98968	0.959931
-0.954177362743291	-0.314159	1.69297	0.05	-1.98968	0.959931
-0.9515145726933714	-0.314159	1.69297	0.05	-1.98968	0.959931
-0.9481898108654851	-0.314159	1.69297	0.05	-1.98968	0.959931
-0.9441539003469903	-0.314159	1.69297	0.05	-1.98968	0.959931
-0.9393644109158698	-0.314159	1.69297	0.05	-1.98968	0.959931
-0.9337854390169281	-0.314159	1.69297	0.05	-1.98968	0.959931
-0.9273873877379887	-0.314159	1.69297	0.05	-1.98968	0.959931
-0.9201467467860899	-0.314159	1.69297	0.05	-1.98968	0.959931
-0.9120458724636817	-0.314159	1.69297	0.05	-1.98968	0.959931
-0.9030727676448228	-0.314159	1.69297	0.05	-1.98968	0.959931
-0.8932208617513773	-0.314159	1.69297	0.05	-1.98968	0.959931
-0.8824887907292104	-0.314159	1.69297	0.05	-1.98968	0.959931
-0.8708801770243867	-0.314159	1.69297	0.05	-1.98968	0.959931
-0.8584034095593657	-0.314159	1.69297	0.05	-1.98968	0.959931
-0.8450714237091987	-0.314159	1.69297	0.05	-1.98968	0.959931
-0.8309014812777258	-0.314159	1.69297	0.05	-1.98968	0.959931
-0.8159149504737725	-0.314159	1.69297	0.05	-1.98968	0.959931
-0.8001370858873457	-0.314159	1.69297	0.05	-1.98968	0.959931
-0.7835968084658315	-0.314159	1.69297	0.05	-1.98968	0.959931
-0.7663264854901913	-0.314159	1.69297	0.05	-1.98968	0.959931
-0.7483617105511583	-0.314159	1.69297	0.05	-1.98968	0.959931
-0.7297410835254348	-0.314159	1.69297	0.05	-1.98968	0.959931
-0.7105059905518877	-0.314159	1.69297	0.05	-1.98968	0.959931
-0.6907003840077466	-0.314159	1.69297	0.05	-1.98968	0.959931
-0.6703705624848002	-0.314159	1.69297	0.05	-1.98968	0.959931
-0.6495649507655918	-0.314159	1.69297	0.05	-1.98968	0.959931
-0.6283338797996172	-0.314159	1.69297	0.05	-1.98968	0.959931
-0.6067293666795212	-0.314159	1.69297	0.05	-1.98968	0.959931
-0.5848048946172937	-0.314159	1.69297	0.05	-1.98968	0.959931
-0.562615192920467	-0.314159	1.69297	0.05	-1.98968	0.959931
-0.5402160169683127	-0.314159	1.69297	0.05	-1.98968	0.959931
-0.5176639281880369	-0.314159	1.69297	0.05	-1.98968	0.959931
-0.4950160740309788	-0.314159	1.69297	0.05	-1.98968	0.959931
-0.47232996794880644	-0.314159	1.69297	0.05	-1.98968	0.959931
-0.4496632693697128	-0.314159	1.69297	0.05	-1.98968	0.959931
-0.4270735636746138	-0.314159	1.69297	0.05	-1.98968	0.959931
-0.40461814217334424	-0.314159	1.69297	0.05	-1.98968	0.959931
-0.3823537820808543	-0.314159	1.69297	0.05	-1.98968	0.959931
-0.3603365264934069	-0.314159	1.69297	0.05	-1.98968	0.959931
-0.3386214643647733	-0.314159	1.69297	0.05	-1.98968	0.959931
-0.3172625104824316	-0.314159	1.69297	0.05	-1.98968	0.959931
-0.2963121854437608	-0.314159	1.69297	0.05	-1.98968	0.959931
-0.2758213956322393	-0.314159	1.69297	0.05	-1.98968	0.959931
-0.2558392131936432	-0.314159	1.69297	0.05	-1.98968	0.959931
-0.23641265601223804	-0.314159	1.69297	0.05	-1.98968	0.959931
-0.21758646768698076	-0.314159	1.69297	0.05	-1.98968	0.959931
-0.199402897507713	-0.314159	1.69297	0.05	-1.98968	0.959931
-0.1819014804313599	-0.314159	1.69297	0.05	-1.98968	0.959931
-0.16511881705812326	-0.314159	1.69297	0.05	-1.98968	0.959931
-0.1490883536076839	-0.314159	1.69297	0.05	-1.98968	0.959931
-0.13384016189539372	-0.314159	1.69297	0.05	-1.98968	0.959931
-0.11940071930847429	-0.314159	1.69297	0.05	-1.98968	0.959931
-0.10579268878221137	-0.314159	1.69297	0.05	-1.98968	0.959931
-0.093034698776155	-0.314159	1.69297	0.05	-1.98968	0.959931
-0.08114112325031408	-0.314159	1.69297	0.05	-1.98968	0.959931
-0.07012186164135548	-0.314159	1.69297	0.05	-1.98968	0.959931
-0.059982118838794785	-0.314159	1.69297	0.05	-1.98968	0.959931
-0.050722185161198086	-0.314159	1.69297	0.05	-1.98968	0.959931
-0.04233721633238119	-0.314159	1.69297	0.05	-1.98968	0.959931
-0.034817013457597135	-0.314159	1.69297	0.05	-1.98968	0.959931
-0.028145802999740344	-0.314159	1.69297	0.05	-1.98968	0.959931
-0.02230201675554433	-0.314159	1.69297	0.05	-1.98968	0.959931
-0.017258071831770305	-0.314159	1.69297	0.05	-1.98968	0.959931
-0.012980150621413333	-0.314159	1.69297	0.05	-1.98968	0.959931
-0.009427980779892042	-0.314159	1.69297	0.05	-1.98968	0.959931
-0.006554615201249003	-0.314159	1.69297	0.05	-1.98968	0.959931
-0.004306211994346221	-0.314159	1.69297	0.05	-1.98968	0.959931
-0.0026218144590579584	-0.314159	1.69297	0.05	-1.98968	0.959931
-0.001433131062477777	-0.314159	1.69297	0.05	-1.98968	0.959931
-0.0006643154151078079	-0.314159	1.69297	0.05	-1.98968	0.959931
-0.00023174624704669355	-0.314159	1.69297	0.05	-1.98968	0.959931
-4.380738420994845e-05	-0.314159	1.69297	0.05	-1.98968	0.959931
-6.677245059094616e-07	-0.314159	1.69297	0.05	-1.98968	0.959931
0.0	-0.314159	1.69297	0.05	-1.98968	0.959931
0.0	-0.31398967433969605	1.69297	0.05	-1.98968	0.959931
0.0	-0.31288354595365714	1.69297	0.05	-1.98968	0.959931
0.0	-0.31011284735106526	1.69297	0.05	-1.98968	0.959931
0.0	-0.30516041379368297	1.69297	0.05	-1.98968	0.959931
0.0	-0.29770050404179144	1.69297	0.05	-1.98968	0.959931
0.0	-0.2875796211001293	1.69297	0.05	-1.98968	0.959931
0.0	-0.2747973329638307	1.69297	0.05	-1.98968	0.959931
0.0	-0.25948709336436365	1.69297	0.05	-1.98968	0.959931
0.0	-0.2418970625154686	1.69297	0.05	-1.98968	0.959931
0.0	-0.2223709278590963	1.69297	0.05	-1.98968	0.959931
0.0	-0.20132872481134678	1.69297	0.05	-1.98968	0.959931
0.0	-0.1792476575084072	1.69297	0.05	-1.98968	0.959931
0.0	-0.15664291955249052	1.69297	0.05	-1.98968	0.959931
0.0	-0.13404851475777357	1.69297	0.05	-1.98968	0.959931
0.0	-0.11199807789633567	1.69297	0.05	-1.98968	0.959931
0.0	-0.09100569544409659	1.69297	0.05	-1.98968	0.959931
0.0	-0.07154672632675599	1.69297	0.05	-1.98968	0.959931
0.0	-0.05403862266572962	1.69297	0.05	-1.98968	0.959931
0.0	-0.038821750524089926	1.69297	0.05	-1.98968	0.959931
0.0	-0.026140210652502827	1.69297	0.05	-1.98968	0.959931
0.0	-0.01612265923516798	1.69297	0.05	-1.98968	0.959931
0.0	-0.00876312863575468	1.69297	0.05	-1.98968	0.959931
0.0	-0.003901848143341491	1.69297	0.05	-1.98968	0.959931
0.0	-0.0012060647183547157	1.69297	0.05	-1.98968	0.959931
0.0	-0.00015086373850636825	1.69297	0.05	-1.98968	0.959931
0.0	0.0	1.69297	0.05	-1.98968	0.959931
0.0	0.0	1.6929920277354524	0.05	-1.98968	0.959931
0.0	0.0	1.693143153993448	0.05	-1.98968	0.959931
0.0	0.0	1.6935441377539577	0.05	-1.98968	0.959931
0.0	0.0	1.6943068365876701	0.05	-1.98968	0.959931
0.0	0.0	1.6955344225568714	0.05	-1.98968	0.959931
0.0	0.0	1.6973215981163254	0.05	-1.98968	0.959931
0.0	0.0	1.6997548120141495	0.05	-1.98968	0.959931
0.0	0.0	1.7029124751926956	0.05	-1.98968	0.959931
0.0	0.0	1.7068651766894274	0.05	-1.98968	0.959931
0.0	0.0	1.7116758995378	0.05	-1.98968	0.959931
0.0	0.0	1.7174002366681387	0.05	-1.98968	0.959931
0.0	0.0	1.7240866068085166	0.05	-1.98968	0.959931
0.0	0.0	1.7317764703856342	0.05	-1.98968	0.959931
0.0	0.0	1.740504545425698	0.05	-1.98968	0.959931
0.0	0.0	1.7502990234552998	0.05	-1.98968	0.959931
0.0	0.0	1.7611817854022929	0.05	-1.98968	0.959931
0.0	0.0	1.7731686174966745	0.05	-1.98968	0.959931
0.0	0.0	1.7862694271714614	0.05	-1.98968	0.959931
0.0	0.0	1.8004884589635706	0.05	-1.98968	0.959931
0.0	0.0	1.8158245104146964	0.05	-1.98968	0.959931
0.0	0.0	1.8322711479721907	0.05	-1.98968	0.959931
0.0	0.0	1.8498169228899402	0.05	-1.98968	0.959931
0.0	0.0	1.8684455871292462	0.05	-1.98968	0.959931
0.0	0.0	1.8881363092597034	0.05	-1.98968	0.959931
0.0	0.0	1.9088638903600774	0.05	-1.98968	0.959931
0.0	0.0	1.9305989799191845	0.05	-1.98968	0.959931
0.0	0.0	1.9533082917367692	0.05	-1.98968	0.959931
0.0	0.0	1.9769548198243863	0.05	-1.98968	0.959931
0.0	0.0	2.0014980543062735	0.05	-1.98968	0.959931
0.0	0.0	2.026894197320236	0.05	-1.98968	0.959931
0.0	0.0	2.0530963789185224	0.05	-1.98968	0.959931
0.0	0.0	2.080054872968704	0.05	-1.98968	0.959931
0.0	0.0	2.1077173130545526	0.05	-1.98968	0.959931
0.0	0.0	2.1360289083769213	0.05	-1.98968	0.959931
0.0	0.0	2.16493265965462	0.05	-1.98968	0.959931
0.0	0.0	2.194369575025298	0.05	-1.98968	0.959931
0.0	0.0	2.2242788859463185	0.05	-1.98968	0.959931
0.0	0.0	2.254598263095642	0.05	-1.98968	0.959931
0.0	0.0	2.2852640322727003	0.05	-1.98968	0.959931
0.0	0.0	2.3162113902992782	0.05	-1.98968	0.959931
0.0	0.0	2.3473746209203927	0.05	-1.98968	0.959931
0.0	0.0	2.3786873107051676	0.05	-1.98968	0.959931
0.0	0.0	2.4100825649477176	0.05	-1.98968	0.959931
0.0	0.0	2.4414932235680227	0.05	-1.98968	0.959931
0.0	0.0	2.472852077012808	0.05	-1.98968	0.959931
0.0	0.0	2.5040920821564283	0.05	-1.98968	0.959931
0.0	0.0	2.535146578201732	0.05	-1.98968	0.959931
0.0	0.0	2.5659495025809593	0.05	-1.98968	0.959931
0.0	0.0	2.5964356068566046	0.05	-1.98968	0.959931
0.0	0.0	2.6265406726223026	0.05	-1.98968	0.959931
0.0	0.0	2.6562017274037077	0.05	-1.98968	0.959931
0.0	0.0	2.685357260559369	0.05	-1.98968	0.959931
0.0	0.0	2.7139474391816125	0.05	-1.98968	0.959931
0.0	0.0	2.7419143239974177	0.05	-1.98968	0.959931
0.0	0.0	2.769202085269295	0.05	-1.98968	0.959931
0.0	0.0	2.7957572186961697	0.05	-1.98968	0.959931
0.0	0.0	2.8215287613142532	0.05	-1.98968	0.959931
0.0	0.0	2.8464685073979306	0.05	-1.98968	0.959931
0.0	0.0	2.8705312243606307	0.05	-1.98968	0.959931
0.0	0.0	2.8936748686557094	0.05	-1.98968	0.959931
0.0	0.0	2.915860801677328	0.05	-1.98968	0.959931
0.0	0.0	2.9370540056613317	0.05	-1.98968	0.959931
0.0	0.0	2.9572232995861256	0.05	-1.98968	0.959931
0.0	0.0	2.976341555073562	0.05	-1.98968	0.959931
0.0	0.0	2.9943859122898067	0.05	-1.98968	0.959931
0.0	0.0	3.0113379958462247	0.05	-1.98968	0.959931
0.0	0.0	3.027184130700262	0.05	-1.98968	0.959931
0.0	0.0	3.041915558056316	0.05	-1.98968	0.959931
0.0	0.0	3.055528651266622	0.05	-1.98968	0.959931
0.0	0.0	3.0680251317321274	0.05	-1.98968	0.959931
0.0	0.0	3.079412284803373	0.05	-1.98968	0.959931
0.0	0.0	3.0897031756813655	0.05	-1.98968	0.959931
0.0	0.0	3.0989168653184667	0.05	-1.98968	0.959931
0.0	0.0	3.1070786263192627	0.05	-1.98968	0.959931
0.0	0.0	3.1142201588414498	0.05	-1.98968	0.959931
0.0	0.0	3.1203798064967048	0.05	-1.98968	0.959931
0.0	0.0	3.1256027722515745	0.05	-1.98968	0.959931
0.0	0.0	3.1299413343283433	0.05	-1.98968	0.959931
0.0	0.0	3.1334550621059236	0.05	-1.98968	0.959931
0.0	0.0	3.136211032020718	0.05	-1.98968	0.959931
0.0	0.0	3.1382840434675225	0.05	-1.98968	0.959931
0.0	0.0	3.1397568347003757	0.05	-1.98968	0.959931
0.0	0.0	3.14072029873346	0.05	-1.98968	0.959931
0.0	0.0	3.141273699241977	0.05	-1.98968	0.959931
0.0	0.0	3.1415248864630128	0.05	-1.98968	0.959931
0.0	0.0	3.141590513096432	0.05	-1.98968	0.959931
0.0	0.0	3.141592653589793	0.05	-1.98968	0.959931
0.0	0.0	3.141592653589793	0.03937472326385845	-1.98968	0.959931
0.0	0.0	3.141592653589793	0.010233021833025949	-1.98968	0.959931
0.0	0.0	3.141592653589793	0.0	-1.98968	0.959931
0.0	0.0	3.141592653589793	0.0	-1.989648793540213	0.959931
0.0	0.0	3.141592653589793	0.0	-1.989434740081654	0.959931
0.0	0.0	3.141592653589793	0.0	-1.9888669294130534	0.959931
0.0	0.0	3.141592653589793	0.0	-1.987787189328969	0.959931
0.0	0.0	3.141592653589793	0.0	-1.9860497732911981	0.959931
0.0	0.0	3.141592653589793	0.0	-1.983521048090189	0.959931
0.0	0.0	3.141592653589793	0.0	-1.9800791815064505	0.959931
0.0	0.0	3.141592653589793	0.0	-1.9756138299719623	0.959931
0.0	0.0	3.141592653589793	0.0	-1.970025826231588	0.959931
0.0	0.0	3.141592653589793	0.0	-1.9632268670044821	0.959931
0.0	0.0	3.141592653589793	0.0	-1.9551392006455042	0.959931
0.0	0.0	3.141592653589793	0.0	-1.945695314806627	0.959931
0.0	0.0	3.141592653589793	0.0	-1.934837624098349	0.959931
0.0	0.0	3.141592653589793	0.0	-1.922518157751104	0.959931
0.0	0.0	3.141592653589793	0.0	-1.9086982472766723	0.959931
0.0	0.0	3.141592653589793	0.0	-1.8933482141295903	0.959931
0.0	0.0	3.141592653589793	0.0	-1.8764470573685637	0.959931
0.0	0.0	3.141592653589793	0.0	-1.8579821413178745	0.959931
0.0	0.0	3.141592653589793	0.0	-1.8379488832287958	0.959931
0.0	0.0	3.141592653589793	0.0	-1.816350440940999	0.959931
0.0	0.0	3.141592653589793	0.0	-1.7931974005439657	0.959931
0.0	0.0	3.141592653589793	0.0	-1.7685074640383993	0.959931
0.0	0.0	3.141592653589793	0.0	-1.7423051369976352	0.959931
0.0	0.0	3.141592653589793	0.0	-1.7146214162290503	0.959931
0.0	0.0	3.141592653589793	0.0	-1.685493477435475	0.959931
0.0	0.0	3.141592653589793	0.0	-1.6549643628766035	0.959931
0.0	0.0	3.141592653589793	0.0	-1.623082669030404	0.959931
0.0	0.0	3.141592653589793	0.0	-1.5899022342545308	0.959931
0.0	0.0	3.141592653589793	0.0	-1.5554818264477328	0.959931
0.0	0.0	3.141592653589793	0.0	-1.5198848307112662	0.959931
0.0	0.0	3.141592653589793	0.0	-1.4831789370103043	0.959931
0.0	0.0	3.141592653589793	0.0	-1.4454358278353479	0.959931
0.0	0.0	3.141592653589793	0.0	-1.4067308658636364	0.959931
0.0	0.0	3.141592653589793	0.0	-1.3671427816205581	0.959931
0.0	0.0	3.141592653589793	0.0	-1.3267533611410622	0.959931
0.0	0.0	3.141592653589793	0.0	-1.2856471336310673	0.959931
0.0	0.0	3.141592653589793	0.0	-1.2439110591288738	0.959931
0.0	0.0	3.141592653589793	0.0	-1.2016342161665738	0.959931
0.0	0.0	3.141592653589793	0.0	-1.1589074894314624	0.959931
0.0	0.0	3.141592653589793	0.0	-1.1158232574274471	0.959931
0.0	0.0	3.141592653589793	0.0	-1.0724750801364606	0.959931
0.0	0.0	3.141592653589793	0.0	-1.0289573866798682	0.959931
0.0	0.0	3.141592653589793	0.0	-0.9853651629798833	0.959931
0.0	0.0	3.141592653589793	0.0	-0.9417936394209727	0.959931
0.0	0.0	3.141592653589793	0.0	-0.8983379785112718	0.959931
0.0	0.0	3.141592653589793	0.0	-0.8550929625439914	0.959931
0.0	0.0	3.141592653589793	0.0	-0.8121526812588327	0.959931
0.0	0.0	3.141592653589793	0.0	-0.769610219503393	0.959931
0.0	0.0	3.141592653589793	0.0	-0.7275573448945802	0.959931
0.0	0.0	3.141592653589793	0.0	-0.6860841954800242	0.959931
0.0	0.0	3.141592653589793	0.0	-0.6452789673994819	0.959931
0.0	0.0	3.141592653589793	0.0	-0.6052276025462525	0.959931
0.0	0.0	3.141592653589793	0.0	-0.5660134762285909	0.959931
0.0	0.0	3.141592653589793	0.0	-0.5277170848311104	0.959931
0.0	0.0	3.141592653589793	0.0	-0.49041573347619916	0.959931
0.0	0.0	3.141592653589793	0.0	-0.4541832236854302	0.959931
0.0	0.0	3.141592653589793	0.0	-0.41908954104097185	0.959931
0.0	0.0	3.141592653589793	0.0	-0.38520054284699623	0.959931
0.0	0.0	3.141592653589793	0.0	-0.35257764579109097	0.959931
0.0	0.0	3.141592653589793	0.0	-0.32127751360567336	0.959931
0.0	0.0	3.141592653589793	0.0	-0.2913517447293956	0.959931
0.0	0.0	3.141592653589793	0.0	-0.26284655996856054	0.959931
0.0	0.0	3.141592653589793	0.0	-0.2358024901585285	0.959931
0.0	0.0	3.141592653589793	0.0	-0.2102540638251269	0.959931
0.0	0.0	3.141592653589793	0.0	-0.18622949484606943	0.959931
0.0	0.0	3.141592653589793	0.0	-0.1637503701123566	0.959931
0.0	0.0	3.141592653589793	0.0	-0.14283133718968788	0.959931
0.0	0.0	3.141592653589793	0.0	-0.12347979197988046	0.959931
0.0	0.0	3.141592653589793	0.0	-0.10569556638227517	0.959931
0.0	0.0	3.141592653589793	0.0	-0.08947061595513706	0.959931
0.0	0.0	3.141592653589793	0.0	-0.07478870757708478	0.959931
0.0	0.0	3.141592653589793	0.0	-0.061625107108492116	0.959931
0.0	0.0	3.141592653589793	0.0	-0.049946267052893845	0.959931
0.0	0.0	3.141592653589793	0.0	-0.03970951421839963	0.959931
0.0	0.0	3.141592653589793	0.0	-0.030862737379111493	0.959931
0.0	0.0	3.141592653589793	0.0	-0.02334407493652879	0.959931
0.0	0.0	3.141592653589793	0.0	-0.017081602580955035	0.959931
0.0	0.0	3.141592653589793	0.0	-0.011993020952915323	0.959931
0.0	0.0	3.141592653589793	0.0	-0.00798534330456313	0.959931
0.0	0.0	3.141592653589793	0.0	-0.004954583161097759	0.959931
0.0	0.0	3.141592653589793	0.0	-0.0027854419821586873	0.959931
0.0	0.0	3.141592653589793	0.0	-0.0013509968232625624	0.959931
0.0	0.0	3.141592653589793	0.0	-0.0005123879971851153	0.959931
0.0	0.0	3.141592653589793	0.0	-0.00011850673538837952	0.959931
0.0	0.0	3.141592653589793	0.0	-5.682849426591474e-06	0.959931
0.0	0.0	3.141592653589793	0.0	0.0	0.959931
0.0	0.0	3.141592653589793	0.0	0.0	0.959799459369073
0.0	0.0	3.141592653589793	0.0	0.0	0.9589171864619893
0.0	0.0	3.141592653589793	0.0	0.0	0.9566367614082175
0.0	0.0	3.141592653589793	0.0	0.0	0.9524182278802568
0.0	0.0	3.141592653589793	0.0	0.0	0.9458233281042177
0.0	0.0	3.141592653589793	0.0	0.0	0.9365097378704055
0.0	0.0	3.141592653589793	0.0	0.0	0.9242253015439015
0.0	0.0	3.141592653589793	0.0	0.0	0.9088022670751453
0.0	0.0	3.141592653589793	0.0	0.0	0.8901515210105172
0.0	0.0	3.141592653589793	0.0	0.0	0.8682568235029202
0.0	0.0	3.141592653589793	0.0	0.0	0.8431690433223618
0.0	0.0	3.141592653589793	0.0	0.0	0.8150003928665362
0.0	0.0	3.141592653589793	0.0	0.0	0.7839186631714072
0.0	0.0	3.141592653589793	0.0	0.0	0.7501414589217891
0.0	0.0	3.141592653589793	0.0	0.0	0.7139304334619295
0.0	0.0	3.141592653589793	0.0	0.0	0.675585523806091
0.0	0.0	3.141592653589793	0.0	0.0	0.635439185649135
0.0	0.0	3.141592653589793	0.0	0.0	0.5938506283771005
0.0	0.0	3.141592653589793	0.0	0.0	0.5512000500777895
0.0	0.0	3.141592653589793	0.0	0.0	0.5078828725513468
0.0	0.0	3.141592653589793	0.0	0.0	0.4643039763208442
0.0	0.0	3.141592653589793	0.0	0.0	0.4208719356428605
0.0	0.0	3.141592653589793	0.0	0.0	0.37799325351806495
0.0	0.0	3.141592653589793	0.0	0.0	0.33606659670179884
0.0	0.0	3.141592653589793	0.0	0.0	0.2954770307146586
0.0	0.0	3.141592653589793	0.0	0.0	0.2565902548530754
0.0	0.0	3.141592653589793	0.0	0.0	0.2197468371999004
0.0	0.0	3.141592653589793	0.0	0.0	0.18525644963498544
0.0	0.0	3.141592653589793	0.0	0.0	0.1533921028457642
0.0	0.0	3.141592653589793	0.0	0.0	0.12438438133783447
0.0	0.0	3.141592653589793	0.0	0.0	0.09841567844554522
0.0	0.0	3.141592653589793	0.0	0.0	0.0756144313425704
0.0	0.0	3.141592653589793	0.0	0.0	0.056049356052494614
0.0	0.0	3.141592653589793	0.0	0.0	0.03972368245939961
0.0	0.0	3.141592653589793	0.0	0.0	0.026569389318439107
0.0	0.0	3.141592653589793	0.0	0.0	0.016441439266426272
0.0	0.0	3.141592653589793	0.0	0.0	0.009112013832414778
0.0	0.0	3.141592653589793	0.0	0.0	0.004264748448277178
0.0	0.0	3.141592653589793	0.0	0.0	0.0014889674592906132
0.0	0.0	3.141592653589793	0.0	0.0	0.0002739191347265191
0.0	0.0	3.141592653589793	0.0	0.0	3.0106784043582024e-06
0.0	0.0	3.141592653589793	0.0	0.0	0.0
0.0	-1.1236369219759312e-06	3.141592653589793	0.0	0.0	0.0
0.0	-8.947918642337278e-06	3.141592653589793	0.0	0.0	0.0
0.0	-3.0060561811106246e-05	3.141592653589793	0.0	0.0	0.0
0.0	-7.092671069150192e-05	3.141592653589793	0.0	0.0	0.0
0.0	-0.00013788962131249256	3.141592653589793	0.0	0.0	0.0
0.0	-0.0002371713456213482	3.141592653589793	0.0	0.0	0.0
0.0	-0.000374873415636193	3.141592653589793	0.0	0.0	0.0
0.0	-0.0005569775275985576	3.141592653589793	0.0	0.0	0.0
0.0	-0.0007893462261259314	3.141592653589793	0.0	0.0	0.0
0.0	-0.001077723588364316	3.141592653589793	0.0	0.0	0.0
0.0	-0.001427735908140776	3.141592653589793	0.0	0.0	0.0
0.0	-0.001844892380115993	3.141592653589793	0.0	0.0	0.0
0.0	-0.002334585783936816	3.141592653589793	0.0	0.0	0.0
0.0	-0.0029020931683888186	3.141592653589793	0.0	0.0	0.0
0.0	-0.0035525765355488444	3.141592653589793	0.0	0.0	0.0
0.0	-0.004291083524937564	3.141592653589793	0.0	0.0	0.0
0.0	-0.005122548097672025	3.141592653589793	0.0	0.0	0.0
0.0	-0.006051791220618211	3.141592653589793	0.0	0.0	0.0
0.0	-0.0070835215505435836	3.141592653589793	0.0	0.0	0.0
0.0	-0.008222336118269643	3.141592653589793	0.0	0.0	0.0
0.0	-0.009472721012824474	3.141592653589793	0.0	0.0	0.0
0.0	-0.010839052065595307	3.141592653589793	0.0	0.0	0.0
0.0	-0.012325595534481062	3.141592653589793	0.0	0.0	0.0
0.0	-0.013936508788044906	3.141592653589793	0.0	0.0	0.0
0.0	-0.0156758409896668	3.141592653589793	0.0	0.0	0.0
0.0	-0.017547533781696066	3.141592653589793	0.0	0.0	0.0
0.0	-0.01955542196960392	3.141592653589793	0.0	0.0	0.0
0.0	-0.021703234206136034	3.141592653589793	0.0	0.0	0.0
0.0	-0.023994593675465085	3.141592653589793	0.0	0.0	0.0
0.0	-0.02643301877734332	3.141592653589793	0.0	0.0	0.0
0.0	-0.02902192381125509	3.141592653589793	0.0	0.0	0.0
0.0	-0.031764619660569406	3.141592653589793	0.0	0.0	0.0
0.0	-0.03466431447669251	3.141592653589793	0.0	0.0	0.0
0.0	-0.03772411436322041	3.141592653589793	0.0	0.0	0.0
0.0	-0.04094702406009143	3.141592653589793	0.0	0.0	0.0
0.0	-0.044335947627738764	3.141592653589793	0.0	0.0	0.0
0.0	-0.04789368913124307	3.141592653589793	0.0	0.0	0.0
0.0	-0.051622953324484924	3.141592653589793	0.0	0.0	0.0
0.0	-0.05552634633429749	3.141592653589793	0.0	0.0	0.0
0.0	-0.05960637634461896	3.141592653589793	0.0	0.0	0.0
0.0	-0.06386545428064525	3.141592653589793	0.0	0.0	0.0
0.0	-0.06830589449298237	3.141592653589793	0.0	0.0	0.0
0.0	-0.07292991544179911	3.141592653589793	0.0	0.0	0.0
0.0	-0.07773964038097958	3.141592653589793	0.0	0.0	0.0
0.0	-0.0827370980422757	3.141592653589793	0.0	0.0	0.0
0.0	-0.08792422331945986	3.141592653589793	0.0	0.0	0.0
0.0	-0.09330285795247724	3.141592653589793	0.0	0.0	0.0
0.0	-0.0988747512115987	3.141592653589793	0.0	0.0	0.0
0.0	-0.10464156058157309	3.141592653589793	0.0	0.0	0.0
0.0	-0.11060485244577975	3.141592653589793	0.0	0.0	0.0
0.0	-0.11676610277038146	3.141592653589793	0.0	0.0	0.0
0.0	-0.12312669778847646	3.141592653589793	0.0	0.0	0.0
0.0	-0.12968793468425138	3.141592653589793	0.0	0.0	0.0
0.0	-0.13645102227713357	3.141592653589793	0.0	0.0	0.0
0.0	-0.1434170817059439	3.141592653589793	0.0	0.0	0.0
0.0	-0.15058714711304905	3.141592653589793	0.0	0.0	0.0
0.0	-0.15796216632851412	3.141592653589793	0.0	0.0	0.0
0.0	-0.1655430015542554	3.141592653589793	0.0	0.0	0.0
0.0	-0.1733304300481927	3.141592653589793	0.0	0.0	0.0
0.0	-0.1813251448084019	3.141592653589793	0.0	0.0	0.0
0.0	-0.1895277552572676	3.141592653589793	0.0	0.0	0.0
0.0	-0.1979387879256357	3.141592653589793	0.0	0.0	0.0
0.0	-0.20655868713696582	3.141592653589793	0.0	0.0	0.0
0.0	-0.21538781569148388	3.141592653589793	0.0	0.0	0.0
0.0	-0.22442645555033489	3.141592653589793	0.0	0.0	0.0
0.0	-0.23367480851973504	3.141592653589793	0.0	0.0	0.0
0.0	-0.2431329969351247	3.141592653589793	0.0	0.0	0.0
0.0	-0.2528010643453208	3.141592653589793	0.0	0.0	0.0
0.0	-0.26267897619666924	3.141592653589793	0.0	0.0	0.0
0.0	-0.27276662051719763	3.141592653589793	0.0	0.0	0.0
0.0	-0.28306380860076796	3.141592653589793	0.0	0.0	0.0
0.0	-0.2935702756912288	3.141592653589793	0.0	0.0	0.0
0.0	-0.30428568166656805	3.141592653589793	0.0	0.0	0.0
0.0	-0.3152096117230654	3.141592653589793	0.0	0.0	0.0
0.0	-0.32634157705944533	3.141592653589793	0.0	0.0	0.0
0.0	-0.3376810155610287	3.141592653589793	0.0	0.0	0.0
0.0	-0.34922729248388645	3.141592653589793	0.0	0.0	0.0
0.0	-0.3609797011389913	3.141592653589793	0.0	0.0	0.0
0.0	-0.3729374635763705	3.141592653589793	0.0	0.0	0.0
0.0	-0.3850997312692589	3.141592653589793	0.0	0.0	0.0
0.0	-0.3974655857982508	3.141592653589793	0.0	0.0	0.0
0.0	-0.4100340395354527	3.141592653589793	0.0	0.0	0.0
0.0	-0.4228040363286362	3.141592653589793	0.0	0.0	0.0
0.0	-0.43577445218539007	3.141592653589793	0.0	0.0	0.0
0.0	-0.44894409595727297	3.141592653589793	0.0	0.0	0.0
0.0	-0.4623117100239664	3.141592653589793	0.0	0.0	0.0
0.0	-0.47587597097742673	3.141592653589793	0.0	0.0	0.0
0.0	-0.4896354903060376	3.141592653589793	0.0	0.0	0.0
0.0	-0.5035888150787634	3.141592653589793	0.0	0.0	0.0
0.0	-0.5177344286293009	3.141592653589793	0.0	0.0	0.0
0.0	-0.5320707512402318	3.141592653589793	0.0	0.0	0.0
0.0	-0.5465961408271764	3.141592653589793	0.0	0.0	0.0
0.0	-0.5613088936229447	3.141592653589793	0.0	0.0	0.0
0.0	-0.5762072448616901	3.141592653589793	0.0	0.0	0.0
0.0	-0.5912893694630608	3.141592653589793	0.0	0.0	0.0
0.0	-0.6065533827163538	3.141592653589793	0.0	0.0	0.0
0.0	-0.621997340964666	3.141592653589793	0.0	0.0	0.0
0.0	-0.6376192422890482	3.141592653589793	0.0	0.0	0.0
0.0	-0.653417027192656	3.141592653589793	0.0	0.0	0.0
0.0	-0.6693885792849038	3.141592653589793	0.0	0.0	0.0
0.0	-0.6855317259656167	3.141592653589793	0.0	0.0	0.0
0.0	-0.7018442391091829	3.141592653589793	0.0	0.0	0.0
0.0	-0.7183238357487065	3.141592653589793	0.0	0.0	0.0
0.0	-0.7349681787601607	3.141592653589793	0.0	0.0	0.0
0.0	-0.7517748775465386	3.141592653589793	0.0	0.0	0.0
0.0	-0.7687414887220081	3.141592653589793	0.0	0.0	0.0
0.0	-0.7858655167960619	3.141592653589793	0.0	0.0	0.0
0.0	-0.8031444148576723	3.141592653589793	0.0	0.0	0.0
0.0	-0.8205755852594422	3.141592653589793	0.0	0.0	0.0
0.0	-0.8381563803017589	3.141592653589793	0.0	0.0	0.0
0.0	-0.8558841029169454	3.141592653589793	0.0	0.0	0.0
0.0	-0.8737560073534137	3.141592653589793	0.0	0.0	0.0
0.0	-0.8917692998598177	3.141592653589793	0.0	0.0	0.0
0.0	-0.9099211393692048	3.141592653589793	0.0	0.0	0.0
0.0	-0.9282086381831683	3.141592653589793	0.0	0.0	0.0
0.0	-0.9466288626560021	3.141592653589793	0.0	0.0	0.0
0.0	-0.9651788338788506	3.141592653589793	0.0	0.0	0.0
0.0	-0.9838555283638626	3.141592653589793	0.0	0.0	0.0
0.0	-1.002655878728344	3.141592653589793	0.0	0.0	0.0
0.0	-1.0215767743789095	3.141592653589793	0.0	0.0	0.0
0.0	-1.0406150621956347	3.141592653589793	0.0	0.0	0.0
0.0	-1.0597675472162122	3.141592653589793	0.0	0.0	0.0
0.0	-1.0790309933200999	3.141592653589793	0.0	0.0	0.0
0.0	-1.0984021239126744	3.141592653589793	0.0	0.0	0.0
0.0	-1.1178776226093858	3.141592653589793	0.0	0.0	0.0
0.0	-1.137454133919908	3.141592653589793	0.0	0.0	0.0
0.0	-1.1571282639322924	3.141592653589793	0.0	0.0	0.0
0.0	-1.1768965809971206	3.141592653589793	0.0	0.0	0.0
0.0	-1.196755616411655	3.141592653589793	0.0	0.0	0.0
0.0	-1.216701865103994	3.141592653589793	0.0	0.0	0.0
0.0	-1.2367317863172225	3.141592653589793	0.0	0.0	0.0
0.0	-1.2568418042935667	3.141592653589793	0.0	0.0	0.0
0.0	-1.2770283089585435	3.141592653589793	0.0	0.0	0.0
0.0	-1.2972876566051161	3.141592653589793	0.0	0.0	0.0
0.0	-1.3176161705778449	3.141592653589793	0.0	0.0	0.0
0.0	-1.3380101419570405	3.141592653589793	0.0	0.0	0.0
0.0	-1.3584658302429147	3.141592653589793	0.0	0.0	0.0
0.0	-1.378979464039738	3.141592653589793	0.0	0.0	0.0
0.0	-1.399547241739985	3.141592653589793	0.0	0.0	0.0
0.0	-1.4201653322084926	3.141592653589793	0.0	0.0	0.0
0.0	-1.44082987546661	3.141592653589793	0.0	0.0	0.0
0.0	-1.4615369833763527	3.141592653589793	0.0	0.0	0.0
0.0	-1.482282740324552	3.141592653589793	0.0	0.0	0.0
0.0	-1.5030632039070126	3.141592653589793	0.0	0.0	0.0
0.0	-1.52387440561266	3.141592653589793	0.0	0.0	0.0
0.0	-1.5447123515076968	3.141592653589793	0.0	0.0	0.0
0.0	-1.5655730229197535	3.141592653589793	0.0	0.0	0.0
0.0	-1.5864523771220405	3.141592653589793	0.0	0.0	0.0
0.0	-1.6073463480175005	3.141592653589793	0.0	0.0	0.0
0.0	-1.6282508468229668	3.141592653589793	0.0	0.0	0.0
0.0	-1.6491617627533062	3.141592653589793	0.0	0.0	0.0
0.0	-1.670074963705578	3.141592653589793	0.0	0.0	0.0
0.0	-1.6909862969431841	3.141592653589793	0.0	0.0	0.0
0.0	-1.7118915897800266	3.141592653589793	0.0	0.0	0.0
0.0	-1.7327866502646523	3.141592653589793	0.0	0.0	0.0
0.0	-1.7536672678644072	3.141592653589793	0.0	0.0	0.0
0.0	-1.7745292141495972	3.141592653589793	0.0	0.0	0.0
0.0	-1.7953682434776304	3.141592653589793	0.0	0.0	0.0
0.0	-1.816180093677172	3.141592653589793	0.0	0.0	0.0
0.0	-1.8369604867323042	3.141592653589793	0.0	0.0	0.0
0.0	-1.8577051294666682	3.141592653589793	0.0	0.0	0.0
0.0	-1.8784097142276237	3.141592653589793	0.0	0.0	0.0
0.0	-1.8990699195704002	3.141592653589793	0.0	0.0	0.0
0.0	-1.9196814109422462	3.141592653589793	0.0	0.0	0.0
0.0	-1.9402398413665873	3.141592653589793	0.0	0.0	0.0
0.0	-1.9607408521271723	3.141592653589793	0.0	0.0	0.0
0.0	-1.9811800734522338	3.141592653589793	0.0	0.0	0.0
0.0	-2.001553125198632	3.141592653589793	0.0	0.0	0.0
0.0	-2.0218556175360143	3.141592653589793	0.0	0.0	0.0
0.0	-2.0420831516309628	3.141592653589793	0.0	0.0	0.0
0.0	-2.0622313203311515	3.141592653589793	0.0	0.0	0.0
0.0	-2.082295708849493	3.141592653589793	0.0	0.0	0.0
0.0	-2.102271895448299	3.141592653589793	0.0	0.0	0.0
0.0	-2.1221554521234234	3.141592653589793	0.0	0.0	0.0
0.0	-2.1419419452884245	3.141592653589793	0.0	0.0	0.0
0.0	-2.161626936458708	3.141592653589793	0.0	0.0	0.0
0.0	-2.181205982935688	3.141592653589793	0.0	0.0	0.0
0.0	-2.200674638490935	3.141592653589793	0.0	0.0	0.0
0.0	-2.220028454050328	3.141592653589793	0.0	0.0	0.0
0.0	-2.2392629783782123	3.141592653589793	0.0	0.0	0.0
0.0	-2.2583737587615436	3.141592653589793	0.0	0.0	0.0
0.0	-2.2773563416940457	3.141592653589793	0.0	0.0	0.0
0.0	-2.2962062735603657	3.141592653589793	0.0	0.0	0.0
0.0	-2.3149191013202213	3.141592653589793	0.0	0.0	0.0
0.0	-2.3334903731925554	3.141592653589793	0.0	0.0	0.0
0.0	-2.3519156393396856	3.141592653589793	0.0	0.0	0.0
0.0	-2.3701904525514683	3.141592653589793	0.0	0.0	0.0
0.0	-2.3883103689294334	3.141592653589793	0.0	0.0	0.0
0.0	-2.4062709485709513	3.141592653589793	0.0	0.0	0.0
0.0	-2.42406775625338	3.141592653589793	0.0	0.0	0.0
0.0	-2.441696362118215	3.141592653589793	0.0	0.0	0.0
0.0	-2.4591523423552504	3.141592653589793	0.0	0.0	0.0
0.0	-2.4764312798867194	3.141592653589793	0.0	0.0	0.0
0.0	-2.493528765051459	3.141592653589793	0.0	0.0	0.0
0.0	-2.5104403962890514	3.141592653589793	0.0	0.0	0.0
0.0	-2.5271617808239855	3.141592653589793	0.0	0.0	0.0
0.0	-2.54368853534981	3.141592653589793	0.0	0.0	0.0
0.0	-2.560016286713273	3.141592653589793	0.0	0.0	0.0
0.0	-2.576140672598491	3.141592653589793	0.0	0.0	0.0
0.0	-2.5920573422110884	3.141592653589793	0.0	0.0	0.0
0.0	-2.60776195696236	3.141592653589793	0.0	0.0	0.0
0.0	-2.623250191153418	3.141592653589793	0.0	0.0	0.0
0.0	-2.638517732659343	3.141592653589793	0.0	0.0	0.0
0.0	-2.6535602836133427	3.141592653589793	0.0	0.0	0.0
0.0	-2.6683735610908985	3.141592653589793	0.0	0.0	0.0
0.0	-2.6829532977939263	3.141592653589793	0.0	0.0	0.0
0.0	-2.6972952427349153	3.141592653589793	0.0	0.0	0.0
0.0	-2.711395161921093	3.141592653589793	0.0	0.0	0.0
0.0	-2.7252488390385734	3.141592653589793	0.0	0.0	0.0
0.0	-2.7388520761365034	3.141592653589793	0.0	0.0	0.0
0.0	-2.752200694311237	3.141592653589793	0.0	0.0	0.0
0.0	-2.765290534390453	3.141592653589793	0.0	0.0	0.0
0.0	-2.7781174576173417	3.141592653589793	0.0	0.0	0.0
0.0	-2.790677346334732	3.141592653589793	0.0	0.0	0.0
0.0	-2.8029661046692604	3.141592653589793	0.0	0.0	0.0
0.0	-2.814979659215523	3.141592653589793	0.0	0.0	0.0
0.0	-2.8267139597202084	3.141592653589793	0.0	0.0	0.0
0.0	-2.8381649797662742	3.141592653589793	0.0	0.0	0.0
0.0	-2.8493287174570905	3.141592653589793	0.0	0.0	0.0
0.0	-2.8602011961005904	3.141592653589793	0.0	0.0	0.0
0.0	-2.870778464893422	3.141592653589793	0.0	0.0	0.0
0.0	-2.8810565996051047	3.141592653589793	0.0	0.0	0.0
0.0	-2.8910317032621813	3.141592653589793	0.0	0.0	0.0
0.0	-2.900699906832366	3.141592653589793	0.0	0.0	0.0
0.0	-2.9100573699087033	3.141592653589793	0.0	0.0	0.0
0.0	-2.9191002813937144	3.141592653589793	0.0	0.0	0.0
0.0	-2.9278248601835593	3.141592653589793	0.0	0.0	0.0
0.0	-2.936227355852174	3.141592653589793	0.0	0.0	0.0
0.0	-2.944304049335441	3.141592653589793	0.0	0.0	0.0
0.0	-2.952051253615329	3.141592653589793	0.0	0.0	0.0
0.0	-2.9594653144040395	3.141592653589793	0.0	0.0	0.0
0.0	-2.96654261082819	3.141592653589793	0.0	0.0	0.0
0.0	-2.973279556112928	3.141592653589793	0.0	0.0	0.0
0.0	-2.979672598266108	3.141592653589793	0.0	0.0	0.0
0.0	-2.9857182207624335	3.141592653589793	0.0	0.0	0.0
0.0	-2.9914129432276244	3.141592653589793	0.0	0.0	0.0
0.0	-2.9967533221225446	3.141592653589793	0.0	0.0	0.0
0.0	-3.0017359514273796	3.141592653589793	0.0	0.0	0.0
0.0	-3.0063574633257684	3.141592653589793	0.0	0.0	0.0
0.0	-3.010614528888971	3.141592653589793	0.0	0.0	0.0
0.0	-3.0145038587600137	3.141592653589793	0.0	0.0	0.0
0.0	-3.0180222038378473	3.141592653589793	0.0	0.0	0.0
0.0	-3.0211663559614887	3.141592653589793	0.0	0.0	0.0
0.0	-3.02393314859419	3.141592653589793	0.0	0.0	0.0
0.0	-3.0263194575075714	3.141592653589793	0.0	0.0	0.0
0.0	-3.028322201465791	3.141592653589793	0.0	0.0	0.0
0.0	-3.0299383429096904	3.141592653589793	0.0	0.0	0.0
0.0	-3.03116488864094	3.141592653589793	0.0	0.0	0.0
0.0	-3.0319988905062054	3.141592653589793	0.0	0.0	0.0
0.0	-3.032437446081298	3.141592653589793	0.0	0.0	0.0
0.0	-3.0325095753401476	3.141592653589793	0.0	0.0	0.0
0.0	-3.0325095753401476	3.141592653589793	0.0	0.0	0.0
0.0	-3.0323095753401477	3.141592653589793	0.0	0.0	0.0
0.0	-3.0317095753401477	3.141592653589793	0.0	0.0	0.0
0.0	-3.030709575340148	3.141592653589793	0.0	0.0	0.0
0.0	-3.0293095753401476	3.141592653589793	0.0	0.0	0.0
0.0	-3.0275095753401478	3.141592653589793	0.0	0.0	0.0
0.0	-3.0253095753401475	3.141592653589793	0.0	0.0	0.0
0.0	-3.022709575340148	3.141592653589793	0.0	0.0	0.0
0.0	-3.0197095753401477	3.141592653589793	0.0	0.0	0.0
0.0	-3.0163095753401477	3.141592653589793	0.0	0.0	0.0
0.0	-3.0125095753401476	3.141592653589793	0.0	0.0	0.0
0.0	-3.0083095753401476	3.141592653589793	0.0	0.0	0.0
0.0	-3.0037095753401477	3.141592653589793	0.0	0.0	0.0
0.0	-2.998709575340148	3.141592653589793	0.0	0.0	0.0
0.0	-2.9933095753401475	3.141592653589793	0.0	0.0	0.0
0.0	-2.9875095753401477	3.141592653589793	0.0	0.0	0.0
0.0	-2.9813095753401475	3.141592653589793	0.0	0.0	0.0
0.0	-2.974709575340148	3.141592653589793	0.0	0.0	0.0
0.0	-2.9677095753401477	3.141592653589793	0.0	0.0	0.0
0.0	-2.9603095753401476	3.141592653589793	0.0	0.0	0.0
0.0	-2.9525095753401476	3.141592653589793	0.0	0.0	0.0
0.0	-2.9443095753401476	3.141592653589793	0.0	0.0	0.0
0.0	-2.9357095753401476	3.141592653589793	0.0	0.0	0.0
0.0	-2.9267095753401478	3.141592653589793	0.0	0.0	0.0
0.0	-2.9173095753401475	3.141592653589793	0.0	0.0	0.0
0.0	-2.9075095753401476	3.141592653589793	0.0	0.0	0.0
0.0	-2.8973095753401474	3.141592653589793	0.0	0.0	0.0
0.0	-2.8867095753401477	3.141592653589793	0.0	0.0	0.0
0.0	-2.8757095753401476	3.141592653589793	0.0	0.0	0.0
0.0	-2.8643095753401475	3.141592653589793	0.0	0.0	0.0
0.0	-2.8525095753401475	3.141592653589793	0.0	0.0	0.0
0.0	-2.8403095753401475	3.141592653589793	0.0	0.0	0.0
0.0	-2.8277095753401476	3.141592653589793	0.0	0.0	0.0
0.0	-2.8147095753401477	3.141592653589793	0.0	0.0	0.0
0.0	-2.8013095753401474	3.141592653589793	0.0	0.0	0.0
0.0	-2.7875095753401475	3.141592653589793	0.0	0.0	0.0
0.0	-2.7733095753401473	3.141592653589793	0.0	0.0	0.0
0.0	-2.7587095753401476	3.141592653589793	0.0	0.0	0.0
0.0	-2.7437095753401475	3.141592653589793	0.0	0.0	0.0
0.0	-2.7283095753401474	3.141592653589793	0.0	0.0	0.0
0.0	-2.7125095753401474	3.141592653589793	0.0	0.0	0.0
0.0	-2.6963095753401474	3.141592653589793	0.0	0.0	0.0
0.0	-2.6797095753401474	3.141592653589793	0.0	0.0	0.0
0.0	-2.6627095753401475	3.141592653589793	0.0	0.0	0.0
0.0	-2.645309575340147	3.141592653589793	0.0	0.0	0.0
0.0	-2.6275095753401474	3.141592653589793	0.0	0.0	0.0
0.0	-2.609309575340147	3.141592653589793	0.0	0.0	0.0
0.0	-2.590709575340147	3.141592653589793	0.0	0.0	0.0
0.0	-2.5717095753401473	3.141592653589793	0.0	0.0	0.0
0.0	-2.5523095753401472	3.141592653589793	0.0	0.0	0.0
0.0	-2.532509575340147	3.141592653589793	0.0	0.0	0.0
0.0	-2.512309575340147	3.141592653589793	0.0	0.0	0.0
0.0	-2.4917095753401473	3.141592653589793	0.0	0.0	0.0
0.0	-2.4707095753401473	3.141592653589793	0.0	0.0	0.0
0.0	-2.449309575340147	3.141592653589793	0.0	0.0	0.0
0.0	-2.427509575340147	3.141592653589793	0.0	0.0	0.0
0.0	-2.405309575340147	3.141592653589793	0.0	0.0	0.0
0.0	-2.382724898911771	3.141592653589793	0.0	0.0	0.0
0.0	-2.3600356186358447	3.141592653589793	0.0	0.0	0.0
0.0	-2.337346338359918	3.141592653589793	0.0	0.0	0.0
0.0	-2.314657058083992	3.141592653589793	0.0	0.0	0.0
0.0	-2.2919677778080656	3.141592653589793	0.0	0.0	0.0
0.0	-2.269278497532139	3.141592653589793	0.0	0.0	0.0
0.0	-2.2465892172562127	3.141592653589793	0.0	0.0	0.0
0.0	-2.2238999369802865	3.141592653589793	0.0	0.0	0.0
0.0	-2.2012106567043603	3.141592653589793	0.0	0.0	0.0
0.0	-2.178521376428434	3.141592653589793	0.0	0.0	0.0
0.0	-2.1558320961525075	3.141592653589793	0.0	0.0	0.0
0.0	-2.1331428158765813	3.141592653589793	0.0	0.0	0.0
0.0	-2.110453535600655	3.141592653589793	0.0	0.0	0.0
0.0	-2.087764255324729	3.141592653589793	0.0	0.0	0.0
0.0	-2.0650749750488027	3.141592653589793	0.0	0.0	0.0
0.0	-2.042385694772876	3.141592653589793	0.0	0.0	0.0
0.0	-2.01969641449695	3.141592653589793	0.0	0.0	0.0
0.0	-1.9970071342210236	3.141592653589793	0.0	0.0	0.0
0.0	-1.9743178539450972	3.141592653589793	0.0	0.0	0.0
0.0	-1.951628573669171	3.141592653589793	0.0	0.0	0.0
0.0	-1.9289392933932445	3.141592653589793	0.0	0.0	0.0
0.0	-1.9062500131173183	3.141592653589793	0.0	0.0	0.0
0.0	-1.883560732841392	3.141592653589793	0.0	0.0	0.0
0.0	-1.8608714525654657	3.141592653589793	0.0	0.0	0.0
0.0	-1.8381821722895393	3.141592653589793	0.0	0.0	0.0
0.0	-1.815492892013613	3.141592653589793	0.0	0.0	0.0
0.0	-1.7928036117376869	3.141592653589793	0.0	0.0	0.0
0.0	-1.7701143314617604	3.141592653589793	0.0	0.0	0.0
0.0	-1.7474250511858342	3.141592653589793	0.0	0.0	0.0
0.0	-1.7247357709099078	3.141592653589793	0.0	0.0	0.0
0.0	-1.7020464906339816	3.141592653589793	0.0	0.0	0.0
0.0	-1.6793572103580552	3.141592653589793	0.0	0.0	0.0
0.0	-1.656667930082129	3.141592653589793	0.0	0.0	0.0
0.0	-1.6339786498062026	3.141592653589793	0.0	0.0	0.0
0.0	-1.6112893695302763	3.141592653589793	0.0	0.0	0.0
0.0	-1.58860008925435	3.141592653589793	0.0	0.0	0.0
0.0	-1.5659108089784237	3.141592653589793	0.0	0.0	0.0
0.0	-1.5432215287024975	3.141592653589793	0.0	0.0	0.0
0.0	-1.520532248426571	3.141592653589793	0.0	0.0	0.0
0.0	-1.4978429681506449	3.141592653589793	0.0	0.0	0.0
0.0	-1.4751536878747185	3.141592653589793	0.0	0.0	0.0
0.0	-1.4524644075987923	3.141592653589793	0.0	0.0	0.0
0.0	-1.4297751273228658	3.141592653589793	0.0	0.0	0.0
0.0	-1.4070858470469396	3.141592653589793	0.0	0.0	0.0
0.0	-1.3843965667710132	3.141592653589793	0.0	0.0	0.0
0.0	-1.361707286495087	3.141592653589793	0.0	0.0	0.0
0.0	-1.3390180062191608	3.141592653589793	0.0	0.0	0.0
0.0	-1.3163287259432344	3.141592653589793	0.0	0.0	0.0
0.0	-1.2936394456673082	3.141592653589793	0.0	0.0	0.0
0.0	-1.2709501653913817	3.141592653589793	0.0	0.0	0.0
0.0	-1.2482608851154555	3.141592653589793	0.0	0.0	0.0
0.0	-1.225571604839529	3.141592653589793	0.0	0.0	0.0
0.0	-1.202882324563603	3.141592653589793	0.0	0.0	0.0
0.0	-1.1801930442876765	3.141592653589793	0.0	0.0	0.0
0.0	-1.1575037640117503	3.141592653589793	0.0	0.0	0.0
0.0	-1.1348144837358238	3.141592653589793	0.0	0.0	0.0
0.0	-1.1121252034598976	3.141592653589793	0.0	0.0	0.0
0.0	-1.0894359231839714	3.141592653589793	0.0	0.0	0.0
0.0	-1.066746642908045	3.141592653589793	0.0	0.0	0.0
0.0	-1.0440573626321188	3.141592653589793	0.0	0.0	0.0
0.0	-1.0213680823561924	3.141592653589793	0.0	0.0	0.0
0.0	-0.9986788020802662	3.141592653589793	0.0	0.0	0.0
0.0	-0.97598952180434	3.141592653589793	0.0	0.0	0.0
0.0	-0.9533002415284133	3.141592653589793	0.0	0.0	0.0
0.0	-0.9306109612524871	3.141592653589793	0.0	0.0	0.0
0.0	-0.9079216809765609	3.141592653589793	0.0	0.0	0.0
0.0	-0.8852324007006347	3.141592653589793	0.0	0.0	0.0
0.0	-0.8625431204247085	3.141592653589793	0.0	0.0	0.0
0.0	-0.8398538401487818	3.141592653589793	0.0	0.0	0.0
0.0	-0.8171645598728556	3.141592653589793	0.0	0.0	0.0
0.0	-0.7944752795969294	3.141592653589793	0.0	0.0	0.0
0.0	-0.7717859993210032	3.141592653589793	0.0	0.0	0.0
0.0	-0.749096719045077	3.141592653589793	0.0	0.0	0.0
0.0	-0.7264074387691504	3.141592653589793	0.0	0.0	0.0
0.0	-0.7037181584932246	3.141592653589793	0.0	0.0	0.0
0.0	-0.6810288782172975	3.141592653589793	0.0	0.0	0.0
0.0	-0.6583395979413718	3.141592653589793	0.0	0.0	0.0
0.0	-0.6356503176654451	3.141592653589793	0.0	0.0	0.0
0.0	-0.6129610373895193	3.141592653589793	0.0	0.0	0.0
0.0	-0.5902717571135923	3.141592653589793	0.0	0.0	0.0
0.0	-0.5675824768376665	3.141592653589793	0.0	0.0	0.0
0.0	-0.5448931965617398	3.141592653589793	0.0	0.0	0.0
0.0	-0.5222039162858141	3.141592653589793	0.0	0.0	0.0
0.0	-0.499514636009887	3.141592653589793	0.0	0.0	0.0
0.0	-0.47682535573396123	3.141592653589793	0.0	0.0	0.0
0.0	-0.4541360754580346	3.141592653589793	0.0	0.0	0.0
0.0	-0.4314467951821088	3.141592653589793	0.0	0.0	0.0
0.0	-0.40875751490618173	3.141592653589793	0.0	0.0	0.0
0.0	-0.38606823463025597	3.141592653589793	0.0	0.0	0.0
0.0	-0.3633789543543293	3.141592653589793	0.0	0.0	0.0
0.0	-0.34068967407840356	3.141592653589793	0.0	0.0	0.0
0.0	-0.3180003938024769	3.141592653589793	0.0	0.0	0.0
0.0	-0.2953111135265507	3.141592653589793	0.0	0.0	0.0
0.0	-0.27262183325062406	3.141592653589793	0.0	0.0	0.0
0.0	-0.2499325529746983	3.141592653589793	0.0	0.0	0.0
0.0	-0.22724327269877165	3.141592653589793	0.0	0.0	0.0
0.0	-0.2045539924228459	3.141592653589793	0.0	0.0	0.0
0.0	-0.1818647121469188	3.141592653589793	0.0	0.0	0.0
0.0	-0.15917543187099303	3.141592653589793	0.0	0.0	0.0
0.0	-0.13648615159506639	3.141592653589793	0.0	0.0	0.0
0.0	-0.11379687131914062	3.141592653589793	0.0	0.0	0.0
0.0	-0.09110759104321353	3.141592653589793	0.0	0.0	0.0
0.0	-0.06841831076728777	3.141592653589793	0.0	0.0	0.0
0.0	-0.04572903049136112	3.141592653589793	0.0	0.0	0.0
0.0	-0.02303975021543536	3.141592653589793	0.0	0.0	0.0
0.0	-0.0003504699395082689	3.141592653589793	0.0	0.0	0.0
0.0	0.02233881033641749	3.141592653589793	0.0	0.0	0.0
0.0	0.04502809061234414	3.141592653589793	0.0	0.0	0.0
0.0	0.0677173708882699	3.141592653589793	0.0	0.0	0.0
0.0	0.09040665116419655	3.141592653589793	0.0	0.0	0.0
0.0	0.11309593144012275	3.141592653589793	0.0	0.0	0.0
0.0	0.1357852117160494	3.141592653589793	0.0	0.0	0.0
0.0	0.15847449199197516	3.141592653589793	0.0	0.0	0.0
0.0	0.1811637722679018	3.141592653589793	0.0	0.0	0.0
0.0	0.20385305254382757	3.141592653589793	0.0	0.0	0.0
0.0	0.22654233281975467	3.141592653589793	0.0	0.0	0.0
0.0	0.24923161309568043	3.141592653589793	0.0	0.0	0.0
0.0	0.2719208933716071	3.141592653589793	0.0	0.0	0.0
0.0	0.29461017364753284	3.141592653589793	0.0	0.0	0.0
0.0	0.31729945392345993	3.141592653589793	0.0	0.0	0.0
0.0	0.3399887341993857	3.141592653589793	0.0	0.0	0.0
0.0	0.36267801447531234	3.141592653589793	0.0	0.0	0.0
0.0	0.3853672947512381	3.141592653589793	0.0	0.0	0.0
0.0	0.4080565750271652	3.141592653589793	0.0	0.0	0.0
0.0	0.43074585530309095	3.141592653589793	0.0	0.0	0.0
0.0	0.4534351355790176	3.141592653589793	0.0	0.0	0.0
0.0	0.47612441585494336	3.141592653589793	0.0	0.0	0.0
0.0	0.49881369613087045	3.141592653589793	0.0	0.0	0.0
0.0	0.5215029764067962	3.141592653589793	0.0	0.0	0.0
0.0	0.5441922566827229	3.141592653589793	0.0	0.0	0.0
0.0	0.5668815369586486	3.141592653589793	0.0	0.0	0.0
0.0	0.5895708172345753	3.141592653589793	0.0	0.0	0.0
0.0	0.6122600975105015	3.141592653589793	0.0	0.0	0.0
0.0	0.6349493777864281	3.141592653589793	0.0	0.0	0.0
0.0	0.6576386580623539	3.141592653589793	0.0	0.0	0.0
0.0	0.6803279383382805	3.141592653589793	0.0	0.0	0.0
0.0	0.7030172186142063	3.141592653589793	0.0	0.0	0.0
0.0	0.7257064988901334	3.141592653589793	0.0	0.0	0.0
0.0	0.7483957791660591	3.141592653589793	0.0	0.0	0.0
0.0	0.7710850594419858	3.141592653589793	0.0	0.0	0.0
0.0	0.7937743397179116	3.141592653589793	0.0	0.0	0.0
0.0	0.8164636199938387	3.141592653589793	0.0	0.0	0.0
0.0	0.8391529002697644	3.141592653589793	0.0	0.0	0.0
0.0	0.8618421805456902	3.141592653589793	0.0	0.0	0.0
0.0	0.8845314608216159	3.141592653589793	0.0	0.0	0.0
0.0	0.9072207410975417	3.141592653589793	0.0	0.0	0.0
0.0	0.9299100213734675	3.141592653589793	0.0	0.0	0.0
0.0	0.9525993016493932	3.141592653589793	0.0	0.0	0.0
0.0	0.975288581925319	3.141592653589793	0.0	0.0	0.0
0.0	0.9979778622012447	3.141592653589793	0.0	0.0	0.0
0.0	1.0206671424771705	3.141592653589793	0.0	0.0	0.0
0.0	1.0433564227530963	3.141592653589793	0.0	0.0	0.0
0.0	1.066045703029022	3.141592653589793	0.0	0.0	0.0
0.0	1.0887349833049478	3.141592653589793	0.0	0.0	0.0
0.0	1.1114242635808735	3.141592653589793	0.0	0.0	0.0
0.0	1.1341135438567993	3.141592653589793	0.0	0.0	0.0
0.0	1.156802824132726	3.141592653589793	0.0	0.0	0.0
0.0	1.1794921044086517	3.141592653589793	0.0	0.0	0.0
0.0	1.2021813846845775	3.141592653589793	0.0	0.0	0.0
0.0	1.2248706649605032	3.141592653589793	0.0	0.0	0.0
0.0	1.247559945236429	3.141592653589793	0.0	0.0	0.0
0.0	1.2702492255123548	3.141592653589793	0.0	0.0	0.0
0.0	1.2929385057882805	3.141592653589793	0.0	0.0	0.0
0.0	1.3156277860642063	3.141592653589793	0.0	0.0	0.0
0.0	1.338317066340132	3.141592653589793	0.0	0.0	0.0
0.0	1.3610063466160578	3.141592653589793	0.0	0.0	0.0
0.0	1.3836956268919836	3.141592653589793	0.0	0.0	0.0
0.0	1.4063849071679093	3.141592653589793	0.0	0.0	0.0
0.0	1.429074187443835	3.141592653589793	0.0	0.0	0.0
0.0	1.4517634677197608	3.141592653589793	0.0	0.0	0.0
0.0	1.4744527479956866	3.141592653589793	0.0	0.0	0.0
0.0	1.4971420282716124	3.141592653589793	0.0	0.0	0.0
0.0	1.5198313085475381	3.141592653589793	0.0	0.0	0.0
0.0	1.5425205888234639	3.141592653589793	0.0	0.0	0.0
0.0	1.5652098690993896	3.141592653589793	0.0	0.0	0.0
0.0	1.5878991493753154	3.141592653589793	0.0	0.0	0.0
0.0	1.6105884296512412	3.141592653589793	0.0	0.0	0.0
0.0	1.633277709927167	3.141592653589793	0.0	0.0	0.0
0.0	1.6559669902030936	3.141592653589793	0.0	0.0	0.0
0.0	1.6786562704790193	3.141592653589793	0.0	0.0	0.0
0.0	1.701345550754945	3.141592653589793	0.0	0.0	0.0
0.0	1.7240348310308709	3.141592653589793	0.0	0.0	0.0
0.0	1.7467241113067966	3.141592653589793	0.0	0.0	0.0
0.0	1.7694133915827224	3.141592653589793	0.0	0.0	0.0
0.0	1.7921026718586481	3.141592653589793	0.0	0.0	0.0
0.0	1.814791952134574	3.141592653589793	0.0	0.0	0.0
0.0	1.8374812324104997	3.141592653589793	0.0	0.0	0.0
0.0	1.8601705126864254	3.141592653589793	0.0	0.0	0.0
0.0	1.8828597929623512	3.141592653589793	0.0	0.0	0.0
0.0	1.905549073238277	3.141592653589793	0.0	0.0	0.0
0.0	1.9282383535142027	3.141592653589793	0.0	0.0	0.0
0.0	1.9509276337901285	3.141592653589793	0.0	0.0	0.0
0.0	1.9736169140660542	3.141592653589793	0.0	0.0	0.0
0.0	1.99630619434198	3.141592653589793	0.0	0.0	0.0
0.0	2.0189954746179057	3.141592653589793	0.0	0.0	0.0
0.0	2.0416847548938315	3.141592653589793	0.0	0.0	0.0
0.0	2.0643740351697573	3.141592653589793	0.0	0.0	0.0
0.0	2.087063315445683	3.141592653589793	0.0	0.0	0.0
0.0	2.109752595721609	3.141592653589793	0.0	0.0	0.0
0.0	2.1324418759975345	3.141592653589793	0.0	0.0	0.0
0.0	2.155131156273461	3.141592653589793	0.0	0.0	0.0
0.0	2.177820436549387	3.141592653589793	0.0	0.0	0.0
0.0	2.2005097168253127	3.141592653589793	0.0	0.0	0.0
0.0	2.2231989971012385	3.141592653589793	0.0	0.0	0.0
0.0	2.2458882773771642	3.141592653589793	0.0	0.0	0.0
0.0	2.26857755765309	3.141592653589793	0.0	0.0	0.0
0.0	2.2912668379290158	3.141592653589793	0.0	0.0	0.0
0.0	2.3139561182049415	3.141592653589793	0.0	0.0	0.0
0.0	2.3366453984808673	3.141592653589793	0.0	0.0	0.0
0.0	2.359334678756793	3.141592653589793	0.0	0.0	0.0
0.0	2.382023959032719	3.141592653589793	0.0	0.0	0.0
0.0	2.4047132393086446	3.141592653589793	0.0	0.0	0.0
0.0	2.4274025195845703	3.141592653589793	0.0	0.0	0.0
0.0	2.450091799860496	3.141592653589793	0.0	0.0	0.0
0.0	2.472781080136422	3.141592653589793	0.0	0.0	0.0
0.0	2.4954703604123476	3.141592653589793	0.0	0.0	0.0
0.0	2.518003131812535	3.141592653589793	0.0	0.0	0.0
0.0	2.540138565934615	3.141592653589793	0.0	0.0	0.0
0.0	2.5618740000566955	3.141592653589793	0.0	0.0	0.0
0.0	2.5832094341787757	3.141592653589793	0.0	0.0	0.0
0.0	2.604144868300856	3.141592653589793	0.0	0.0	0.0
0.0	2.624680302422936	3.141592653589793	0.0	0.0	0.0
0.0	2.6448157365450164	3.141592653589793	0.0	0.0	0.0
0.0	2.664551170667097	3.141592653589793	0.0	0.0	0.0
0.0	2.683886604789177	3.141592653589793	0.0	0.0	0.0
0.0	2.7028220389112576	3.141592653589793	0.0	0.0	0.0
0.0	2.721357473033338	3.141592653589793	0.0	0.0	0.0
0.0	2.739492907155418	3.141592653589793	0.0	0.0	0.0
0.0	2.7572283412774987	3.141592653589793	0.0	0.0	0.0
0.0	2.774563775399579	3.141592653589793	0.0	0.0	0.0
0.0	2.7914992095216595	3.141592653589793	0.0	0.0	0.0
0.0	2.8080346436437402	3.141592653589793	0.0	0.0	0.0
0.0	2.8241700777658205	3.141592653589793	0.0	0.0	0.0
0.0	2.839905511887901	3.141592653589793	0.0	0.0	0.0
0.0	2.8552409460099817	3.141592653589793	0.0	0.0	0.0
0.0	2.870176380132062	3.141592653589793	0.0	0.0	0.0
0.0	2.8847118142541426	3.141592653589793	0.0	0.0	0.0
0.0	2.898847248376223	3.141592653589793	0.0	0.0	0.0
0.0	2.9125826824983037	3.141592653589793	0.0	0.0	0.0
0.0	2.9259181166203843	3.141592653589793	0.0	0.0	0.0
0.0	2.938853550742465	3.141592653589793	0.0	0.0	0.0
0.0	2.9513889848645456	3.141592653589793	0.0	0.0	0.0
0.0	2.9635244189866263	3.141592653589793	0.0	0.0	0.0
0.0	2.975259853108707	3.141592653589793	0.0	0.0	0.0
0.0	2.9865952872307875	3.141592653589793	0.0	0.0	0.0
0.0	2.9975307213528684	3.141592653589793	0.0	0.0	0.0
0.0	3.0080661554749493	3.141592653589793	0.0	0.0	0.0
0.0	3.0182015895970298	3.141592653589793	0.0	0.0	0.0
0.0	3.0279370237191108	3.141592653589793	0.0	0.0	0.0
0.0	3.0372724578411914	3.141592653589793	0.0	0.0	0.0
0.0	3.046207891963272	3.141592653589793	0.0	0.0	0.0
0.0	3.054743326085353	3.141592653589793	0.0	0.0	0.0
0.0	3.062878760207434	3.141592653589793	0.0	0.0	0.0
0.0	3.0706141943295147	3.141592653589793	0.0	0.0	0.0
0.0	3.0779496284515955	3.141592653589793	0.0	0.0	0.0
0.0	3.0848850625736763	3.141592653589793	0.0	0.0	0.0
0.0	3.0914204966957572	3.141592653589793	0.0	0.0	0.0
0.0	3.097555930817838	3.141592653589793	0.0	0.0	0.0
0.0	3.103291364939919	3.141592653589793	0.0	0.0	0.0
0.0	3.108626799062	3.141592653589793	0.0	0.0	0.0
0.0	3.113562233184081	3.141592653589793	0.0	0.0	0.0
0.0	3.118097667306162	3.141592653589793	0.0	0.0	0.0
0.0	3.1222331014282427	3.141592653589793	0.0	0.0	0.0
0.0	3.125968535550324	3.141592653589793	0.0	0.0	0.0
0.0	3.1293039696724048	3.141592653589793	0.0	0.0	0.0
0.0	3.132239403794486	3.141592653589793	0.0	0.0	0.0
0.0	3.134774837916567	3.141592653589793	0.0	0.0	0.0
0.0	3.1369102720386484	3.141592653589793	0.0	0.0	0.0
0.0	3.1386457061607294	3.141592653589793	0.0	0.0	0.0
0.0	3.1399811402828104	3.141592653589793	0.0	0.0	0.0
0.0	3.1409165744048915	3.141592653589793	0.0	0.0	0.0
0.0	3.141592653589793	3.141592653589793	0.0	0.0	0.0
0.0	3.141592653589793	3.141592653589793	0.0	0.0	0.0
0.0	3.141392653589793	3.141592653589793	0.0	0.0	0.0
0.0	3.140792653589793	3.141592653589793	0.0	0.0	0.0
0.0	3.1397926535897933	3.141592653589793	0.0	0.0	0.0
0.0	3.138392653589793	3.141592653589793	0.0	0.0	0.0
0.0	3.1365926535897932	3.141592653589793	0.0	0.0	0.0
0.0	3.134392653589793	3.141592653589793	0.0	0.0	0.0
0.0	3.1317926535897933	3.141592653589793	0.0	0.0	0.0
0.0	3.128792653589793	3.141592653589793	0.0	0.0	0.0
0.0	3.125392653589793	3.141592653589793	0.0	0.0	0.0
0.0	3.121592653589793	3.141592653589793	0.0	0.0	0.0
0.0	3.117392653589793	3.141592653589793	0.0	0.0	0.0
0.0	3.112792653589793	3.141592653589793	0.0	0.0	0.0
0.0	3.1077926535897933	3.141592653589793	0.0	0.0	0.0
0.0	3.102392653589793	3.141592653589793	0.0	0.0	0.0
0.0	3.096592653589793	3.141592653589793	0.0	0.0	0.0
0.0	3.090392653589793	3.141592653589793	0.0	0.0	0.0
0.0	3.0837926535897933	3.141592653589793	0.0	0.0	0.0
0.0	3.076792653589793	3.141592653589793	0.0	0.0	0.0
0.0	3.069392653589793	3.141592653589793	0.0	0.0	0.0
0.0	3.061592653589793	3.141592653589793	0.0	0.0	0.0
0.0	3.053392653589793	3.141592653589793	0.0	0.0	0.0
0.0	3.044792653589793	3.141592653589793	0.0	0.0	0.0
0.0	3.035792653589793	3.141592653589793	0.0	0.0	0.0
0.0	3.026392653589793	3.141592653589793	0.0	0.0	0.0
0.0	3.016592653589793	3.141592653589793	0.0	0.0	0.0
0.0	3.006392653589793	3.141592653589793	0.0	0.0	0.0
0.0	2.995792653589793	3.141592653589793	0.0	0.0	0.0
0.0	2.984792653589793	3.141592653589793	0.0	0.0	0.0
0.0	2.973392653589793	3.141592653589793	0.0	0.0	0.0
0.0	2.961592653589793	3.141592653589793	0.0	0.0	0.0
0.0	2.949392653589793	3.141592653589793	0.0	0.0	0.0
0.0	2.936792653589793	3.141592653589793	0.0	0.0	0.0
0.0	2.923792653589793	3.141592653589793	0.0	0.0	0.0
0.0	2.910392653589793	3.141592653589793	0.0	0.0	0.0
0.0	2.896592653589793	3.141592653589793	0.0	0.0	0.0
0.0	2.882392653589793	3.141592653589793	0.0	0.0	0.0
0.0	2.8677926535897926	3.141592653589793	0.0	0.0	0.0
0.0	2.852792653589793	3.141592653589793	0.0	0.0	0.0
0.0	2.837392653589793	3.141592653589793	0.0	0.0	0.0
0.0	2.821592653589793	3.141592653589793	0.0	0.0	0.0
0.0	2.805392653589793	3.141592653589793	0.0	0.0	0.0
0.0	2.788792653589793	3.141592653589793	0.0	0.0	0.0
0.0	2.7717926535897925	3.141592653589793	0.0	0.0	0.0
0.0	2.7543926535897927	3.141592653589793	0.0	0.0	0.0
0.0	2.736592653589793	3.141592653589793	0.0	0.0	0.0
0.0	2.7183926535897927	3.141592653589793	0.0	0.0	0.0
0.0	2.6997926535897925	3.141592653589793	0.0	0.0	0.0
0.0	2.680792653589793	3.141592653589793	0.0	0.0	0.0
0.0	2.6613926535897927	3.141592653589793	0.0	0.0	0.0
0.0	2.6415926535897927	3.141592653589793	0.0	0.0	0.0
0.0	2.6213926535897927	3.141592653589793	0.0	0.0	0.0
0.0	2.6007926535897927	3.141592653589793	0.0	0.0	0.0
0.0	2.5797926535897924	3.141592653589793	0.0	0.0	0.0
0.0	2.5583926535897925	3.141592653589793	0.0	0.0	0.0
0.0	2.5365926535897927	3.141592653589793	0.0	0.0	0.0
0.0	2.5143926535897925	3.141592653589793	0.0	0.0	0.0
0.0	2.4918079771614163	3.141592653589793	0.0	0.0	0.0
0.0	2.4691186968854897	3.141592653589793	0.0	0.0	0.0
0.0	2.4464294166095635	3.141592653589793	0.0	0.0	0.0
0.0	2.4237401363336373	3.141592653589793	0.0	0.0	0.0
0.0	2.401050856057711	3.141592653589793	0.0	0.0	0.0
0.0	2.378361575781785	3.141592653589793	0.0	0.0	0.0
0.0	2.355672295505858	3.141592653589793	0.0	0.0	0.0
0.0	2.332983015229932	3.141592653589793	0.0	0.0	0.0
0.0	2.310293734954006	3.141592653589793	0.0	0.0	0.0
0.0	2.287604454678079	3.141592653589793	0.0	0.0	0.0
0.0	2.2649151744021534	3.141592653589793	0.0	0.0	0.0
0.0	2.2422258941262267	3.141592653589793	0.0	0.0	0.0
0.0	2.2195366138503005	3.141592653589793	0.0	0.0	0.0
0.0	2.1968473335743743	3.141592653589793	0.0	0.0	0.0
0.0	2.1741580532984477	3.141592653589793	0.0	0.0	0.0
0.0	2.1514687730225215	3.141592653589793	0.0	0.0	0.0
0.0	2.1287794927465953	3.141592653589793	0.0	0.0	0.0
0.0	2.106090212470669	3.141592653589793	0.0	0.0	0.0
0.0	2.083400932194743	3.141592653589793	0.0	0.0	0.0
0.0	2.0607116519188162	3.141592653589793	0.0	0.0	0.0
0.0	2.03802237164289	3.141592653589793	0.0	0.0	0.0
0.0	2.015333091366964	3.141592653589793	0.0	0.0	0.0
0.0	1.9926438110910374	3.141592653589793	0.0	0.0	0.0
0.0	1.9699545308151112	3.141592653589793	0.0	0.0	0.0
0.0	1.9472652505391848	3.141592653589793	0.0	0.0	0.0
0.0	1.9245759702632586	3.141592653589793	0.0	0.0	0.0
0.0	1.9018866899873323	3.141592653589793	0.0	0.0	0.0
0.0	1.879197409711406	3.141592653589793	0.0	0.0	0.0
0.0	1.8565081294354797	3.141592653589793	0.0	0.0	0.0
0.0	1.8338188491595533	3.141592653589793	0.0	0.0	0.0
0.0	1.811129568883627	3.141592653589793	0.0	0.0	0.0
0.0	1.7884402886077007	3.141592653589793	0.0	0.0	0.0
0.0	1.7657510083317745	3.141592653589793	0.0	0.0	0.0
0.0	1.743061728055848	3.141592653589793	0.0	0.0	0.0
0.0	1.7203724477799218	3.141592653589793	0.0	0.0	0.0
0.0	1.6976831675039954	3.141592653589793	0.0	0.0	0.0
0.0	1.6749938872280692	3.141592653589793	0.0	0.0	0.0
0.0	1.652304606952143	3.141592653589793	0.0	0.0	0.0
0.0	1.6296153266762166	3.141592653589793	0.0	0.0	0.0
0.0	1.6069260464002904	3.141592653589793	0.0	0.0	0.0
0.0	1.584236766124364	3.141592653589793	0.0	0.0	0.0
0.0	1.5615474858484377	3.141592653589793	0.0	0.0	0.0
0.0	1.5388582055725113	3.141592653589793	0.0	0.0	0.0
0.0	1.516168925296585	3.141592653589793	0.0	0.0	0.0
0.0	1.4934796450206587	3.141592653589793	0.0	0.0	0.0
0.0	1.4707903647447325	3.141592653589793	0.0	0.0	0.0
0.0	1.4481010844688063	3.141592653589793	0.0	0.0	0.0
0.0	1.4254118041928798	3.141592653589793	0.0	0.0	0.0
0.0	1.4027225239169536	3.141592653589793	0.0	0.0	0.0
0.0	1.3800332436410272	3.141592653589793	0.0	0.0	0.0
0.0	1.357343963365101	3.141592653589793	0.0	0.0	0.0
0.0	1.3346546830891746	3.141592653589793	0.0	0.0	0.0
0.0	1.3119654028132484	3.141592653589793	0.0	0.0	0.0
0.0	1.289276122537322	3.141592653589793	0.0	0.0	0.0
0.0	1.2665868422613957	3.141592653589793	0.0	0.0	0.0
0.0	1.2438975619854693	3.141592653589793	0.0	0.0	0.0
0.0	1.221208281709543	3.141592653589793	0.0	0.0	0.0
0.0	1.198519001433617	3.141592653589793	0.0	0.0	0.0
0.0	1.1758297211576905	3.141592653589793	0.0	0.0	0.0
0.0	1.1531404408817643	3.141592653589793	0.0	0.0	0.0
0.0	1.1304511606058378	3.141592653589793	0.0	0.0	0.0
0.0	1.1077618803299116	3.141592653589793	0.0	0.0	0.0
0.0	1.0850726000539854	3.141592653589793	0.0	0.0	0.0
0.0	1.0623833197780588	3.141592653589793	0.0	0.0	0.0
0.0	1.0396940395021326	3.141592653589793	0.0	0.0	0.0
0.0	1.0170047592262064	3.141592653589793	0.0	0.0	0.0
0.0	0.9943154789502802	3.141592653589793	0.0	0.0	0.0
0.0	0.971626198674354	3.141592653589793	0.0	0.0	0.0
0.0	0.9489369183984273	3.141592653589793	0.0	0.0	0.0
0.0	0.9262476381225011	3.141592653589793	0.0	0.0	0.0
0.0	0.9035583578465749	3.141592653589793	0.0	0.0	0.0
0.0	0.8808690775706487	3.141592653589793	0.0	0.0	0.0
0.0	0.8581797972947225	3.141592653589793	0.0	0.0	0.0
0.0	0.8354905170187958	3.141592653589793	0.0	0.0	0.0
0.0	0.8128012367428701	3.141592653589793	0.0	0.0	0.0
0.0	0.790111956466943	3.141592653589793	0.0	0.0	0.0
0.0	0.7674226761910172	3.141592653589793	0.0	0.0	0.0
0.0	0.7447333959150906	3.141592653589793	0.0	0.0	0.0
0.0	0.7220441156391648	3.141592653589793	0.0	0.0	0.0
0.0	0.6993548353632377	3.141592653589793	0.0	0.0	0.0
0.0	0.676665555087312	3.141592653589793	0.0	0.0	0.0
0.0	0.6539762748113853	3.141592653589793	0.0	0.0	0.0
0.0	0.6312869945354596	3.141592653589793	0.0	0.0	0.0
0.0	0.6085977142595325	3.141592653589793	0.0	0.0	0.0
0.0	0.5859084339836067	3.141592653589793	0.0	0.0	0.0
0.0	0.56321915370768	3.141592653589793	0.0	0.0	0.0
0.0	0.5405298734317543	3.141592653589793	0.0	0.0	0.0
0.0	0.5178405931558272	3.141592653589793	0.0	0.0	0.0
0.0	0.49515131287990144	3.141592653589793	0.0	0.0	0.0
0.0	0.4724620326039748	3.141592653589793	0.0	0.0	0.0
0.0	0.44977275232804903	3.141592653589793	0.0	0.0	0.0
0.0	0.4270834720521224	3.141592653589793	0.0	0.0	0.0
0.0	0.4043941917761962	3.141592653589793	0.0	0.0	0.0
0.0	0.38170491150026953	3.141592653589793	0.0	0.0	0.0
0.0	0.35901563122434377	3.141592653589793	0.0	0.0	0.0
0.0	0.3363263509484171	3.141592653589793	0.0	0.0	0.0
0.0	0.31363707067249136	3.141592653589793	0.0	0.0	0.0
0.0	0.29094779039656427	3.141592653589793	0.0	0.0	0.0
0.0	0.2682585101206385	3.141592653589793	0.0	0.0	0.0
0.0	0.24556922984471186	3.141592653589793	0.0	0.0	0.0
0.0	0.2228799495687861	3.141592653589793	0.0	0.0	0.0
0.0	0.200190669292859	3.141592653589793	0.0	0.0	0.0
0.0	0.17750138901693324	3.141592653589793	0.0	0.0	0.0
0.0	0.1548121087410066	3.141592653589793	0.0	0.0	0.0
0.0	0.13212282846508083	3.141592653589793	0.0	0.0	0.0
0.0	0.10943354818915374	3.141592653589793	0.0	0.0	0.0
0.0	0.08674426791322798	3.141592653589793	0.0	0.0	0.0
0.0	0.06405498763730133	3.141592653589793	0.0	0.0	0.0
0.0	0.04136570736137557	3.141592653589793	0.0	0.0	0.0
0.0	0.01867642708544892	3.141592653589793	0.0	0.0	0.0
0.0	-0.0040128531904772835	3.141592653589793	0.0	0.0	0.0
0.0	-0.026702133466403932	3.141592653589793	0.0	0.0	0.0
0.0	-0.04939141374232969	3.141592653589793	0.0	0.0	0.0
0.0	-0.07208069401825634	3.141592653589793	0.0	0.0	0.0
0.0	-0.0947699742941821	3.141592653589793	0.0	0.0	0.0
0.0	-0.1174592545701092	3.141592653589793	0.0	0.0	0.0
0.0	-0.14014853484603496	3.141592653589793	0.0	0.0	0.0
0.0	-0.1628378151219616	3.141592653589793	0.0	0.0	0.0
0.0	-0.18552709539788736	3.141592653589793	0.0	0.0	0.0
0.0	-0.20821637567381446	3.141592653589793	0.0	0.0	0.0
0.0	-0.23090565594974022	3.141592653589793	0.0	0.0	0.0
0.0	-0.25359493622566687	3.141592653589793	0.0	0.0	0.0
0.0	-0.2762842165015926	3.141592653589793	0.0	0.0	0.0
0.0	-0.2989734967775197	3.141592653589793	0.0	0.0	0.0
0.0	-0.3216627770534455	3.141592653589793	0.0	0.0	0.0
0.0	-0.34435205732937213	3.141592653589793	0.0	0.0	0.0
0.0	-0.3670413376052979	3.141592653589793	0.0	0.0	0.0
0.0	-0.389730617881225	3.141592653589793	0.0	0.0	0.0
0.0	-0.41241989815715074	3.141592653589793	0.0	0.0	0.0
0.0	-0.4351091784330774	3.141592653589793	0.0	0.0	0.0
0.0	-0.45779845870900315	3.141592653589793	0.0	0.0	0.0
0.0	-0.4804877389849298	3.141592653589793	0.0	0.0	0.0
0.0	-0.503177019260856	3.141592653589793	0.0	0.0	0.0
0.0	-0.5258662995367827	3.141592653589793	0.0	0.0	0.0
0.0	-0.5485555798127084	3.141592653589793	0.0	0.0	0.0
0.0	-0.5712448600886351	3.141592653589793	0.0	0.0	0.0
0.0	-0.5939341403645608	3.141592653589793	0.0	0.0	0.0
0.0	-0.6166234206404879	3.141592653589793	0.0	0.0	0.0
0.0	-0.6393127009164137	3.141592653589793	0.0	0.0	0.0
0.0	-0.6620019811923403	3.141592653589793	0.0	0.0	0.0
0.0	-0.6846912614682661	3.141592653589793	0.0	0.0	0.0
0.0	-0.7073805417441932	3.141592653589793	0.0	0.0	0.0
0.0	-0.7300698220201189	3.141592653589793	0.0	0.0	0.0
0.0	-0.7527591022960447	3.141592653589793	0.0	0.0	0.0
0.0	-0.7754483825719705	3.141592653589793	0.0	0.0	0.0
0.0	-0.7981376628478962	3.141592653589793	0.0	0.0	0.0
0.0	-0.820826943123822	3.141592653589793	0.0	0.0	0.0
0.0	-0.8435162233997477	3.141592653589793	0.0	0.0	0.0
0.0	-0.8662055036756735	3.141592653589793	0.0	0.0	0.0
0.0	-0.8888947839515993	3.141592653589793	0.0	0.0	0.0
0.0	-0.911584064227525	3.141592653589793	0.0	0.0	0.0
0.0	-0.9342733445034508	3.141592653589793	0.0	0.0	0.0
0.0	-0.9569626247793765	3.141592653589793	0.0	0.0	0.0
0.0	-0.9796519050553023	3.141592653589793	0.0	0.0	0.0
0.0	-1.002341185331228	3.141592653589793	0.0	0.0	0.0
0.0	-1.0250304656071538	3.141592653589793	0.0	0.0	0.0
0.0	-1.0477197458830805	3.141592653589793	0.0	0.0	0.0
0.0	-1.0704090261590062	3.141592653589793	0.0	0.0	0.0
0.0	-1.093098306434932	3.141592653589793	0.0	0.0	0.0
0.0	-1.1157875867108578	3.141592653589793	0.0	0.0	0.0
0.0	-1.1384768669867835	3.141592653589793	0.0	0.0	0.0
0.0	-1.1611661472627093	3.141592653589793	0.0	0.0	0.0
0.0	-1.183855427538635	3.141592653589793	0.0	0.0	0.0
0.0	-1.2065447078145608	3.141592653589793	0.0	0.0	0.0
0.0	-1.2292339880904866	3.141592653589793	0.0	0.0	0.0
0.0	-1.2519232683664123	3.141592653589793	0.0	0.0	0.0
0.0	-1.274612548642338	3.141592653589793	0.0	0.0	0.0
0.0	-1.2973018289182638	3.141592653589793	0.0	0.0	0.0
0.0	-1.3199911091941896	3.141592653589793	0.0	0.0	0.0
0.0	-1.3426803894701154	3.141592653589793	0.0	0.0	0.0
0.0	-1.3653696697460411	3.141592653589793	0.0	0.0	0.0
0.0	-1.3880589500219669	3.141592653589793	0.0	0.0	0.0
0.0	-1.4107482302978926	3.141592653589793	0.0	0.0	0.0
0.0	-1.4334375105738184	3.141592653589793	0.0	0.0	0.0
0.0	-1.4561267908497442	3.141592653589793	0.0	0.0	0.0
0.0	-1.47881607112567	3.141592653589793	0.0	0.0	0.0
0.0	-1.5015053514015957	3.141592653589793	0.0	0.0	0.0
0.0	-1.5241946316775214	3.141592653589793	0.0	0.0	0.0
0.0	-1.546883911953448	3.141592653589793	0.0	0.0	0.0
0.0	-1.5695731922293739	3.141592653589793	0.0	0.0	0.0
0.0	-1.5922624725052996	3.141592653589793	0.0	0.0	0.0
0.0	-1.6149517527812254	3.141592653589793	0.0	0.0	0.0
0.0	-1.6376410330571511	3.141592653589793	0.0	0.0	0.0
0.0	-1.660330313333077	3.141592653589793	0.0	0.0	0.0
0.0	-1.6830195936090027	3.141592653589793	0.0	0.0	0.0
0.0	-1.7057088738849284	3.141592653589793	0.0	0.0	0.0
0.0	-1.7283981541608542	3.141592653589793	0.0	0.0	0.0
0.0	-1.75108743443678	3.141592653589793	0.0	0.0	0.0
0.0	-1.7737767147127057	3.141592653589793	0.0	0.0	0.0
0.0	-1.7964659949886315	3.141592653589793	0.0	0.0	0.0
0.0	-1.8191552752645572	3.141592653589793	0.0	0.0	0.0
0.0	-1.841844555540483	3.141592653589793	0.0	0.0	0.0
0.0	-1.8645338358164087	3.141592653589793	0.0	0.0	0.0
0.0	-1.8872231160923345	3.141592653589793	0.0	0.0	0.0
0.0	-1.9099123963682603	3.141592653589793	0.0	0.0	0.0
0.0	-1.932601676644186	3.141592653589793	0.0	0.0	0.0
0.0	-1.9552909569201118	3.141592653589793	0.0	0.0	0.0
0.0	-1.9779802371960375	3.141592653589793	0.0	0.0	0.0
0.0	-2.0006695174719633	3.141592653589793	0.0	0.0	0.0
0.0	-2.023358797747889	3.141592653589793	0.0	0.0	0.0
0.0	-2.0460480780238157	3.141592653589793	0.0	0.0	0.0
0.0	-2.0687373582997415	3.141592653589793	0.0	0.0	0.0
0.0	-2.0914266385756672	3.141592653589793	0.0	0.0	0.0
0.0	-2.114115918851593	3.141592653589793	0.0	0.0	0.0
0.0	-2.1368051991275188	3.141592653589793	0.0	0.0	0.0
0.0	-2.1594944794034445	3.141592653589793	0.0	0.0	0.0
0.0	-2.1821837596793703	3.141592653589793	0.0	0.0	0.0
0.0	-2.204873039955296	3.141592653589793	0.0	0.0	0.0
0.0	-2.227562320231222	3.141592653589793	0.0	0.0	0.0
0.0	-2.2502516005071476	3.141592653589793	0.0	0.0	0.0
0.0	-2.2729408807830733	3.141592653589793	0.0	0.0	0.0
0.0	-2.295630161058999	3.141592653589793	0.0	0.0	0.0
0.0	-2.318319441334925	3.141592653589793	0.0	0.0	0.0
0.0	-2.3410087216108506	3.141592653589793	0.0	0.0	0.0
0.0	-2.3636980018867764	3.141592653589793	0.0	0.0	0.0
0.0	-2.386387282162702	3.141592653589793	0.0	0.0	0.0
0.0	-2.4089200535628894	3.141592653589793	0.0	0.0	0.0
0.0	-2.4310554876849695	3.141592653589793	0.0	0.0	0.0
0.0	-2.4527909218070496	3.141592653589793	0.0	0.0	0.0
0.0	-2.47412635592913	3.141592653589793	0.0	0.0	0.0
0.0	-2.4950617900512104	3.141592653589793	0.0	0.0	0.0
0.0	-2.5155972241732907	3.141592653589793	0.0	0.0	0.0
0.0	-2.535732658295371	3.141592653589793	0.0	0.0	0.0
0.0	-2.5554680924174513	3.141592653589793	0.0	0.0	0.0
0.0	-2.5748035265395317	3.141592653589793	0.0	0.0	0.0
0.0	-2.593738960661612	3.141592653589793	0.0	0.0	0.0
0.0	-2.612274394783692	3.141592653589793	0.0	0.0	0.0
0.0	-2.6304098289057727	3.141592653589793	0.0	0.0	0.0
0.0	-2.6481452630278532	3.141592653589793	0.0	0.0	0.0
0.0	-2.665480697149934	3.141592653589793	0.0	0.0	0.0
0.0	-2.682416131272014	3.141592653589793	0.0	0.0	0.0
0.0	-2.6989515653940943	3.141592653589793	0.0	0.0	0.0
0.0	-2.715086999516175	3.141592653589793	0.0	0.0	0.0
0.0	-2.7308224336382554	3.141592653589793	0.0	0.0	0.0
0.0	-2.746157867760336	3.141592653589793	0.0	0.0	0.0
0.0	-2.7610933018824166	3.141592653589793	0.0	0.0	0.0
0.0	-2.775628736004497	3.141592653589793	0.0	0.0	0.0
0.0	-2.7897641701265776	3.141592653589793	0.0	0.0	0.0
0.0	-2.803499604248658	3.141592653589793	0.0	0.0	0.0
0.0	-2.816835038370739	3.141592653589793	0.0	0.0	0.0
0.0	-2.8297704724928194	3.141592653589793	0.0	0.0	0.0
0.0	-2.8423059066149	3.141592653589793	0.0	0.0	0.0
0.0	-2.854441340736981	3.141592653589793	0.0	0.0	0.0
0.0	-2.8661767748590616	3.141592653589793	0.0	0.0	0.0
0.0	-2.877512208981142	3.141592653589793	0.0	0.0	0.0
0.0	-2.888447643103223	3.141592653589793	0.0	0.0	0.0
0.0	-2.898983077225304	3.141592653589793	0.0	0.0	0.0
0.0	-2.9091185113473843	3.141592653589793	0.0	0.0	0.0
0.0	-2.9188539454694653	3.141592653589793	0.0	0.0	0.0
0.0	-2.928189379591546	3.141592653589793	0.0	0.0	0.0
0.0	-2.9371248137136265	3.141592653589793	0.0	0.0	0.0
0.0	-2.9456602478357077	3.141592653589793	0.0	0.0	0.0
0.0	-2.9537956819577884	3.141592653589793	0.0	0.0	0.0
0.0	-2.961531116079869	3.141592653589793	0.0	0.0	0.0
0.0	-2.96886655020195	3.141592653589793	0.0	0.0	0.0
0.0	-2.975801984324031	3.141592653589793	0.0	0.0	0.0
0.0	-2.9823374184461118	3.141592653589793	0.0	0.0	0.0
0.0	-2.9884728525681927	3.141592653589793	0.0	0.0	0.0
0.0	-2.9942082866902737	3.141592653589793	0.0	0.0	0.0
0.0	-2.9995437208123548	3.141592653589793	0.0	0.0	0.0
0.0	-3.0044791549344354	3.141592653589793	0.0	0.0	0.0
0.0	-3.0090145890565165	3.141592653589793	0.0	0.0	0.0
0.0	-3.0131500231785973	3.141592653589793	0.0	0.0	0.0
0.0	-3.0168854573006785	3.141592653589793	0.0	0.0	0.0
0.0	-3.0202208914227597	3.141592653589793	0.0	0.0	0.0
0.0	-3.0231563255448406	3.141592653589793	0.0	0.0	0.0
0.0	-3.0256917596669215	3.141592653589793	0.0	0.0	0.0
0.0	-3.027827193789003	3.141592653589793	0.0	0.0	0.0
0.0	-3.029562627911084	3.141592653589793	0.0	0.0	0.0
0.0	-3.030898062033165	3.141592653589793	0.0	0.0	0.0
0.0	-3.031833496155246	3.141592653589793	0.0	0.0	0.0
0.0	-3.0325095753401476	3.141592653589793	0.0	0.0	0.0
0.0	-3.032705275275024	3.141592653589793	0.0	0.0	0.0
0.0	-3.0332753427727264	3.141592653589793	0.0	0.0	0.0
0.0	-3.0341946055880533	3.141592653589793	0.0	0.0	0.0
0.0	-3.0354383901087667	3.141592653589793	0.0	0.0	0.0
0.0	-3.036982517621486	3.141592653589793	0.0	0.0	0.0
0.0	-3.0388033005775896	3.141592653589793	0.0	0.0	0.0
0.0	-3.0408775388590987	3.141592653589793	0.0	0.0	0.0
0.0	-3.043182516044586	3.141592653589793	0.0	0.0	0.0
0.0	-3.0456959956750596	3.141592653589793	0.0	0.0	0.0
0.0	-3.048396217519866	3.141592653589793	0.0	0.0	0.0
0.0	-3.0512618938425806	3.141592653589793	0.0	0.0	0.0
0.0	-3.0542722056669036	3.141592653589793	0.0	0.0	0.0
0.0	-3.0574067990425586	3.141592653589793	0.0	0.0	0.0
0.0	-3.0606457813111834	3.141592653589793	0.0	0.0	0.0
0.0	-3.063969717372229	3.141592653589793	0.0	0.0	0.0
0.0	-3.0673596259488494	3.141592653589793	0.0	0.0	0.0
0.0	-3.0707969758538045	3.141592653589793	0.0	0.0	0.0
0.0	-3.0742636822553475	3.141592653589793	0.0	0.0	0.0
0.0	-3.0777421029431276	3.141592653589793	0.0	0.0	0.0
0.0	-3.081215034594077	3.141592653589793	0.0	0.0	0.0
0.0	-3.0846657090383154	3.141592653589793	0.0	0.0	0.0
0.0	-3.0880777895250358	3.141592653589793	0.0	0.0	0.0
0.0	-3.091435366988406	3.141592653589793	0.0	0.0	0.0
0.0	-3.094722956313463	3.141592653589793	0.0	0.0	0.0
0.0	-3.0979254926020054	3.141592653589793	0.0	0.0	0.0
0.0	-3.101028327438493	3.141592653589793	0.0	0.0	0.0
0.0	-3.104017225155936	3.141592653589793	0.0	0.0	0.0
0.0	-3.1068783591017963	3.141592653589793	0.0	0.0	0.0
0.0	-3.10959830790388	3.141592653589793	0.0	0.0	0.0
0.0	-3.1121640517362295	3.141592653589793	0.0	0.0	0.0
0.0	-3.1145629685850262	3.141592653589793	0.0	0.0	0.0
0.0	-3.116782830514479	3.141592653589793	0.0	0.0	0.0
0.0	-3.118811799932723	3.141592653589793	0.0	0.0	0.0
0.0	-3.1206384258577113	3.141592653589793	0.0	0.0	0.0
0.0	-3.122251640183117	3.141592653589793	0.0	0.0	0.0
0.0	-3.123640753944218	3.141592653589793	0.0	0.0	0.0
0.0	-3.1247954535838036	3.141592653589793	0.0	0.0	0.0
0.0	-3.1257057972180604	3.141592653589793	0.0	0.0	0.0
0.0	-3.126362210902474	3.141592653589793	0.0	0.0	0.0
0.0	-3.126755484897721	3.141592653589793	0.0	0.0	0.0
0.0	-3.1268767699355626	3.141592653589793	0.0	0.0	0.0
0.0	-3.1267175734847443	3.141592653589793	0.0	0.0	0.0
0.0	-3.1262697560168893	3.141592653589793	0.0	0.0	0.0
0.0	-3.1255255272723907	3.141592653589793	0.0	0.0	0.0
0.0	-3.1244774425263113	3.141592653589793	0.0	0.0	0.0
0.0	-3.123118398854276	3.141592653589793	0.0	0.0	0.0
0.0	-3.121441631398368	3.141592653589793	0.0	0.0	0.0
0.0	-3.1194407096330234	3.141592653589793	0.0	0.0	0.0
0.0	-3.1171095336309267	3.141592653589793	0.0	0.0	0.0
0.0	-3.114442330328906	3.141592653589793	0.0	0.0	0.0
0.0	-3.1114336497938297	3.141592653589793	0.0	0.0	0.0
0.0	-3.1080783614884977	3.141592653589793	0.0	0.0	0.0
0.0	-3.104371650537542	3.141592653589793	0.0	0.0	0.0
0.0	-3.1003090139933183	3.141592653589793	0.0	0.0	0.0
0.0	-3.0958862571017995	3.141592653589793	0.0	0.0	0.0
0.0	-3.0910994895684767	3.141592653589793	0.0	0.0	0.0
0.0	-3.0859451218242495	3.141592653589793	0.0	0.0	0.0
0.0	-3.0804198612913254	3.141592653589793	0.0	0.0	0.0
0.0	-3.074520708649107	3.141592653589793	0.0	0.0	0.0
0.0	-3.068244954100098	3.141592653589793	0.0	0.0	0.0
0.0	-3.0615901736357904	3.141592653589793	0.0	0.0	0.0
0.0	-3.0545542253025637	3.141592653589793	0.0	0.0	0.0
0.0	-3.0471352454675773	3.141592653589793	0.0	0.0	0.0
0.0	-3.039331645084669	3.141592653589793	0.0	0.0	0.0
0.0	-3.0311421059602477	3.141592653589793	0.0	0.0	0.0
0.0	-3.0225655770191886	3.141592653589793	0.0	0.0	0.0
0.0	-3.013601270570729	3.141592653589793	0.0	0.0	0.0
0.0	-3.004248658574367	3.141592653589793	0.0	0.0	0.0
0.0	-2.994507468905748	3.141592653589793	0.0	0.0	0.0
0.0	-2.98437768162257	3.141592653589793	0.0	0.0	0.0
0.0	-2.9738595252304703	3.141592653589793	0.0	0.0	0.0
0.0	-2.9629534729489277	3.141592653589793	0.0	0.0	0.0
0.0	-2.9516602389771522	3.141592653589793	0.0	0.0	0.0
0.0	-2.939980774759985	3.141592653589793	0.0	0.0	0.0
0.0	-2.9279162652537867	3.141592653589793	0.0	0.0	0.0
0.0	-2.9154681251923433	3.141592653589793	0.0	0.0	0.0
0.0	-2.9026379953527512	3.141592653589793	0.0	0.0	0.0
0.0	-2.8894277388213148	3.141592653589793	0.0	0.0	0.0
0.0	-2.8758394372594474	3.141592653589793	0.0	0.0	0.0
0.0	-2.861875387169561	3.141592653589793	0.0	0.0	0.0
0.0	-2.847538096160959	3.141592653589793	0.0	0.0	0.0
0.0	-2.8328302792157416	3.141592653589793	0.0	0.0	0.0
0.0	-2.81775485495469	3.141592653589793	0.0	0.0	0.0
0.0	-2.8023149419031683	3.141592653589793	0.0	0.0	0.0
0.0	-2.786513854757014	3.141592653589793	0.0	0.0	0.0
0.0	-2.77035510064844	3.141592653589793	0.0	0.0	0.0
0.0	-2.753842375411922	3.141592653589793	0.0	0.0	0.0
0.0	-2.736979559850099	3.141592653589793	0.0	0.0	0.0
0.0	-2.7197707159996676	3.141592653589793	0.0	0.0	0.0
0.0	-2.7022200833972745	3.141592653589793	0.0	0.0	0.0
0.0	-2.6843320753454134	3.141592653589793	0.0	0.0	0.0
0.0	-2.6661112751783245	3.141592653589793	0.0	0.0	0.0
0.0	-2.647562432527881	3.141592653589793	0.0	0.0	0.0
0.0	-2.6286904595894924	3.141592653589793	0.0	0.0	0.0
0.0	-2.6095004273879923	3.141592653589793	0.0	0.0	0.0
0.0	-2.5899975620435436	3.141592653589793	0.0	0.0	0.0
0.0	-2.5701872410375226	3.141592653589793	0.0	0.0	0.0
0.0	-2.5500749894784205	3.141592653589793	0.0	0.0	0.0
0.0	-2.5296664763677414	3.141592653589793	0.0	0.0	0.0
0.0	-2.5089675108658858	3.141592653589793	0.0	0.0	0.0
0.0	-2.4879840385580607	3.141592653589793	0.0	0.0	0.0
0.0	-2.466722137720165	3.141592653589793	0.0	0.0	0.0
0.0	-2.4451880155846872	3.141592653589793	0.0	0.0	0.0
0.0	-2.4233880046065996	3.141592653589793	0.0	0.0	0.0
0.0	-2.40132855872926	3.141592653589793	0.0	0.0	0.0
0.0	-2.3790162496502925	3.141592653589793	0.0	0.0	0.0
0.0	-2.356457763087503	3.141592653589793	0.0	0.0	0.0
0.0	-2.3336598950447542	3.141592653589793	0.0	0.0	0.0
0.0	-2.310629548077874	3.141592653589793	0.0	0.0	0.0
0.0	-2.287373727560544	3.141592653589793	0.0	0.0	0.0
0.0	-2.2638995379502007	3.141592653589793	0.0	0.0	0.0
0.0	-2.2402141790539263	3.141592653589793	0.0	0.0	0.0
0.0	-2.2163249422943423	3.141592653589793	0.0	0.0	0.0
0.0	-2.1922392069755117	3.141592653589793	0.0	0.0	0.0
0.0	-2.167964436548825	3.141592653589793	0.0	0.0	0.0
0.0	-2.143508174878903	3.141592653589793	0.0	0.0	0.0
0.0	-2.1188780425094906	3.141592653589793	0.0	0.0	0.0
0.0	-2.0940817329293453	3.141592653589793	0.0	0.0	0.0
0.0	-2.0691270088381453	3.141592653589793	0.0	0.0	0.0
0.0	-2.044021698412372	3.141592653589793	0.0	0.0	0.0
0.0	-2.0187736915712104	3.141592653589793	0.0	0.0	0.0
0.0	-1.9933909362424482	3.141592653589793	0.0	0.0	0.0
0.0	-1.9678814346283602	3.141592653589793	0.0	0.0	0.0
0.0	-1.9422532394716203	3.141592653589793	0.0	0.0	0.0
0.0	-1.916514450321177	3.141592653589793	0.0	0.0	0.0
0.0	-1.8906732097981638	3.141592653589793	0.0	0.0	0.0
0.0	-1.8647376998617864	3.141592653589793	0.0	0.0	0.0
0.0	-1.8387161380752237	3.141592653589793	0.0	0.0	0.0
0.0	-1.8126167738715186	3.141592653589793	0.0	0.0	0.0
0.0	-1.7864478848194734	3.141592653589793	0.0	0.0	0.0
0.0	-1.7602177728895467	3.141592653589793	0.0	0.0	0.0
0.0	-1.733934760719749	3.141592653589793	0.0	0.0	0.0
0.0	-1.7076071878815375	3.141592653589793	0.0	0.0	0.0
0.0	-1.681243407145702	3.141592653589793	0.0	0.0	0.0
0.0	-1.654851780748283	3.141592653589793	0.0	0.0	0.0
0.0	-1.6284406766564432	3.141592653589793	0.0	0.0	0.0
0.0	-1.6020184648343774	3.141592653589793	0.0	0.0	0.0
0.0	-1.5755935135091963	3.141592653589793	0.0	0.0	0.0
0.0	-1.549174185436834	3.141592653589793	0.0	0.0	0.0
0.0	-1.5227688341679333	3.141592653589793	0.0	0.0	0.0
0.0	-1.496385800313747	3.141592653589793	0.0	0.0	0.0
0.0	-1.4700334078120318	3.141592653589793	0.0	0.0	0.0
0.0	-1.4437199601929396	3.141592653589793	0.0	0.0	0.0
0.0	-1.4174537368449163	3.141592653589793	0.0	0.0	0.0
0.0	-1.391242989280597	3.141592653589793	0.0	0.0	0.0
0.0	-1.3650959374027063	3.141592653589793	0.0	0.0	0.0
0.0	-1.339020765769932	3.141592653589793	0.0	0.0	0.0
0.0	-1.3130256198628545	3.141592653589793	0.0	0.0	0.0
0.0	-1.2871186023498167	3.141592653589793	0.0	0.0	0.0
0.0	-1.2613077693528214	3.141592653589793	0.0	0.0	0.0
0.0	-1.2356011267134352	3.141592653589793	0.0	0.0	0.0
0.0	-1.2100066262586822	3.141592653589793	0.0	0.0	0.0
0.0	-1.1845321620669331	3.141592653589793	0.0	0.0	0.0
0.0	-1.1591855667338047	3.141592653589793	0.0	0.0	0.0
0.0	-1.1339746076380557	3.141592653589793	0.0	0.0	0.0
0.0	-1.1089069832074814	3.141592653589793	0.0	0.0	0.0
0.0	-1.0839903191848048	3.141592653589793	0.0	0.0	0.0
0.0	-1.0592321648935799	3.141592653589793	0.0	0.0	0.0
0.0	-1.034639989504079	3.141592653589793	0.0	0.0	0.0
0.0	-1.0102211782991963	3.141592653589793	0.0	0.0	0.0
0.0	-0.9859830289403231	3.141592653589793	0.0	0.0	0.0
0.0	-0.9619327477332766	3.141592653589793	0.0	0.0	0.0
0.0	-0.9380774458941663	3.141592653589793	0.0	0.0	0.0
0.0	-0.9144241358153034	3.141592653589793	0.0	0.0	0.0
0.0	-0.8909797273310849	3.141592653589793	0.0	0.0	0.0
0.0	-0.8677510239839115	3.141592653589793	0.0	0.0	0.0
0.0	-0.844744719290043	3.141592653589793	0.0	0.0	0.0
0.0	-0.8219673930055418	3.141592653589793	0.0	0.0	0.0
0.0	-0.7994255073921286	3.141592653589793	0.0	0.0	0.0
0.0	-0.7771254034830966	3.141592653589793	0.0	0.0	0.0
0.0	-0.7550732973492087	3.141592653589793	0.0	0.0	0.0
0.0	-0.7332752763645791	3.141592653589793	0.0	0.0	0.0
0.0	-0.7117372954725765	3.141592653589793	0.0	0.0	0.0
0.0	-0.6904651734517353	3.141592653589793	0.0	0.0	0.0
0.0	-0.6694645891816071	3.141592653589793	0.0	0.0	0.0
0.0	-0.6487410779087162	3.141592653589793	0.0	0.0	0.0
0.0	-0.6283000275123882	3.141592653589793	0.0	0.0	0.0
0.0	-0.6081466747707003	3.141592653589793	0.0	0.0	0.0
0.0	-0.5882861016263625	3.141592653589793	0.0	0.0	0.0
0.0	-0.5687232314525792	3.141592653589793	0.0	0.0	0.0
0.0	-0.5494628253189937	3.141592653589793	0.0	0.0	0.0
0.0	-0.5305094782575539	3.141592653589793	0.0	0.0	0.0
0.0	-0.5118676155284172	3.141592653589793	0.0	0.0	0.0
0.0	-0.49354148888582206	3.141592653589793	0.0	0.0	0.0
0.0	-0.47553517284404023	3.141592653589793	0.0	0.0	0.0
0.0	-0.4578525609432109	3.141592653589793	0.0	0.0	0.0
0.0	-0.4404973620152708	3.141592653589793	0.0	0.0	0.0
0.0	-0.42347309644982456	3.141592653589793	0.0	0.0	0.0
0.0	-0.40678309246006616	3.141592653589793	0.0	0.0	0.0
0.0	-0.39043048234867417	3.141592653589793	0.0	0.0	0.0
0.0	-0.37441819877367255	3.141592653589793	0.0	0.0	0.0
0.0	-0.358748971014359	3.141592653589793	0.0	0.0	0.0
0.0	-0.34342532123719494	3.141592653589793	0.0	0.0	0.0
0.0	-0.32844956076168685	3.141592653589793	0.0	0.0	0.0
0.0	-0.3138237863262905	3.141592653589793	0.0	0.0	0.0
0.0	-0.2995498763543285	3.141592653589793	0.0	0.0	0.0
0.0	-0.28562948721981485	3.141592653589793	0.0	0.0	0.0
0.0	-0.27206404951345675	3.141592653589793	0.0	0.0	0.0
0.0	-0.25885476430844534	3.141592653589793	0.0	0.0	0.0
0.0	-0.24600259942642033	3.141592653589793	0.0	0.0	0.0
0.0	-0.2335082857033317	3.141592653589793	0.0	0.0	0.0
0.0	-0.22137231325534756	3.141592653589793	0.0	0.0	0.0
0.0	-0.20959492774475663	3.141592653589793	0.0	0.0	0.0
0.0	-0.1981761266458424	3.141592653589793	0.0	0.0	0.0
0.0	-0.1871156555107909	3.141592653589793	0.0	0.0	0.0
0.0	-0.17641300423557382	3.141592653589793	0.0	0.0	0.0
0.0	-0.16606740332588288	3.141592653589793	0.0	0.0	0.0
0.0	-0.15607782016296312	3.141592653589793	0.0	0.0	0.0
0.0	-0.1464429552695865	3.141592653589793	0.0	0.0	0.0
0.0	-0.1371612385758727	3.141592653589793	0.0	0.0	0.0
0.0	-0.12823082568517918	3.141592653589793	0.0	0.0	0.0
0.0	-0.11964959414009968	3.141592653589793	0.0	0.0	0.0
0.0	-0.1114151396882459	3.141592653589793	0.0	0.0	0.0
0.0	-0.10352477254820691	3.141592653589793	0.0	0.0	0.0
0.0	-0.09597551367543211	3.141592653589793	0.0	0.0	0.0
0.0	-0.08876409102807337	3.141592653589793	0.0	0.0	0.0
0.0	-0.08188693583297457	3.141592653589793	0.0	0.0	0.0
0.0	-0.07534017885152622	3.141592653589793	0.0	0.0	0.0
0.0	-0.06911964664550929	3.141592653589793	0.0	0.0	0.0
0.0	-0.06322085784304576	3.141592653589793	0.0	0.0	0.0
0.0	-0.057639019404504666	3.141592653589793	0.0	0.0	0.0
0.0	-0.05236902288836376	3.141592653589793	0.0	0.0	0.0
0.0	-0.04740544071709962	3.141592653589793	0.0	0.0	0.0
0.0	-0.04274252244313104	3.141592653589793	0.0	0.0	0.0
0.0	-0.038374191014643344	3.141592653589793	0.0	0.0	0.0
0.0	-0.03429403904156558	3.141592653589793	0.0	0.0	0.0
0.0	-0.030495325061373535	3.141592653589793	0.0	0.0	0.0
0.0	-0.026970969805098832	3.141592653589793	0.0	0.0	0.0
0.0	-0.023713552463092924	3.141592653589793	0.0	0.0	0.0
0.0	-0.02071530695101842	3.141592653589793	0.0	0.0	0.0
0.0	-0.017968118175730297	3.141592653589793	0.0	0.0	0.0
0.0	-0.015463518301114476	3.141592653589793	0.0	0.0	0.0
0.0	-0.01319268301407206	3.141592653589793	0.0	0.0	0.0
0.0	-0.011146427790318825	3.141592653589793	0.0	0.0	0.0
0.0	-0.009315204160383672	3.141592653589793	0.0	0.0	0.0
0.0	-0.0076890959753690424	3.141592653589793	0.0	0.0	0.0
0.0	-0.00625781567302397	3.141592653589793	0.0	0.0	0.0
0.0	-0.005010700543468971	3.141592653589793	0.0	0.0	0.0
0.0	-0.003936708995169624	3.141592653589793	0.0	0.0	0.0
0.0	-0.003024416820863962	3.141592653589793	0.0	0.0	0.0
0.0	-0.0022620134633655198	3.141592653589793	0.0	0.0	0.0
0.0	-0.001637298281551125	3.141592653589793	0.0	0.0	0.0
0.0	-0.0011376768162207895	3.141592653589793	0.0	0.0	0.0
0.0	-0.0007501570559647064	3.141592653589793	0.0	0.0	0.0
0.0	-0.0004613457030764323	3.141592653589793	0.0	0.0	0.0
0.0	-0.00025744443947317563	3.141592653589793	0.0	0.0	0.0
0.0	-0.000124246192594768	3.141592653589793	0.0	0.0	0.0
0.0	-4.713140123513426e-05	3.141592653589793	0.0	0.0	0.0
0.0	-1.1064281480344107e-05	3.141592653589793	0.0	0.0	0.0
0.0	-5.890926360052617e-07	3.141592653589793	0.0	0.0	0.0
