corentinberge/project_M2/Robot/Yaskawa/Code/src/identification_YASKAWA/All_positiondata_file.txt
q1	q2	q3	q4	q5	q6
0.0	0.0	3.141592653589793	0.0	0.0	0.0
-1.1236369219759312e-06	0.0	3.141592653589793	0.0	0.0	0.0
-8.947918642337278e-06	0.0	3.141592653589793	0.0	0.0	0.0
-3.0060561811106246e-05	0.0	3.141592653589793	0.0	0.0	0.0
-7.092671069150192e-05	0.0	3.141592653589793	0.0	0.0	0.0
-0.00013788962131249256	0.0	3.141592653589793	0.0	0.0	0.0
-0.0002371713456213482	0.0	3.141592653589793	0.0	0.0	0.0
-0.000374873415636193	0.0	3.141592653589793	0.0	0.0	0.0
-0.0005569775275985576	0.0	3.141592653589793	0.0	0.0	0.0
-0.0007893462261259314	0.0	3.141592653589793	0.0	0.0	0.0
-0.001077723588364316	0.0	3.141592653589793	0.0	0.0	0.0
-0.001427735908140776	0.0	3.141592653589793	0.0	0.0	0.0
-0.001844892380115993	0.0	3.141592653589793	0.0	0.0	0.0
-0.002334585783936816	0.0	3.141592653589793	0.0	0.0	0.0
-0.0029020931683888186	0.0	3.141592653589793	0.0	0.0	0.0
-0.0035525765355488444	0.0	3.141592653589793	0.0	0.0	0.0
-0.004291083524937564	0.0	3.141592653589793	0.0	0.0	0.0
-0.005122548097672025	0.0	3.141592653589793	0.0	0.0	0.0
-0.006051791220618211	0.0	3.141592653589793	0.0	0.0	0.0
-0.0070835215505435836	0.0	3.141592653589793	0.0	0.0	0.0
-0.008222336118269643	0.0	3.141592653589793	0.0	0.0	0.0
-0.009472721012824474	0.0	3.141592653589793	0.0	0.0	0.0
-0.010839052065595307	0.0	3.141592653589793	0.0	0.0	0.0
-0.012325595534481062	0.0	3.141592653589793	0.0	0.0	0.0
-0.013936508788044906	0.0	3.141592653589793	0.0	0.0	0.0
-0.0156758409896668	0.0	3.141592653589793	0.0	0.0	0.0
-0.017547533781696066	0.0	3.141592653589793	0.0	0.0	0.0
-0.01955542196960392	0.0	3.141592653589793	0.0	0.0	0.0
-0.021703234206136034	0.0	3.141592653589793	0.0	0.0	0.0
-0.023994593675465085	0.0	3.141592653589793	0.0	0.0	0.0
-0.02643301877734332	0.0	3.141592653589793	0.0	0.0	0.0
-0.02902192381125509	0.0	3.141592653589793	0.0	0.0	0.0
-0.031764619660569406	0.0	3.141592653589793	0.0	0.0	0.0
-0.03466431447669251	0.0	3.141592653589793	0.0	0.0	0.0
-0.03772411436322041	0.0	3.141592653589793	0.0	0.0	0.0
-0.04094702406009143	0.0	3.141592653589793	0.0	0.0	0.0
-0.044335947627738764	0.0	3.141592653589793	0.0	0.0	0.0
-0.04789368913124307	0.0	3.141592653589793	0.0	0.0	0.0
-0.051622953324484924	0.0	3.141592653589793	0.0	0.0	0.0
-0.05552634633429749	0.0	3.141592653589793	0.0	0.0	0.0
-0.05960637634461896	0.0	3.141592653589793	0.0	0.0	0.0
-0.06386545428064525	0.0	3.141592653589793	0.0	0.0	0.0
-0.06830589449298237	0.0	3.141592653589793	0.0	0.0	0.0
-0.07292991544179911	0.0	3.141592653589793	0.0	0.0	0.0
-0.07773964038097958	0.0	3.141592653589793	0.0	0.0	0.0
-0.0827370980422757	0.0	3.141592653589793	0.0	0.0	0.0
-0.08792422331945986	0.0	3.141592653589793	0.0	0.0	0.0
-0.09330285795247724	0.0	3.141592653589793	0.0	0.0	0.0
-0.0988747512115987	0.0	3.141592653589793	0.0	0.0	0.0
-0.10464156058157309	0.0	3.141592653589793	0.0	0.0	0.0
-0.11060485244577975	0.0	3.141592653589793	0.0	0.0	0.0
-0.11676610277038146	0.0	3.141592653589793	0.0	0.0	0.0
-0.12312669778847646	0.0	3.141592653589793	0.0	0.0	0.0
-0.12968793468425138	0.0	3.141592653589793	0.0	0.0	0.0
-0.13645102227713357	0.0	3.141592653589793	0.0	0.0	0.0
-0.1434170817059439	0.0	3.141592653589793	0.0	0.0	0.0
-0.15058714711304905	0.0	3.141592653589793	0.0	0.0	0.0
-0.15796216632851412	0.0	3.141592653589793	0.0	0.0	0.0
-0.1655430015542554	0.0	3.141592653589793	0.0	0.0	0.0
-0.1733304300481927	0.0	3.141592653589793	0.0	0.0	0.0
-0.1813251448084019	0.0	3.141592653589793	0.0	0.0	0.0
-0.1895277552572676	0.0	3.141592653589793	0.0	0.0	0.0
-0.1979387879256357	0.0	3.141592653589793	0.0	0.0	0.0
-0.20655868713696582	0.0	3.141592653589793	0.0	0.0	0.0
-0.21538781569148388	0.0	3.141592653589793	0.0	0.0	0.0
-0.22442645555033489	0.0	3.141592653589793	0.0	0.0	0.0
-0.23367480851973504	0.0	3.141592653589793	0.0	0.0	0.0
-0.2431329969351247	0.0	3.141592653589793	0.0	0.0	0.0
-0.2528010643453208	0.0	3.141592653589793	0.0	0.0	0.0
-0.26267897619666924	0.0	3.141592653589793	0.0	0.0	0.0
-0.27276662051719763	0.0	3.141592653589793	0.0	0.0	0.0
-0.28306380860076796	0.0	3.141592653589793	0.0	0.0	0.0
-0.2935702756912288	0.0	3.141592653589793	0.0	0.0	0.0
-0.30428568166656805	0.0	3.141592653589793	0.0	0.0	0.0
-0.3152096117230654	0.0	3.141592653589793	0.0	0.0	0.0
-0.32634157705944533	0.0	3.141592653589793	0.0	0.0	0.0
-0.3376810155610287	0.0	3.141592653589793	0.0	0.0	0.0
-0.34922729248388645	0.0	3.141592653589793	0.0	0.0	0.0
-0.3609797011389913	0.0	3.141592653589793	0.0	0.0	0.0
-0.3729374635763705	0.0	3.141592653589793	0.0	0.0	0.0
-0.3850997312692589	0.0	3.141592653589793	0.0	0.0	0.0
-0.3974655857982508	0.0	3.141592653589793	0.0	0.0	0.0
-0.4100340395354527	0.0	3.141592653589793	0.0	0.0	0.0
-0.4228040363286362	0.0	3.141592653589793	0.0	0.0	0.0
-0.43577445218539007	0.0	3.141592653589793	0.0	0.0	0.0
-0.44894409595727297	0.0	3.141592653589793	0.0	0.0	0.0
-0.4623117100239664	0.0	3.141592653589793	0.0	0.0	0.0
-0.47587597097742673	0.0	3.141592653589793	0.0	0.0	0.0
-0.4896354903060376	0.0	3.141592653589793	0.0	0.0	0.0
-0.5035888150787634	0.0	3.141592653589793	0.0	0.0	0.0
-0.5177344286293009	0.0	3.141592653589793	0.0	0.0	0.0
-0.5320707512402318	0.0	3.141592653589793	0.0	0.0	0.0
-0.5465961408271764	0.0	3.141592653589793	0.0	0.0	0.0
-0.5613088936229447	0.0	3.141592653589793	0.0	0.0	0.0
-0.5762072448616901	0.0	3.141592653589793	0.0	0.0	0.0
-0.5912893694630608	0.0	3.141592653589793	0.0	0.0	0.0
-0.6065533827163538	0.0	3.141592653589793	0.0	0.0	0.0
-0.621997340964666	0.0	3.141592653589793	0.0	0.0	0.0
-0.6376192422890482	0.0	3.141592653589793	0.0	0.0	0.0
-0.653417027192656	0.0	3.141592653589793	0.0	0.0	0.0
-0.6693885792849038	0.0	3.141592653589793	0.0	0.0	0.0
-0.6855317259656167	0.0	3.141592653589793	0.0	0.0	0.0
-0.7018442391091829	0.0	3.141592653589793	0.0	0.0	0.0
-0.7183238357487065	0.0	3.141592653589793	0.0	0.0	0.0
-0.7349681787601607	0.0	3.141592653589793	0.0	0.0	0.0
-0.7517748775465386	0.0	3.141592653589793	0.0	0.0	0.0
-0.7687414887220081	0.0	3.141592653589793	0.0	0.0	0.0
-0.7858655167960619	0.0	3.141592653589793	0.0	0.0	0.0
-0.8031444148576723	0.0	3.141592653589793	0.0	0.0	0.0
-0.8205755852594422	0.0	3.141592653589793	0.0	0.0	0.0
-0.8381563803017589	0.0	3.141592653589793	0.0	0.0	0.0
-0.8558841029169454	0.0	3.141592653589793	0.0	0.0	0.0
-0.8737560073534137	0.0	3.141592653589793	0.0	0.0	0.0
-0.8917692998598177	0.0	3.141592653589793	0.0	0.0	0.0
-0.9099211393692048	0.0	3.141592653589793	0.0	0.0	0.0
-0.9282086381831683	0.0	3.141592653589793	0.0	0.0	0.0
-0.9466288626560021	0.0	3.141592653589793	0.0	0.0	0.0
-0.9651788338788506	0.0	3.141592653589793	0.0	0.0	0.0
-0.9838555283638626	0.0	3.141592653589793	0.0	0.0	0.0
-1.002655878728344	0.0	3.141592653589793	0.0	0.0	0.0
-1.0215767743789095	0.0	3.141592653589793	0.0	0.0	0.0
-1.0406150621956347	0.0	3.141592653589793	0.0	0.0	0.0
-1.0597675472162122	0.0	3.141592653589793	0.0	0.0	0.0
-1.0790309933200999	0.0	3.141592653589793	0.0	0.0	0.0
-1.0984021239126744	0.0	3.141592653589793	0.0	0.0	0.0
-1.1178776226093858	0.0	3.141592653589793	0.0	0.0	0.0
-1.137454133919908	0.0	3.141592653589793	0.0	0.0	0.0
-1.1571282639322924	0.0	3.141592653589793	0.0	0.0	0.0
-1.1768965809971206	0.0	3.141592653589793	0.0	0.0	0.0
-1.196755616411655	0.0	3.141592653589793	0.0	0.0	0.0
-1.216701865103994	0.0	3.141592653589793	0.0	0.0	0.0
-1.2367317863172225	0.0	3.141592653589793	0.0	0.0	0.0
-1.2568418042935667	0.0	3.141592653589793	0.0	0.0	0.0
-1.2770283089585435	0.0	3.141592653589793	0.0	0.0	0.0
-1.2972876566051161	0.0	3.141592653589793	0.0	0.0	0.0
-1.3176161705778449	0.0	3.141592653589793	0.0	0.0	0.0
-1.3380101419570405	0.0	3.141592653589793	0.0	0.0	0.0
-1.3584658302429147	0.0	3.141592653589793	0.0	0.0	0.0
-1.378979464039738	0.0	3.141592653589793	0.0	0.0	0.0
-1.399547241739985	0.0	3.141592653589793	0.0	0.0	0.0
-1.4201653322084926	0.0	3.141592653589793	0.0	0.0	0.0
-1.44082987546661	0.0	3.141592653589793	0.0	0.0	0.0
-1.4615369833763527	0.0	3.141592653589793	0.0	0.0	0.0
-1.482282740324552	0.0	3.141592653589793	0.0	0.0	0.0
-1.5030632039070126	0.0	3.141592653589793	0.0	0.0	0.0
-1.52387440561266	0.0	3.141592653589793	0.0	0.0	0.0
-1.5447123515076968	0.0	3.141592653589793	0.0	0.0	0.0
-1.5655730229197535	0.0	3.141592653589793	0.0	0.0	0.0
-1.5864523771220405	0.0	3.141592653589793	0.0	0.0	0.0
-1.6073463480175005	0.0	3.141592653589793	0.0	0.0	0.0
-1.6282508468229668	0.0	3.141592653589793	0.0	0.0	0.0
-1.6491617627533062	0.0	3.141592653589793	0.0	0.0	0.0
-1.670074963705578	0.0	3.141592653589793	0.0	0.0	0.0
-1.6909862969431841	0.0	3.141592653589793	0.0	0.0	0.0
-1.7118915897800266	0.0	3.141592653589793	0.0	0.0	0.0
-1.7327866502646523	0.0	3.141592653589793	0.0	0.0	0.0
-1.7536672678644072	0.0	3.141592653589793	0.0	0.0	0.0
-1.7745292141495972	0.0	3.141592653589793	0.0	0.0	0.0
-1.7953682434776304	0.0	3.141592653589793	0.0	0.0	0.0
-1.816180093677172	0.0	3.141592653589793	0.0	0.0	0.0
-1.8369604867323042	0.0	3.141592653589793	0.0	0.0	0.0
-1.8577051294666682	0.0	3.141592653589793	0.0	0.0	0.0
-1.8784097142276237	0.0	3.141592653589793	0.0	0.0	0.0
-1.8990699195704002	0.0	3.141592653589793	0.0	0.0	0.0
-1.9196814109422462	0.0	3.141592653589793	0.0	0.0	0.0
-1.9402398413665873	0.0	3.141592653589793	0.0	0.0	0.0
-1.9607408521271723	0.0	3.141592653589793	0.0	0.0	0.0
-1.9811800734522338	0.0	3.141592653589793	0.0	0.0	0.0
-2.001553125198632	0.0	3.141592653589793	0.0	0.0	0.0
-2.0218556175360143	0.0	3.141592653589793	0.0	0.0	0.0
-2.0420831516309628	0.0	3.141592653589793	0.0	0.0	0.0
-2.0622313203311515	0.0	3.141592653589793	0.0	0.0	0.0
-2.082295708849493	0.0	3.141592653589793	0.0	0.0	0.0
-2.102271895448299	0.0	3.141592653589793	0.0	0.0	0.0
-2.1221554521234234	0.0	3.141592653589793	0.0	0.0	0.0
-2.1419419452884245	0.0	3.141592653589793	0.0	0.0	0.0
-2.161626936458708	0.0	3.141592653589793	0.0	0.0	0.0
-2.181205982935688	0.0	3.141592653589793	0.0	0.0	0.0
-2.200674638490935	0.0	3.141592653589793	0.0	0.0	0.0
-2.220028454050328	0.0	3.141592653589793	0.0	0.0	0.0
-2.2392629783782123	0.0	3.141592653589793	0.0	0.0	0.0
-2.2583737587615436	0.0	3.141592653589793	0.0	0.0	0.0
-2.2773563416940457	0.0	3.141592653589793	0.0	0.0	0.0
-2.2962062735603657	0.0	3.141592653589793	0.0	0.0	0.0
-2.3149191013202213	0.0	3.141592653589793	0.0	0.0	0.0
-2.3334903731925554	0.0	3.141592653589793	0.0	0.0	0.0
-2.3519156393396856	0.0	3.141592653589793	0.0	0.0	0.0
-2.3701904525514683	0.0	3.141592653589793	0.0	0.0	0.0
-2.3883103689294334	0.0	3.141592653589793	0.0	0.0	0.0
-2.4062709485709513	0.0	3.141592653589793	0.0	0.0	0.0
-2.42406775625338	0.0	3.141592653589793	0.0	0.0	0.0
-2.441696362118215	0.0	3.141592653589793	0.0	0.0	0.0
-2.4591523423552504	0.0	3.141592653589793	0.0	0.0	0.0
-2.4764312798867194	0.0	3.141592653589793	0.0	0.0	0.0
-2.493528765051459	0.0	3.141592653589793	0.0	0.0	0.0
-2.5104403962890514	0.0	3.141592653589793	0.0	0.0	0.0
-2.5271617808239855	0.0	3.141592653589793	0.0	0.0	0.0
-2.54368853534981	0.0	3.141592653589793	0.0	0.0	0.0
-2.560016286713273	0.0	3.141592653589793	0.0	0.0	0.0
-2.576140672598491	0.0	3.141592653589793	0.0	0.0	0.0
-2.5920573422110884	0.0	3.141592653589793	0.0	0.0	0.0
-2.60776195696236	0.0	3.141592653589793	0.0	0.0	0.0
-2.623250191153418	0.0	3.141592653589793	0.0	0.0	0.0
-2.638517732659343	0.0	3.141592653589793	0.0	0.0	0.0
-2.6535602836133427	0.0	3.141592653589793	0.0	0.0	0.0
-2.6683735610908985	0.0	3.141592653589793	0.0	0.0	0.0
-2.6829532977939263	0.0	3.141592653589793	0.0	0.0	0.0
-2.6972952427349153	0.0	3.141592653589793	0.0	0.0	0.0
-2.711395161921093	0.0	3.141592653589793	0.0	0.0	0.0
-2.7252488390385734	0.0	3.141592653589793	0.0	0.0	0.0
-2.7388520761365034	0.0	3.141592653589793	0.0	0.0	0.0
-2.752200694311237	0.0	3.141592653589793	0.0	0.0	0.0
-2.765290534390453	0.0	3.141592653589793	0.0	0.0	0.0
-2.7781174576173417	0.0	3.141592653589793	0.0	0.0	0.0
-2.790677346334732	0.0	3.141592653589793	0.0	0.0	0.0
-2.8029661046692604	0.0	3.141592653589793	0.0	0.0	0.0
-2.814979659215523	0.0	3.141592653589793	0.0	0.0	0.0
-2.8267139597202084	0.0	3.141592653589793	0.0	0.0	0.0
-2.8381649797662742	0.0	3.141592653589793	0.0	0.0	0.0
-2.8493287174570905	0.0	3.141592653589793	0.0	0.0	0.0
-2.8602011961005904	0.0	3.141592653589793	0.0	0.0	0.0
-2.870778464893422	0.0	3.141592653589793	0.0	0.0	0.0
-2.8810565996051047	0.0	3.141592653589793	0.0	0.0	0.0
-2.8910317032621813	0.0	3.141592653589793	0.0	0.0	0.0
-2.900699906832366	0.0	3.141592653589793	0.0	0.0	0.0
-2.9100573699087033	0.0	3.141592653589793	0.0	0.0	0.0
-2.9191002813937144	0.0	3.141592653589793	0.0	0.0	0.0
-2.9278248601835593	0.0	3.141592653589793	0.0	0.0	0.0
-2.936227355852174	0.0	3.141592653589793	0.0	0.0	0.0
-2.944304049335441	0.0	3.141592653589793	0.0	0.0	0.0
-2.952051253615329	0.0	3.141592653589793	0.0	0.0	0.0
-2.9594653144040395	0.0	3.141592653589793	0.0	0.0	0.0
-2.96654261082819	0.0	3.141592653589793	0.0	0.0	0.0
-2.973279556112928	0.0	3.141592653589793	0.0	0.0	0.0
-2.979672598266108	0.0	3.141592653589793	0.0	0.0	0.0
-2.9857182207624335	0.0	3.141592653589793	0.0	0.0	0.0
-2.9914129432276244	0.0	3.141592653589793	0.0	0.0	0.0
-2.9967533221225446	0.0	3.141592653589793	0.0	0.0	0.0
-3.0017359514273796	0.0	3.141592653589793	0.0	0.0	0.0
-3.0063574633257684	0.0	3.141592653589793	0.0	0.0	0.0
-3.010614528888971	0.0	3.141592653589793	0.0	0.0	0.0
-3.0145038587600137	0.0	3.141592653589793	0.0	0.0	0.0
-3.0180222038378473	0.0	3.141592653589793	0.0	0.0	0.0
-3.0211663559614887	0.0	3.141592653589793	0.0	0.0	0.0
-3.02393314859419	0.0	3.141592653589793	0.0	0.0	0.0
-3.0263194575075714	0.0	3.141592653589793	0.0	0.0	0.0
-3.028322201465791	0.0	3.141592653589793	0.0	0.0	0.0
-3.0299383429096904	0.0	3.141592653589793	0.0	0.0	0.0
-3.03116488864094	0.0	3.141592653589793	0.0	0.0	0.0
-3.0319988905062054	0.0	3.141592653589793	0.0	0.0	0.0
-3.032437446081298	0.0	3.141592653589793	0.0	0.0	0.0
-3.0325095753401476	0.0	3.141592653589793	0.0	0.0	0.0
-3.0325095753401476	0.0	3.141592653589793	0.0	0.0	0.0
-3.0323095753401477	0.0	3.141592653589793	0.0	0.0	0.0
-3.0317095753401477	0.0	3.141592653589793	0.0	0.0	0.0
-3.030709575340148	0.0	3.141592653589793	0.0	0.0	0.0
-3.0293095753401476	0.0	3.141592653589793	0.0	0.0	0.0
-3.0275095753401478	0.0	3.141592653589793	0.0	0.0	0.0
-3.0253095753401475	0.0	3.141592653589793	0.0	0.0	0.0
-3.022709575340148	0.0	3.141592653589793	0.0	0.0	0.0
-3.0197095753401477	0.0	3.141592653589793	0.0	0.0	0.0
-3.0163095753401477	0.0	3.141592653589793	0.0	0.0	0.0
-3.0125095753401476	0.0	3.141592653589793	0.0	0.0	0.0
-3.0083095753401476	0.0	3.141592653589793	0.0	0.0	0.0
-3.0037095753401477	0.0	3.141592653589793	0.0	0.0	0.0
-2.998709575340148	0.0	3.141592653589793	0.0	0.0	0.0
-2.9933095753401475	0.0	3.141592653589793	0.0	0.0	0.0
-2.9875095753401477	0.0	3.141592653589793	0.0	0.0	0.0
-2.9813095753401475	0.0	3.141592653589793	0.0	0.0	0.0
-2.974709575340148	0.0	3.141592653589793	0.0	0.0	0.0
-2.9677095753401477	0.0	3.141592653589793	0.0	0.0	0.0
-2.9603095753401476	0.0	3.141592653589793	0.0	0.0	0.0
-2.9525095753401476	0.0	3.141592653589793	0.0	0.0	0.0
-2.9443095753401476	0.0	3.141592653589793	0.0	0.0	0.0
-2.9357095753401476	0.0	3.141592653589793	0.0	0.0	0.0
-2.9267095753401478	0.0	3.141592653589793	0.0	0.0	0.0
-2.9173095753401475	0.0	3.141592653589793	0.0	0.0	0.0
-2.9075095753401476	0.0	3.141592653589793	0.0	0.0	0.0
-2.8973095753401474	0.0	3.141592653589793	0.0	0.0	0.0
-2.8867095753401477	0.0	3.141592653589793	0.0	0.0	0.0
-2.8757095753401476	0.0	3.141592653589793	0.0	0.0	0.0
-2.8643095753401475	0.0	3.141592653589793	0.0	0.0	0.0
-2.8525095753401475	0.0	3.141592653589793	0.0	0.0	0.0
-2.8403095753401475	0.0	3.141592653589793	0.0	0.0	0.0
-2.8277095753401476	0.0	3.141592653589793	0.0	0.0	0.0
-2.8147095753401477	0.0	3.141592653589793	0.0	0.0	0.0
-2.8013095753401474	0.0	3.141592653589793	0.0	0.0	0.0
-2.7875095753401475	0.0	3.141592653589793	0.0	0.0	0.0
-2.7733095753401473	0.0	3.141592653589793	0.0	0.0	0.0
-2.7587095753401476	0.0	3.141592653589793	0.0	0.0	0.0
-2.7437095753401475	0.0	3.141592653589793	0.0	0.0	0.0
-2.7283095753401474	0.0	3.141592653589793	0.0	0.0	0.0
-2.7125095753401474	0.0	3.141592653589793	0.0	0.0	0.0
-2.6963095753401474	0.0	3.141592653589793	0.0	0.0	0.0
-2.6797095753401474	0.0	3.141592653589793	0.0	0.0	0.0
-2.6627095753401475	0.0	3.141592653589793	0.0	0.0	0.0
-2.645309575340147	0.0	3.141592653589793	0.0	0.0	0.0
-2.6275095753401474	0.0	3.141592653589793	0.0	0.0	0.0
-2.609309575340147	0.0	3.141592653589793	0.0	0.0	0.0
-2.590709575340147	0.0	3.141592653589793	0.0	0.0	0.0
-2.5717095753401473	0.0	3.141592653589793	0.0	0.0	0.0
-2.5523095753401472	0.0	3.141592653589793	0.0	0.0	0.0
-2.532509575340147	0.0	3.141592653589793	0.0	0.0	0.0
-2.512309575340147	0.0	3.141592653589793	0.0	0.0	0.0
-2.4917095753401473	0.0	3.141592653589793	0.0	0.0	0.0
-2.4707095753401473	0.0	3.141592653589793	0.0	0.0	0.0
-2.449309575340147	0.0	3.141592653589793	0.0	0.0	0.0
-2.427509575340147	0.0	3.141592653589793	0.0	0.0	0.0
-2.405309575340147	0.0	3.141592653589793	0.0	0.0	0.0
-2.382724898911771	0.0	3.141592653589793	0.0	0.0	0.0
-2.3600356186358447	0.0	3.141592653589793	0.0	0.0	0.0
-2.337346338359918	0.0	3.141592653589793	0.0	0.0	0.0
-2.314657058083992	0.0	3.141592653589793	0.0	0.0	0.0
-2.2919677778080656	0.0	3.141592653589793	0.0	0.0	0.0
-2.269278497532139	0.0	3.141592653589793	0.0	0.0	0.0
-2.2465892172562127	0.0	3.141592653589793	0.0	0.0	0.0
-2.2238999369802865	0.0	3.141592653589793	0.0	0.0	0.0
-2.2012106567043603	0.0	3.141592653589793	0.0	0.0	0.0
-2.178521376428434	0.0	3.141592653589793	0.0	0.0	0.0
-2.1558320961525075	0.0	3.141592653589793	0.0	0.0	0.0
-2.1331428158765813	0.0	3.141592653589793	0.0	0.0	0.0
-2.110453535600655	0.0	3.141592653589793	0.0	0.0	0.0
-2.087764255324729	0.0	3.141592653589793	0.0	0.0	0.0
-2.0650749750488027	0.0	3.141592653589793	0.0	0.0	0.0
-2.042385694772876	0.0	3.141592653589793	0.0	0.0	0.0
-2.01969641449695	0.0	3.141592653589793	0.0	0.0	0.0
-1.9970071342210236	0.0	3.141592653589793	0.0	0.0	0.0
-1.9743178539450972	0.0	3.141592653589793	0.0	0.0	0.0
-1.951628573669171	0.0	3.141592653589793	0.0	0.0	0.0
-1.9289392933932445	0.0	3.141592653589793	0.0	0.0	0.0
-1.9062500131173183	0.0	3.141592653589793	0.0	0.0	0.0
-1.883560732841392	0.0	3.141592653589793	0.0	0.0	0.0
-1.8608714525654657	0.0	3.141592653589793	0.0	0.0	0.0
-1.8381821722895393	0.0	3.141592653589793	0.0	0.0	0.0
-1.815492892013613	0.0	3.141592653589793	0.0	0.0	0.0
-1.7928036117376869	0.0	3.141592653589793	0.0	0.0	0.0
-1.7701143314617604	0.0	3.141592653589793	0.0	0.0	0.0
-1.7474250511858342	0.0	3.141592653589793	0.0	0.0	0.0
-1.7247357709099078	0.0	3.141592653589793	0.0	0.0	0.0
-1.7020464906339816	0.0	3.141592653589793	0.0	0.0	0.0
-1.6793572103580552	0.0	3.141592653589793	0.0	0.0	0.0
-1.656667930082129	0.0	3.141592653589793	0.0	0.0	0.0
-1.6339786498062026	0.0	3.141592653589793	0.0	0.0	0.0
-1.6112893695302763	0.0	3.141592653589793	0.0	0.0	0.0
-1.58860008925435	0.0	3.141592653589793	0.0	0.0	0.0
-1.5659108089784237	0.0	3.141592653589793	0.0	0.0	0.0
-1.5432215287024975	0.0	3.141592653589793	0.0	0.0	0.0
-1.520532248426571	0.0	3.141592653589793	0.0	0.0	0.0
-1.4978429681506449	0.0	3.141592653589793	0.0	0.0	0.0
-1.4751536878747185	0.0	3.141592653589793	0.0	0.0	0.0
-1.4524644075987923	0.0	3.141592653589793	0.0	0.0	0.0
-1.4297751273228658	0.0	3.141592653589793	0.0	0.0	0.0
-1.4070858470469396	0.0	3.141592653589793	0.0	0.0	0.0
-1.3843965667710132	0.0	3.141592653589793	0.0	0.0	0.0
-1.361707286495087	0.0	3.141592653589793	0.0	0.0	0.0
-1.3390180062191608	0.0	3.141592653589793	0.0	0.0	0.0
-1.3163287259432344	0.0	3.141592653589793	0.0	0.0	0.0
-1.2936394456673082	0.0	3.141592653589793	0.0	0.0	0.0
-1.2709501653913817	0.0	3.141592653589793	0.0	0.0	0.0
-1.2482608851154555	0.0	3.141592653589793	0.0	0.0	0.0
-1.225571604839529	0.0	3.141592653589793	0.0	0.0	0.0
-1.202882324563603	0.0	3.141592653589793	0.0	0.0	0.0
-1.1801930442876765	0.0	3.141592653589793	0.0	0.0	0.0
-1.1575037640117503	0.0	3.141592653589793	0.0	0.0	0.0
-1.1348144837358238	0.0	3.141592653589793	0.0	0.0	0.0
-1.1121252034598976	0.0	3.141592653589793	0.0	0.0	0.0
-1.0894359231839714	0.0	3.141592653589793	0.0	0.0	0.0
-1.066746642908045	0.0	3.141592653589793	0.0	0.0	0.0
-1.0440573626321188	0.0	3.141592653589793	0.0	0.0	0.0
-1.0213680823561924	0.0	3.141592653589793	0.0	0.0	0.0
-0.9986788020802662	0.0	3.141592653589793	0.0	0.0	0.0
-0.97598952180434	0.0	3.141592653589793	0.0	0.0	0.0
-0.9533002415284133	0.0	3.141592653589793	0.0	0.0	0.0
-0.9306109612524871	0.0	3.141592653589793	0.0	0.0	0.0
-0.9079216809765609	0.0	3.141592653589793	0.0	0.0	0.0
-0.8852324007006347	0.0	3.141592653589793	0.0	0.0	0.0
-0.8625431204247085	0.0	3.141592653589793	0.0	0.0	0.0
-0.8398538401487818	0.0	3.141592653589793	0.0	0.0	0.0
-0.8171645598728556	0.0	3.141592653589793	0.0	0.0	0.0
-0.7944752795969294	0.0	3.141592653589793	0.0	0.0	0.0
-0.7717859993210032	0.0	3.141592653589793	0.0	0.0	0.0
-0.749096719045077	0.0	3.141592653589793	0.0	0.0	0.0
-0.7264074387691504	0.0	3.141592653589793	0.0	0.0	0.0
-0.7037181584932246	0.0	3.141592653589793	0.0	0.0	0.0
-0.6810288782172975	0.0	3.141592653589793	0.0	0.0	0.0
-0.6583395979413718	0.0	3.141592653589793	0.0	0.0	0.0
-0.6356503176654451	0.0	3.141592653589793	0.0	0.0	0.0
-0.6129610373895193	0.0	3.141592653589793	0.0	0.0	0.0
-0.5902717571135923	0.0	3.141592653589793	0.0	0.0	0.0
-0.5675824768376665	0.0	3.141592653589793	0.0	0.0	0.0
-0.5448931965617398	0.0	3.141592653589793	0.0	0.0	0.0
-0.5222039162858141	0.0	3.141592653589793	0.0	0.0	0.0
-0.499514636009887	0.0	3.141592653589793	0.0	0.0	0.0
-0.47682535573396123	0.0	3.141592653589793	0.0	0.0	0.0
-0.4541360754580346	0.0	3.141592653589793	0.0	0.0	0.0
-0.4314467951821088	0.0	3.141592653589793	0.0	0.0	0.0
-0.40875751490618173	0.0	3.141592653589793	0.0	0.0	0.0
-0.38606823463025597	0.0	3.141592653589793	0.0	0.0	0.0
-0.3633789543543293	0.0	3.141592653589793	0.0	0.0	0.0
-0.34068967407840356	0.0	3.141592653589793	0.0	0.0	0.0
-0.3180003938024769	0.0	3.141592653589793	0.0	0.0	0.0
-0.2953111135265507	0.0	3.141592653589793	0.0	0.0	0.0
-0.27262183325062406	0.0	3.141592653589793	0.0	0.0	0.0
-0.2499325529746983	0.0	3.141592653589793	0.0	0.0	0.0
-0.22724327269877165	0.0	3.141592653589793	0.0	0.0	0.0
-0.2045539924228459	0.0	3.141592653589793	0.0	0.0	0.0
-0.1818647121469188	0.0	3.141592653589793	0.0	0.0	0.0
-0.15917543187099303	0.0	3.141592653589793	0.0	0.0	0.0
-0.13648615159506639	0.0	3.141592653589793	0.0	0.0	0.0
-0.11379687131914062	0.0	3.141592653589793	0.0	0.0	0.0
-0.09110759104321353	0.0	3.141592653589793	0.0	0.0	0.0
-0.06841831076728777	0.0	3.141592653589793	0.0	0.0	0.0
-0.04572903049136112	0.0	3.141592653589793	0.0	0.0	0.0
-0.02303975021543536	0.0	3.141592653589793	0.0	0.0	0.0
-0.0003504699395082689	0.0	3.141592653589793	0.0	0.0	0.0
0.02233881033641749	0.0	3.141592653589793	0.0	0.0	0.0
0.04502809061234414	0.0	3.141592653589793	0.0	0.0	0.0
0.0677173708882699	0.0	3.141592653589793	0.0	0.0	0.0
0.09040665116419655	0.0	3.141592653589793	0.0	0.0	0.0
0.11309593144012275	0.0	3.141592653589793	0.0	0.0	0.0
0.1357852117160494	0.0	3.141592653589793	0.0	0.0	0.0
0.15847449199197516	0.0	3.141592653589793	0.0	0.0	0.0
0.1811637722679018	0.0	3.141592653589793	0.0	0.0	0.0
0.20385305254382757	0.0	3.141592653589793	0.0	0.0	0.0
0.22654233281975467	0.0	3.141592653589793	0.0	0.0	0.0
0.24923161309568043	0.0	3.141592653589793	0.0	0.0	0.0
0.2719208933716071	0.0	3.141592653589793	0.0	0.0	0.0
0.29461017364753284	0.0	3.141592653589793	0.0	0.0	0.0
0.31729945392345993	0.0	3.141592653589793	0.0	0.0	0.0
0.3399887341993857	0.0	3.141592653589793	0.0	0.0	0.0
0.36267801447531234	0.0	3.141592653589793	0.0	0.0	0.0
0.3853672947512381	0.0	3.141592653589793	0.0	0.0	0.0
0.4080565750271652	0.0	3.141592653589793	0.0	0.0	0.0
0.43074585530309095	0.0	3.141592653589793	0.0	0.0	0.0
0.4534351355790176	0.0	3.141592653589793	0.0	0.0	0.0
0.47612441585494336	0.0	3.141592653589793	0.0	0.0	0.0
0.49881369613087045	0.0	3.141592653589793	0.0	0.0	0.0
0.5215029764067962	0.0	3.141592653589793	0.0	0.0	0.0
0.5441922566827229	0.0	3.141592653589793	0.0	0.0	0.0
0.5668815369586486	0.0	3.141592653589793	0.0	0.0	0.0
0.5895708172345753	0.0	3.141592653589793	0.0	0.0	0.0
0.6122600975105015	0.0	3.141592653589793	0.0	0.0	0.0
0.6349493777864281	0.0	3.141592653589793	0.0	0.0	0.0
0.6576386580623539	0.0	3.141592653589793	0.0	0.0	0.0
0.6803279383382805	0.0	3.141592653589793	0.0	0.0	0.0
0.7030172186142063	0.0	3.141592653589793	0.0	0.0	0.0
0.7257064988901334	0.0	3.141592653589793	0.0	0.0	0.0
0.7483957791660591	0.0	3.141592653589793	0.0	0.0	0.0
0.7710850594419858	0.0	3.141592653589793	0.0	0.0	0.0
0.7937743397179116	0.0	3.141592653589793	0.0	0.0	0.0
0.8164636199938387	0.0	3.141592653589793	0.0	0.0	0.0
0.8391529002697644	0.0	3.141592653589793	0.0	0.0	0.0
0.8618421805456902	0.0	3.141592653589793	0.0	0.0	0.0
0.8845314608216159	0.0	3.141592653589793	0.0	0.0	0.0
0.9072207410975417	0.0	3.141592653589793	0.0	0.0	0.0
0.9299100213734675	0.0	3.141592653589793	0.0	0.0	0.0
0.9525993016493932	0.0	3.141592653589793	0.0	0.0	0.0
0.975288581925319	0.0	3.141592653589793	0.0	0.0	0.0
0.9979778622012447	0.0	3.141592653589793	0.0	0.0	0.0
1.0206671424771705	0.0	3.141592653589793	0.0	0.0	0.0
1.0433564227530963	0.0	3.141592653589793	0.0	0.0	0.0
1.066045703029022	0.0	3.141592653589793	0.0	0.0	0.0
1.0887349833049478	0.0	3.141592653589793	0.0	0.0	0.0
1.1114242635808735	0.0	3.141592653589793	0.0	0.0	0.0
1.1341135438567993	0.0	3.141592653589793	0.0	0.0	0.0
1.156802824132726	0.0	3.141592653589793	0.0	0.0	0.0
1.1794921044086517	0.0	3.141592653589793	0.0	0.0	0.0
1.2021813846845775	0.0	3.141592653589793	0.0	0.0	0.0
1.2248706649605032	0.0	3.141592653589793	0.0	0.0	0.0
1.247559945236429	0.0	3.141592653589793	0.0	0.0	0.0
1.2702492255123548	0.0	3.141592653589793	0.0	0.0	0.0
1.2929385057882805	0.0	3.141592653589793	0.0	0.0	0.0
1.3156277860642063	0.0	3.141592653589793	0.0	0.0	0.0
1.338317066340132	0.0	3.141592653589793	0.0	0.0	0.0
1.3610063466160578	0.0	3.141592653589793	0.0	0.0	0.0
1.3836956268919836	0.0	3.141592653589793	0.0	0.0	0.0
1.4063849071679093	0.0	3.141592653589793	0.0	0.0	0.0
1.429074187443835	0.0	3.141592653589793	0.0	0.0	0.0
1.4517634677197608	0.0	3.141592653589793	0.0	0.0	0.0
1.4744527479956866	0.0	3.141592653589793	0.0	0.0	0.0
1.4971420282716124	0.0	3.141592653589793	0.0	0.0	0.0
1.5198313085475381	0.0	3.141592653589793	0.0	0.0	0.0
1.5425205888234639	0.0	3.141592653589793	0.0	0.0	0.0
1.5652098690993896	0.0	3.141592653589793	0.0	0.0	0.0
1.5878991493753154	0.0	3.141592653589793	0.0	0.0	0.0
1.6105884296512412	0.0	3.141592653589793	0.0	0.0	0.0
1.633277709927167	0.0	3.141592653589793	0.0	0.0	0.0
1.6559669902030936	0.0	3.141592653589793	0.0	0.0	0.0
1.6786562704790193	0.0	3.141592653589793	0.0	0.0	0.0
1.701345550754945	0.0	3.141592653589793	0.0	0.0	0.0
1.7240348310308709	0.0	3.141592653589793	0.0	0.0	0.0
1.7467241113067966	0.0	3.141592653589793	0.0	0.0	0.0
1.7694133915827224	0.0	3.141592653589793	0.0	0.0	0.0
1.7921026718586481	0.0	3.141592653589793	0.0	0.0	0.0
1.814791952134574	0.0	3.141592653589793	0.0	0.0	0.0
1.8374812324104997	0.0	3.141592653589793	0.0	0.0	0.0
1.8601705126864254	0.0	3.141592653589793	0.0	0.0	0.0
1.8828597929623512	0.0	3.141592653589793	0.0	0.0	0.0
1.905549073238277	0.0	3.141592653589793	0.0	0.0	0.0
1.9282383535142027	0.0	3.141592653589793	0.0	0.0	0.0
1.9509276337901285	0.0	3.141592653589793	0.0	0.0	0.0
1.9736169140660542	0.0	3.141592653589793	0.0	0.0	0.0
1.99630619434198	0.0	3.141592653589793	0.0	0.0	0.0
2.0189954746179057	0.0	3.141592653589793	0.0	0.0	0.0
2.0416847548938315	0.0	3.141592653589793	0.0	0.0	0.0
2.0643740351697573	0.0	3.141592653589793	0.0	0.0	0.0
2.087063315445683	0.0	3.141592653589793	0.0	0.0	0.0
2.109752595721609	0.0	3.141592653589793	0.0	0.0	0.0
2.1324418759975345	0.0	3.141592653589793	0.0	0.0	0.0
2.155131156273461	0.0	3.141592653589793	0.0	0.0	0.0
2.177820436549387	0.0	3.141592653589793	0.0	0.0	0.0
2.2005097168253127	0.0	3.141592653589793	0.0	0.0	0.0
2.2231989971012385	0.0	3.141592653589793	0.0	0.0	0.0
2.2458882773771642	0.0	3.141592653589793	0.0	0.0	0.0
2.26857755765309	0.0	3.141592653589793	0.0	0.0	0.0
2.2912668379290158	0.0	3.141592653589793	0.0	0.0	0.0
2.3139561182049415	0.0	3.141592653589793	0.0	0.0	0.0
2.3366453984808673	0.0	3.141592653589793	0.0	0.0	0.0
2.359334678756793	0.0	3.141592653589793	0.0	0.0	0.0
2.382023959032719	0.0	3.141592653589793	0.0	0.0	0.0
2.4047132393086446	0.0	3.141592653589793	0.0	0.0	0.0
2.4274025195845703	0.0	3.141592653589793	0.0	0.0	0.0
2.450091799860496	0.0	3.141592653589793	0.0	0.0	0.0
2.472781080136422	0.0	3.141592653589793	0.0	0.0	0.0
2.4954703604123476	0.0	3.141592653589793	0.0	0.0	0.0
2.518003131812535	0.0	3.141592653589793	0.0	0.0	0.0
2.540138565934615	0.0	3.141592653589793	0.0	0.0	0.0
2.5618740000566955	0.0	3.141592653589793	0.0	0.0	0.0
2.5832094341787757	0.0	3.141592653589793	0.0	0.0	0.0
2.604144868300856	0.0	3.141592653589793	0.0	0.0	0.0
2.624680302422936	0.0	3.141592653589793	0.0	0.0	0.0
2.6448157365450164	0.0	3.141592653589793	0.0	0.0	0.0
2.664551170667097	0.0	3.141592653589793	0.0	0.0	0.0
2.683886604789177	0.0	3.141592653589793	0.0	0.0	0.0
2.7028220389112576	0.0	3.141592653589793	0.0	0.0	0.0
2.721357473033338	0.0	3.141592653589793	0.0	0.0	0.0
2.739492907155418	0.0	3.141592653589793	0.0	0.0	0.0
2.7572283412774987	0.0	3.141592653589793	0.0	0.0	0.0
2.774563775399579	0.0	3.141592653589793	0.0	0.0	0.0
2.7914992095216595	0.0	3.141592653589793	0.0	0.0	0.0
2.8080346436437402	0.0	3.141592653589793	0.0	0.0	0.0
2.8241700777658205	0.0	3.141592653589793	0.0	0.0	0.0
2.839905511887901	0.0	3.141592653589793	0.0	0.0	0.0
2.8552409460099817	0.0	3.141592653589793	0.0	0.0	0.0
2.870176380132062	0.0	3.141592653589793	0.0	0.0	0.0
2.8847118142541426	0.0	3.141592653589793	0.0	0.0	0.0
2.898847248376223	0.0	3.141592653589793	0.0	0.0	0.0
2.9125826824983037	0.0	3.141592653589793	0.0	0.0	0.0
2.9259181166203843	0.0	3.141592653589793	0.0	0.0	0.0
2.938853550742465	0.0	3.141592653589793	0.0	0.0	0.0
2.9513889848645456	0.0	3.141592653589793	0.0	0.0	0.0
2.9635244189866263	0.0	3.141592653589793	0.0	0.0	0.0
2.975259853108707	0.0	3.141592653589793	0.0	0.0	0.0
2.9865952872307875	0.0	3.141592653589793	0.0	0.0	0.0
2.9975307213528684	0.0	3.141592653589793	0.0	0.0	0.0
3.0080661554749493	0.0	3.141592653589793	0.0	0.0	0.0
3.0182015895970298	0.0	3.141592653589793	0.0	0.0	0.0
3.0279370237191108	0.0	3.141592653589793	0.0	0.0	0.0
3.0372724578411914	0.0	3.141592653589793	0.0	0.0	0.0
3.046207891963272	0.0	3.141592653589793	0.0	0.0	0.0
3.054743326085353	0.0	3.141592653589793	0.0	0.0	0.0
3.062878760207434	0.0	3.141592653589793	0.0	0.0	0.0
3.0706141943295147	0.0	3.141592653589793	0.0	0.0	0.0
3.0779496284515955	0.0	3.141592653589793	0.0	0.0	0.0
3.0848850625736763	0.0	3.141592653589793	0.0	0.0	0.0
3.0914204966957572	0.0	3.141592653589793	0.0	0.0	0.0
3.097555930817838	0.0	3.141592653589793	0.0	0.0	0.0
3.103291364939919	0.0	3.141592653589793	0.0	0.0	0.0
3.108626799062	0.0	3.141592653589793	0.0	0.0	0.0
3.113562233184081	0.0	3.141592653589793	0.0	0.0	0.0
3.118097667306162	0.0	3.141592653589793	0.0	0.0	0.0
3.1222331014282427	0.0	3.141592653589793	0.0	0.0	0.0
3.125968535550324	0.0	3.141592653589793	0.0	0.0	0.0
3.1293039696724048	0.0	3.141592653589793	0.0	0.0	0.0
3.132239403794486	0.0	3.141592653589793	0.0	0.0	0.0
3.134774837916567	0.0	3.141592653589793	0.0	0.0	0.0
3.1369102720386484	0.0	3.141592653589793	0.0	0.0	0.0
3.1386457061607294	0.0	3.141592653589793	0.0	0.0	0.0
3.1399811402828104	0.0	3.141592653589793	0.0	0.0	0.0
3.1409165744048915	0.0	3.141592653589793	0.0	0.0	0.0
3.141592653589793	0.0	3.141592653589793	0.0	0.0	0.0
3.141592653589793	0.0	3.141592653589793	0.0	0.0	0.0
3.141392653589793	0.0	3.141592653589793	0.0	0.0	0.0
3.140792653589793	0.0	3.141592653589793	0.0	0.0	0.0
3.1397926535897933	0.0	3.141592653589793	0.0	0.0	0.0
3.138392653589793	0.0	3.141592653589793	0.0	0.0	0.0
3.1365926535897932	0.0	3.141592653589793	0.0	0.0	0.0
3.134392653589793	0.0	3.141592653589793	0.0	0.0	0.0
3.1317926535897933	0.0	3.141592653589793	0.0	0.0	0.0
3.128792653589793	0.0	3.141592653589793	0.0	0.0	0.0
3.125392653589793	0.0	3.141592653589793	0.0	0.0	0.0
3.121592653589793	0.0	3.141592653589793	0.0	0.0	0.0
3.117392653589793	0.0	3.141592653589793	0.0	0.0	0.0
3.112792653589793	0.0	3.141592653589793	0.0	0.0	0.0
3.1077926535897933	0.0	3.141592653589793	0.0	0.0	0.0
3.102392653589793	0.0	3.141592653589793	0.0	0.0	0.0
3.096592653589793	0.0	3.141592653589793	0.0	0.0	0.0
3.090392653589793	0.0	3.141592653589793	0.0	0.0	0.0
3.0837926535897933	0.0	3.141592653589793	0.0	0.0	0.0
3.076792653589793	0.0	3.141592653589793	0.0	0.0	0.0
3.069392653589793	0.0	3.141592653589793	0.0	0.0	0.0
3.061592653589793	0.0	3.141592653589793	0.0	0.0	0.0
3.053392653589793	0.0	3.141592653589793	0.0	0.0	0.0
3.044792653589793	0.0	3.141592653589793	0.0	0.0	0.0
3.035792653589793	0.0	3.141592653589793	0.0	0.0	0.0
3.026392653589793	0.0	3.141592653589793	0.0	0.0	0.0
3.016592653589793	0.0	3.141592653589793	0.0	0.0	0.0
3.006392653589793	0.0	3.141592653589793	0.0	0.0	0.0
2.995792653589793	0.0	3.141592653589793	0.0	0.0	0.0
2.984792653589793	0.0	3.141592653589793	0.0	0.0	0.0
2.973392653589793	0.0	3.141592653589793	0.0	0.0	0.0
2.961592653589793	0.0	3.141592653589793	0.0	0.0	0.0
2.949392653589793	0.0	3.141592653589793	0.0	0.0	0.0
2.936792653589793	0.0	3.141592653589793	0.0	0.0	0.0
2.923792653589793	0.0	3.141592653589793	0.0	0.0	0.0
2.910392653589793	0.0	3.141592653589793	0.0	0.0	0.0
2.896592653589793	0.0	3.141592653589793	0.0	0.0	0.0
2.882392653589793	0.0	3.141592653589793	0.0	0.0	0.0
2.8677926535897926	0.0	3.141592653589793	0.0	0.0	0.0
2.852792653589793	0.0	3.141592653589793	0.0	0.0	0.0
2.837392653589793	0.0	3.141592653589793	0.0	0.0	0.0
2.821592653589793	0.0	3.141592653589793	0.0	0.0	0.0
2.805392653589793	0.0	3.141592653589793	0.0	0.0	0.0
2.788792653589793	0.0	3.141592653589793	0.0	0.0	0.0
2.7717926535897925	0.0	3.141592653589793	0.0	0.0	0.0
2.7543926535897927	0.0	3.141592653589793	0.0	0.0	0.0
2.736592653589793	0.0	3.141592653589793	0.0	0.0	0.0
2.7183926535897927	0.0	3.141592653589793	0.0	0.0	0.0
2.6997926535897925	0.0	3.141592653589793	0.0	0.0	0.0
2.680792653589793	0.0	3.141592653589793	0.0	0.0	0.0
2.6613926535897927	0.0	3.141592653589793	0.0	0.0	0.0
2.6415926535897927	0.0	3.141592653589793	0.0	0.0	0.0
2.6213926535897927	0.0	3.141592653589793	0.0	0.0	0.0
2.6007926535897927	0.0	3.141592653589793	0.0	0.0	0.0
2.5797926535897924	0.0	3.141592653589793	0.0	0.0	0.0
2.5583926535897925	0.0	3.141592653589793	0.0	0.0	0.0
2.5365926535897927	0.0	3.141592653589793	0.0	0.0	0.0
2.5143926535897925	0.0	3.141592653589793	0.0	0.0	0.0
2.4918079771614163	0.0	3.141592653589793	0.0	0.0	0.0
2.4691186968854897	0.0	3.141592653589793	0.0	0.0	0.0
2.4464294166095635	0.0	3.141592653589793	0.0	0.0	0.0
2.4237401363336373	0.0	3.141592653589793	0.0	0.0	0.0
2.401050856057711	0.0	3.141592653589793	0.0	0.0	0.0
2.378361575781785	0.0	3.141592653589793	0.0	0.0	0.0
2.355672295505858	0.0	3.141592653589793	0.0	0.0	0.0
2.332983015229932	0.0	3.141592653589793	0.0	0.0	0.0
2.310293734954006	0.0	3.141592653589793	0.0	0.0	0.0
2.287604454678079	0.0	3.141592653589793	0.0	0.0	0.0
2.2649151744021534	0.0	3.141592653589793	0.0	0.0	0.0
2.2422258941262267	0.0	3.141592653589793	0.0	0.0	0.0
2.2195366138503005	0.0	3.141592653589793	0.0	0.0	0.0
2.1968473335743743	0.0	3.141592653589793	0.0	0.0	0.0
2.1741580532984477	0.0	3.141592653589793	0.0	0.0	0.0
2.1514687730225215	0.0	3.141592653589793	0.0	0.0	0.0
2.1287794927465953	0.0	3.141592653589793	0.0	0.0	0.0
2.106090212470669	0.0	3.141592653589793	0.0	0.0	0.0
2.083400932194743	0.0	3.141592653589793	0.0	0.0	0.0
2.0607116519188162	0.0	3.141592653589793	0.0	0.0	0.0
2.03802237164289	0.0	3.141592653589793	0.0	0.0	0.0
2.015333091366964	0.0	3.141592653589793	0.0	0.0	0.0
1.9926438110910374	0.0	3.141592653589793	0.0	0.0	0.0
1.9699545308151112	0.0	3.141592653589793	0.0	0.0	0.0
1.9472652505391848	0.0	3.141592653589793	0.0	0.0	0.0
1.9245759702632586	0.0	3.141592653589793	0.0	0.0	0.0
1.9018866899873323	0.0	3.141592653589793	0.0	0.0	0.0
1.879197409711406	0.0	3.141592653589793	0.0	0.0	0.0
1.8565081294354797	0.0	3.141592653589793	0.0	0.0	0.0
1.8338188491595533	0.0	3.141592653589793	0.0	0.0	0.0
1.811129568883627	0.0	3.141592653589793	0.0	0.0	0.0
1.7884402886077007	0.0	3.141592653589793	0.0	0.0	0.0
1.7657510083317745	0.0	3.141592653589793	0.0	0.0	0.0
1.743061728055848	0.0	3.141592653589793	0.0	0.0	0.0
1.7203724477799218	0.0	3.141592653589793	0.0	0.0	0.0
1.6976831675039954	0.0	3.141592653589793	0.0	0.0	0.0
1.6749938872280692	0.0	3.141592653589793	0.0	0.0	0.0
1.652304606952143	0.0	3.141592653589793	0.0	0.0	0.0
1.6296153266762166	0.0	3.141592653589793	0.0	0.0	0.0
1.6069260464002904	0.0	3.141592653589793	0.0	0.0	0.0
1.584236766124364	0.0	3.141592653589793	0.0	0.0	0.0
1.5615474858484377	0.0	3.141592653589793	0.0	0.0	0.0
1.5388582055725113	0.0	3.141592653589793	0.0	0.0	0.0
1.516168925296585	0.0	3.141592653589793	0.0	0.0	0.0
1.4934796450206587	0.0	3.141592653589793	0.0	0.0	0.0
1.4707903647447325	0.0	3.141592653589793	0.0	0.0	0.0
1.4481010844688063	0.0	3.141592653589793	0.0	0.0	0.0
1.4254118041928798	0.0	3.141592653589793	0.0	0.0	0.0
1.4027225239169536	0.0	3.141592653589793	0.0	0.0	0.0
1.3800332436410272	0.0	3.141592653589793	0.0	0.0	0.0
1.357343963365101	0.0	3.141592653589793	0.0	0.0	0.0
1.3346546830891746	0.0	3.141592653589793	0.0	0.0	0.0
1.3119654028132484	0.0	3.141592653589793	0.0	0.0	0.0
1.289276122537322	0.0	3.141592653589793	0.0	0.0	0.0
1.2665868422613957	0.0	3.141592653589793	0.0	0.0	0.0
1.2438975619854693	0.0	3.141592653589793	0.0	0.0	0.0
1.221208281709543	0.0	3.141592653589793	0.0	0.0	0.0
1.198519001433617	0.0	3.141592653589793	0.0	0.0	0.0
1.1758297211576905	0.0	3.141592653589793	0.0	0.0	0.0
1.1531404408817643	0.0	3.141592653589793	0.0	0.0	0.0
1.1304511606058378	0.0	3.141592653589793	0.0	0.0	0.0
1.1077618803299116	0.0	3.141592653589793	0.0	0.0	0.0
1.0850726000539854	0.0	3.141592653589793	0.0	0.0	0.0
1.0623833197780588	0.0	3.141592653589793	0.0	0.0	0.0
1.0396940395021326	0.0	3.141592653589793	0.0	0.0	0.0
1.0170047592262064	0.0	3.141592653589793	0.0	0.0	0.0
0.9943154789502802	0.0	3.141592653589793	0.0	0.0	0.0
0.971626198674354	0.0	3.141592653589793	0.0	0.0	0.0
0.9489369183984273	0.0	3.141592653589793	0.0	0.0	0.0
0.9262476381225011	0.0	3.141592653589793	0.0	0.0	0.0
0.9035583578465749	0.0	3.141592653589793	0.0	0.0	0.0
0.8808690775706487	0.0	3.141592653589793	0.0	0.0	0.0
0.8581797972947225	0.0	3.141592653589793	0.0	0.0	0.0
0.8354905170187958	0.0	3.141592653589793	0.0	0.0	0.0
0.8128012367428701	0.0	3.141592653589793	0.0	0.0	0.0
0.790111956466943	0.0	3.141592653589793	0.0	0.0	0.0
0.7674226761910172	0.0	3.141592653589793	0.0	0.0	0.0
0.7447333959150906	0.0	3.141592653589793	0.0	0.0	0.0
0.7220441156391648	0.0	3.141592653589793	0.0	0.0	0.0
0.6993548353632377	0.0	3.141592653589793	0.0	0.0	0.0
0.676665555087312	0.0	3.141592653589793	0.0	0.0	0.0
0.6539762748113853	0.0	3.141592653589793	0.0	0.0	0.0
0.6312869945354596	0.0	3.141592653589793	0.0	0.0	0.0
0.6085977142595325	0.0	3.141592653589793	0.0	0.0	0.0
0.5859084339836067	0.0	3.141592653589793	0.0	0.0	0.0
0.56321915370768	0.0	3.141592653589793	0.0	0.0	0.0
0.5405298734317543	0.0	3.141592653589793	0.0	0.0	0.0
0.5178405931558272	0.0	3.141592653589793	0.0	0.0	0.0
0.49515131287990144	0.0	3.141592653589793	0.0	0.0	0.0
0.4724620326039748	0.0	3.141592653589793	0.0	0.0	0.0
0.44977275232804903	0.0	3.141592653589793	0.0	0.0	0.0
0.4270834720521224	0.0	3.141592653589793	0.0	0.0	0.0
0.4043941917761962	0.0	3.141592653589793	0.0	0.0	0.0
0.38170491150026953	0.0	3.141592653589793	0.0	0.0	0.0
0.35901563122434377	0.0	3.141592653589793	0.0	0.0	0.0
0.3363263509484171	0.0	3.141592653589793	0.0	0.0	0.0
0.31363707067249136	0.0	3.141592653589793	0.0	0.0	0.0
0.29094779039656427	0.0	3.141592653589793	0.0	0.0	0.0
0.2682585101206385	0.0	3.141592653589793	0.0	0.0	0.0
0.24556922984471186	0.0	3.141592653589793	0.0	0.0	0.0
0.2228799495687861	0.0	3.141592653589793	0.0	0.0	0.0
0.200190669292859	0.0	3.141592653589793	0.0	0.0	0.0
0.17750138901693324	0.0	3.141592653589793	0.0	0.0	0.0
0.1548121087410066	0.0	3.141592653589793	0.0	0.0	0.0
0.13212282846508083	0.0	3.141592653589793	0.0	0.0	0.0
0.10943354818915374	0.0	3.141592653589793	0.0	0.0	0.0
0.08674426791322798	0.0	3.141592653589793	0.0	0.0	0.0
0.06405498763730133	0.0	3.141592653589793	0.0	0.0	0.0
0.04136570736137557	0.0	3.141592653589793	0.0	0.0	0.0
0.01867642708544892	0.0	3.141592653589793	0.0	0.0	0.0
-0.0040128531904772835	0.0	3.141592653589793	0.0	0.0	0.0
-0.026702133466403932	0.0	3.141592653589793	0.0	0.0	0.0
-0.04939141374232969	0.0	3.141592653589793	0.0	0.0	0.0
-0.07208069401825634	0.0	3.141592653589793	0.0	0.0	0.0
-0.0947699742941821	0.0	3.141592653589793	0.0	0.0	0.0
-0.1174592545701092	0.0	3.141592653589793	0.0	0.0	0.0
-0.14014853484603496	0.0	3.141592653589793	0.0	0.0	0.0
-0.1628378151219616	0.0	3.141592653589793	0.0	0.0	0.0
-0.18552709539788736	0.0	3.141592653589793	0.0	0.0	0.0
-0.20821637567381446	0.0	3.141592653589793	0.0	0.0	0.0
-0.23090565594974022	0.0	3.141592653589793	0.0	0.0	0.0
-0.25359493622566687	0.0	3.141592653589793	0.0	0.0	0.0
-0.2762842165015926	0.0	3.141592653589793	0.0	0.0	0.0
-0.2989734967775197	0.0	3.141592653589793	0.0	0.0	0.0
-0.3216627770534455	0.0	3.141592653589793	0.0	0.0	0.0
-0.34435205732937213	0.0	3.141592653589793	0.0	0.0	0.0
-0.3670413376052979	0.0	3.141592653589793	0.0	0.0	0.0
-0.389730617881225	0.0	3.141592653589793	0.0	0.0	0.0
-0.41241989815715074	0.0	3.141592653589793	0.0	0.0	0.0
-0.4351091784330774	0.0	3.141592653589793	0.0	0.0	0.0
-0.45779845870900315	0.0	3.141592653589793	0.0	0.0	0.0
-0.4804877389849298	0.0	3.141592653589793	0.0	0.0	0.0
-0.503177019260856	0.0	3.141592653589793	0.0	0.0	0.0
-0.5258662995367827	0.0	3.141592653589793	0.0	0.0	0.0
-0.5485555798127084	0.0	3.141592653589793	0.0	0.0	0.0
-0.5712448600886351	0.0	3.141592653589793	0.0	0.0	0.0
-0.5939341403645608	0.0	3.141592653589793	0.0	0.0	0.0
-0.6166234206404879	0.0	3.141592653589793	0.0	0.0	0.0
-0.6393127009164137	0.0	3.141592653589793	0.0	0.0	0.0
-0.6620019811923403	0.0	3.141592653589793	0.0	0.0	0.0
-0.6846912614682661	0.0	3.141592653589793	0.0	0.0	0.0
-0.7073805417441932	0.0	3.141592653589793	0.0	0.0	0.0
-0.7300698220201189	0.0	3.141592653589793	0.0	0.0	0.0
-0.7527591022960447	0.0	3.141592653589793	0.0	0.0	0.0
-0.7754483825719705	0.0	3.141592653589793	0.0	0.0	0.0
-0.7981376628478962	0.0	3.141592653589793	0.0	0.0	0.0
-0.820826943123822	0.0	3.141592653589793	0.0	0.0	0.0
-0.8435162233997477	0.0	3.141592653589793	0.0	0.0	0.0
-0.8662055036756735	0.0	3.141592653589793	0.0	0.0	0.0
-0.8888947839515993	0.0	3.141592653589793	0.0	0.0	0.0
-0.911584064227525	0.0	3.141592653589793	0.0	0.0	0.0
-0.9342733445034508	0.0	3.141592653589793	0.0	0.0	0.0
-0.9569626247793765	0.0	3.141592653589793	0.0	0.0	0.0
-0.9796519050553023	0.0	3.141592653589793	0.0	0.0	0.0
-1.002341185331228	0.0	3.141592653589793	0.0	0.0	0.0
-1.0250304656071538	0.0	3.141592653589793	0.0	0.0	0.0
-1.0477197458830805	0.0	3.141592653589793	0.0	0.0	0.0
-1.0704090261590062	0.0	3.141592653589793	0.0	0.0	0.0
-1.093098306434932	0.0	3.141592653589793	0.0	0.0	0.0
-1.1157875867108578	0.0	3.141592653589793	0.0	0.0	0.0
-1.1384768669867835	0.0	3.141592653589793	0.0	0.0	0.0
-1.1611661472627093	0.0	3.141592653589793	0.0	0.0	0.0
-1.183855427538635	0.0	3.141592653589793	0.0	0.0	0.0
-1.2065447078145608	0.0	3.141592653589793	0.0	0.0	0.0
-1.2292339880904866	0.0	3.141592653589793	0.0	0.0	0.0
-1.2519232683664123	0.0	3.141592653589793	0.0	0.0	0.0
-1.274612548642338	0.0	3.141592653589793	0.0	0.0	0.0
-1.2973018289182638	0.0	3.141592653589793	0.0	0.0	0.0
-1.3199911091941896	0.0	3.141592653589793	0.0	0.0	0.0
-1.3426803894701154	0.0	3.141592653589793	0.0	0.0	0.0
-1.3653696697460411	0.0	3.141592653589793	0.0	0.0	0.0
-1.3880589500219669	0.0	3.141592653589793	0.0	0.0	0.0
-1.4107482302978926	0.0	3.141592653589793	0.0	0.0	0.0
-1.4334375105738184	0.0	3.141592653589793	0.0	0.0	0.0
-1.4561267908497442	0.0	3.141592653589793	0.0	0.0	0.0
-1.47881607112567	0.0	3.141592653589793	0.0	0.0	0.0
-1.5015053514015957	0.0	3.141592653589793	0.0	0.0	0.0
-1.5241946316775214	0.0	3.141592653589793	0.0	0.0	0.0
-1.546883911953448	0.0	3.141592653589793	0.0	0.0	0.0
-1.5695731922293739	0.0	3.141592653589793	0.0	0.0	0.0
-1.5922624725052996	0.0	3.141592653589793	0.0	0.0	0.0
-1.6149517527812254	0.0	3.141592653589793	0.0	0.0	0.0
-1.6376410330571511	0.0	3.141592653589793	0.0	0.0	0.0
-1.660330313333077	0.0	3.141592653589793	0.0	0.0	0.0
-1.6830195936090027	0.0	3.141592653589793	0.0	0.0	0.0
-1.7057088738849284	0.0	3.141592653589793	0.0	0.0	0.0
-1.7283981541608542	0.0	3.141592653589793	0.0	0.0	0.0
-1.75108743443678	0.0	3.141592653589793	0.0	0.0	0.0
-1.7737767147127057	0.0	3.141592653589793	0.0	0.0	0.0
-1.7964659949886315	0.0	3.141592653589793	0.0	0.0	0.0
-1.8191552752645572	0.0	3.141592653589793	0.0	0.0	0.0
-1.841844555540483	0.0	3.141592653589793	0.0	0.0	0.0
-1.8645338358164087	0.0	3.141592653589793	0.0	0.0	0.0
-1.8872231160923345	0.0	3.141592653589793	0.0	0.0	0.0
-1.9099123963682603	0.0	3.141592653589793	0.0	0.0	0.0
-1.932601676644186	0.0	3.141592653589793	0.0	0.0	0.0
-1.9552909569201118	0.0	3.141592653589793	0.0	0.0	0.0
-1.9779802371960375	0.0	3.141592653589793	0.0	0.0	0.0
-2.0006695174719633	0.0	3.141592653589793	0.0	0.0	0.0
-2.023358797747889	0.0	3.141592653589793	0.0	0.0	0.0
-2.0460480780238157	0.0	3.141592653589793	0.0	0.0	0.0
-2.0687373582997415	0.0	3.141592653589793	0.0	0.0	0.0
-2.0914266385756672	0.0	3.141592653589793	0.0	0.0	0.0
-2.114115918851593	0.0	3.141592653589793	0.0	0.0	0.0
-2.1368051991275188	0.0	3.141592653589793	0.0	0.0	0.0
-2.1594944794034445	0.0	3.141592653589793	0.0	0.0	0.0
-2.1821837596793703	0.0	3.141592653589793	0.0	0.0	0.0
-2.204873039955296	0.0	3.141592653589793	0.0	0.0	0.0
-2.227562320231222	0.0	3.141592653589793	0.0	0.0	0.0
-2.2502516005071476	0.0	3.141592653589793	0.0	0.0	0.0
-2.2729408807830733	0.0	3.141592653589793	0.0	0.0	0.0
-2.295630161058999	0.0	3.141592653589793	0.0	0.0	0.0
-2.318319441334925	0.0	3.141592653589793	0.0	0.0	0.0
-2.3410087216108506	0.0	3.141592653589793	0.0	0.0	0.0
-2.3636980018867764	0.0	3.141592653589793	0.0	0.0	0.0
-2.386387282162702	0.0	3.141592653589793	0.0	0.0	0.0
-2.4089200535628894	0.0	3.141592653589793	0.0	0.0	0.0
-2.4310554876849695	0.0	3.141592653589793	0.0	0.0	0.0
-2.4527909218070496	0.0	3.141592653589793	0.0	0.0	0.0
-2.47412635592913	0.0	3.141592653589793	0.0	0.0	0.0
-2.4950617900512104	0.0	3.141592653589793	0.0	0.0	0.0
-2.5155972241732907	0.0	3.141592653589793	0.0	0.0	0.0
-2.535732658295371	0.0	3.141592653589793	0.0	0.0	0.0
-2.5554680924174513	0.0	3.141592653589793	0.0	0.0	0.0
-2.5748035265395317	0.0	3.141592653589793	0.0	0.0	0.0
-2.593738960661612	0.0	3.141592653589793	0.0	0.0	0.0
-2.612274394783692	0.0	3.141592653589793	0.0	0.0	0.0
-2.6304098289057727	0.0	3.141592653589793	0.0	0.0	0.0
-2.6481452630278532	0.0	3.141592653589793	0.0	0.0	0.0
-2.665480697149934	0.0	3.141592653589793	0.0	0.0	0.0
-2.682416131272014	0.0	3.141592653589793	0.0	0.0	0.0
-2.6989515653940943	0.0	3.141592653589793	0.0	0.0	0.0
-2.715086999516175	0.0	3.141592653589793	0.0	0.0	0.0
-2.7308224336382554	0.0	3.141592653589793	0.0	0.0	0.0
-2.746157867760336	0.0	3.141592653589793	0.0	0.0	0.0
-2.7610933018824166	0.0	3.141592653589793	0.0	0.0	0.0
-2.775628736004497	0.0	3.141592653589793	0.0	0.0	0.0
-2.7897641701265776	0.0	3.141592653589793	0.0	0.0	0.0
-2.803499604248658	0.0	3.141592653589793	0.0	0.0	0.0
-2.816835038370739	0.0	3.141592653589793	0.0	0.0	0.0
-2.8297704724928194	0.0	3.141592653589793	0.0	0.0	0.0
-2.8423059066149	0.0	3.141592653589793	0.0	0.0	0.0
-2.854441340736981	0.0	3.141592653589793	0.0	0.0	0.0
-2.8661767748590616	0.0	3.141592653589793	0.0	0.0	0.0
-2.877512208981142	0.0	3.141592653589793	0.0	0.0	0.0
-2.888447643103223	0.0	3.141592653589793	0.0	0.0	0.0
-2.898983077225304	0.0	3.141592653589793	0.0	0.0	0.0
-2.9091185113473843	0.0	3.141592653589793	0.0	0.0	0.0
-2.9188539454694653	0.0	3.141592653589793	0.0	0.0	0.0
-2.928189379591546	0.0	3.141592653589793	0.0	0.0	0.0
-2.9371248137136265	0.0	3.141592653589793	0.0	0.0	0.0
-2.9456602478357077	0.0	3.141592653589793	0.0	0.0	0.0
-2.9537956819577884	0.0	3.141592653589793	0.0	0.0	0.0
-2.961531116079869	0.0	3.141592653589793	0.0	0.0	0.0
-2.96886655020195	0.0	3.141592653589793	0.0	0.0	0.0
-2.975801984324031	0.0	3.141592653589793	0.0	0.0	0.0
-2.9823374184461118	0.0	3.141592653589793	0.0	0.0	0.0
-2.9884728525681927	0.0	3.141592653589793	0.0	0.0	0.0
-2.9942082866902737	0.0	3.141592653589793	0.0	0.0	0.0
-2.9995437208123548	0.0	3.141592653589793	0.0	0.0	0.0
-3.0044791549344354	0.0	3.141592653589793	0.0	0.0	0.0
-3.0090145890565165	0.0	3.141592653589793	0.0	0.0	0.0
-3.0131500231785973	0.0	3.141592653589793	0.0	0.0	0.0
-3.0168854573006785	0.0	3.141592653589793	0.0	0.0	0.0
-3.0202208914227597	0.0	3.141592653589793	0.0	0.0	0.0
-3.0231563255448406	0.0	3.141592653589793	0.0	0.0	0.0
-3.0256917596669215	0.0	3.141592653589793	0.0	0.0	0.0
-3.027827193789003	0.0	3.141592653589793	0.0	0.0	0.0
-3.029562627911084	0.0	3.141592653589793	0.0	0.0	0.0
-3.030898062033165	0.0	3.141592653589793	0.0	0.0	0.0
-3.031833496155246	0.0	3.141592653589793	0.0	0.0	0.0
-3.0325095753401476	0.0	3.141592653589793	0.0	0.0	0.0
-3.032705947113106	0.0	3.141592653589793	0.0	0.0	0.0
-3.033280676355228	0.0	3.141592653589793	0.0	0.0	0.0
-3.034212468175058	0.0	3.141592653589793	0.0	0.0	0.0
-3.0354804046069552	0.0	3.141592653589793	0.0	0.0	0.0
-3.03706394206222	0.0	3.141592653589793	0.0	0.0	0.0
-3.0389429087802275	0.0	3.141592653589793	0.0	0.0	0.0
-3.0410975022795603	0.0	3.141592653589793	0.0	0.0	0.0
-3.043508286809138	0.0	3.141592653589793	0.0	0.0	0.0
-3.04615619079935	0.0	3.141592653589793	0.0	0.0	0.0
-3.049022504313187	0.0	3.141592653589793	0.0	0.0	0.0
-3.0520888764973733	0.0	3.141592653589793	0.0	0.0	0.0
-3.0553373130334958	0.0	3.141592653589793	0.0	0.0	0.0
-3.0587501735891403	0.0	3.141592653589793	0.0	0.0	0.0
-3.0623101692690198	0.0	3.141592653589793	0.0	0.0	0.0
-3.0660003600661048	0.0	3.141592653589793	0.0	0.0	0.0
-3.0698041523127597	0.0	3.141592653589793	0.0	0.0	0.0
-3.07370529613187	0.0	3.141592653589793	0.0	0.0	0.0
-3.0776878828879775	0.0	3.141592653589793	0.0	0.0	0.0
-3.0817363426384077	0.0	3.141592653589793	0.0	0.0	0.0
-3.0858354415844063	0.0	3.141592653589793	0.0	0.0	0.0
-3.0899702795222677	0.0	3.141592653589793	0.0	0.0	0.0
-3.0941262872944675	0.0	3.141592653589793	0.0	0.0	0.0
-3.0982892242407924	0.0	3.141592653589793	0.0	0.0	0.0
-3.102445175649477	0.0	3.141592653589793	0.0	0.0	0.0
-3.10658055020833	0.0	3.141592653589793	0.0	0.0	0.0
-3.110682077455866	0.0	3.141592653589793	0.0	0.0	0.0
-3.1147368052324436	0.0	3.141592653589793	0.0	0.0	0.0
-3.1187320971313888	0.0	3.141592653589793	0.0	0.0	0.0
-3.122655629950131	0.0	3.141592653589793	0.0	0.0	0.0
-3.1264953911413365	0.0	3.141592653589793	0.0	0.0	0.0
-3.130239676264033	0.0	3.141592653589793	0.0	0.0	0.0
-3.133877086434752	0.0	3.141592653589793	0.0	0.0	0.0
-3.137396525778648	0.0	3.141592653589793	0.0	0.0	0.0
-3.14078719888064	0.0	3.141592653589793	0.0	0.0	0.0
-3.1440386082365404	0.0	3.141592653589793	0.0	0.0	0.0
-3.1471405517041844	0.0	3.141592653589793	0.0	0.0	0.0
-3.1500831199545627	0.0	3.141592653589793	0.0	0.0	0.0
-3.152856693922956	0.0	3.141592653589793	0.0	0.0	0.0
-3.1554519422600618	0.0	3.141592653589793	0.0	0.0	0.0
-3.15785981878313	0.0	3.141592653589793	0.0	0.0	0.0
-3.1600715599270917	0.0	3.141592653589793	0.0	0.0	0.0
-3.1620786821956943	0.0	3.141592653589793	0.0	0.0	0.0
-3.16387297961263	0.0	3.141592653589793	0.0	0.0	0.0
-3.165446521172669	0.0	3.141592653589793	0.0	0.0	0.0
-3.1667916482927896	0.0	3.141592653589793	0.0	0.0	0.0
-3.1679009722633125	0.0	3.141592653589793	0.0	0.0	0.0
-3.1687673716990292	0.0	3.141592653589793	0.0	0.0	0.0
-3.1693839899903375	0.0	3.141592653589793	0.0	0.0	0.0
-3.16974423275437	0.0	3.141592653589793	0.0	0.0	0.0
-3.1698417652861273	0.0	3.141592653589793	0.0	0.0	0.0
-3.1696705100096083	0.0	3.141592653589793	0.0	0.0	0.0
-3.1692246439289424	0.0	3.141592653589793	0.0	0.0	0.0
-3.1684985960795236	0.0	3.141592653589793	0.0	0.0	0.0
-3.1674870449791377	0.0	3.141592653589793	0.0	0.0	0.0
-3.1661849160790982	0.0	3.141592653589793	0.0	0.0	0.0
-3.1645873792153747	0.0	3.141592653589793	0.0	0.0	0.0
-3.162689846059726	0.0	3.141592653589793	0.0	0.0	0.0
-3.1604879675708326	0.0	3.141592653589793	0.0	0.0	0.0
-3.1579776314454273	0.0	3.141592653589793	0.0	0.0	0.0
-3.155154959569425	0.0	3.141592653589793	0.0	0.0	0.0
-3.152016305469059	0.0	3.141592653589793	0.0	0.0	0.0
-3.1485582517620094	0.0	3.141592653589793	0.0	0.0	0.0
-3.144777607608534	0.0	3.141592653589793	0.0	0.0	0.0
-3.1406714061626024	0.0	3.141592653589793	0.0	0.0	0.0
-3.136236902023026	0.0	3.141592653589793	0.0	0.0	0.0
-3.1314715686845904	0.0	3.141592653589793	0.0	0.0	0.0
-3.1263730959891873	0.0	3.141592653589793	0.0	0.0	0.0
-3.120939387576945	0.0	3.141592653589793	0.0	0.0	0.0
-3.1151685583373614	0.0	3.141592653589793	0.0	0.0	0.0
-3.109058931860435	0.0	3.141592653589793	0.0	0.0	0.0
-3.102609037887796	0.0	3.141592653589793	0.0	0.0	0.0
-3.09581760976384	0.0	3.141592653589793	0.0	0.0	0.0
-3.088683581886855	0.0	3.141592653589793	0.0	0.0	0.0
-3.08120608716016	0.0	3.141592653589793	0.0	0.0	0.0
-3.073384454443232	0.0	3.141592653589793	0.0	0.0	0.0
-3.0652182060028346	0.0	3.141592653589793	0.0	0.0	0.0
-3.0567070549641606	0.0	3.141592653589793	0.0	0.0	0.0
-3.0478509027619505	0.0	3.141592653589793	0.0	0.0	0.0
-3.0386498365916337	0.0	3.141592653589793	0.0	0.0	0.0
-3.0291041268604566	0.0	3.141592653589793	0.0	0.0	0.0
-3.0192142246386124	0.0	3.141592653589793	0.0	0.0	0.0
-3.0089807591103757	0.0	3.141592653589793	0.0	0.0	0.0
-2.9984045350252355	0.0	3.141592653589793	0.0	0.0	0.0
-2.9874865301490225	0.0	3.141592653589793	0.0	0.0	0.0
-2.9762278927150416	0.0	3.141592653589793	0.0	0.0	0.0
-2.964629938875208	0.0	3.141592653589793	0.0	0.0	0.0
-2.952694150151173	0.0	3.141592653589793	0.0	0.0	0.0
-2.9404221708854608	0.0	3.141592653589793	0.0	0.0	0.0
-2.9278158056925943	0.0	3.141592653589793	0.0	0.0	0.0
-2.914877016910234	0.0	3.141592653589793	0.0	0.0	0.0
-2.9016079220503017	0.0	3.141592653589793	0.0	0.0	0.0
-2.8880107912501214	0.0	3.141592653589793	0.0	0.0	0.0
-2.874088044723542	0.0	3.141592653589793	0.0	0.0	0.0
-2.859842250212072	0.0	3.141592653589793	0.0	0.0	0.0
-2.8452761204360146	0.0	3.141592653589793	0.0	0.0	0.0
-2.8303925105455963	0.0	3.141592653589793	0.0	0.0	0.0
-2.8151944155720976	0.0	3.141592653589793	0.0	0.0	0.0
-2.7996849678789877	0.0	3.141592653589793	0.0	0.0	0.0
-2.783867434613052	0.0	3.141592653589793	0.0	0.0	0.0
-2.767745215155529	0.0	3.141592653589793	0.0	0.0	0.0
-2.751321838573237	0.0	3.141592653589793	0.0	0.0	0.0
-2.7346009610697086	0.0	3.141592653589793	0.0	0.0	0.0
-2.717586363436323	0.0	3.141592653589793	0.0	0.0	0.0
-2.700281948503433	0.0	3.141592653589793	0.0	0.0	0.0
-2.6826917385915063	0.0	3.141592653589793	0.0	0.0	0.0
-2.6648198729622408	0.0	3.141592653589793	0.0	0.0	0.0
-2.6466706052697173	0.0	3.141592653589793	0.0	0.0	0.0
-2.628248301011512	0.0	3.141592653589793	0.0	0.0	0.0
-2.609557434979841	0.0	3.141592653589793	0.0	0.0	0.0
-2.590602588712682	0.0	3.141592653589793	0.0	0.0	0.0
-2.57138844794492	0.0	3.141592653589793	0.0	0.0	0.0
-2.551919800059464	0.0	3.141592653589793	0.0	0.0	0.0
-2.532201531538382	0.0	3.141592653589793	0.0	0.0	0.0
-2.5122386254140414	0.0	3.141592653589793	0.0	0.0	0.0
-2.492036158720232	0.0	3.141592653589793	0.0	0.0	0.0
-2.4715992999433043	0.0	3.141592653589793	0.0	0.0	0.0
-2.45093330647329	0.0	3.141592653589793	0.0	0.0	0.0
-2.430043522055046	0.0	3.141592653589793	0.0	0.0	0.0
-2.408935374239379	0.0	3.141592653589793	0.0	0.0	0.0
-2.387614371834182	0.0	3.141592653589793	0.0	0.0	0.0
-2.3660861023555606	0.0	3.141592653589793	0.0	0.0	0.0
-2.344356229478966	0.0	3.141592653589793	0.0	0.0	0.0
-2.3224304904903295	0.0	3.141592653589793	0.0	0.0	0.0
-2.300314693737195	0.0	3.141592653589793	0.0	0.0	0.0
-2.2780147160798405	0.0	3.141592653589793	0.0	0.0	0.0
-2.255536500342428	0.0	3.141592653589793	0.0	0.0	0.0
-2.2328860527641123	0.0	3.141592653589793	0.0	0.0	0.0
-2.210069440450196	0.0	3.141592653589793	0.0	0.0	0.0
-2.187092788823244	0.0	3.141592653589793	0.0	0.0	0.0
-2.1639622790742212	0.0	3.141592653589793	0.0	0.0	0.0
-2.140684145613629	0.0	3.141592653589793	0.0	0.0	0.0
-2.1172646735226226	0.0	3.141592653589793	0.0	0.0	0.0
-2.0937101960041646	0.0	3.141592653589793	0.0	0.0	0.0
-2.0700270918341324	0.0	3.141592653589793	0.0	0.0	0.0
-2.046221782812468	0.0	3.141592653589793	0.0	0.0	0.0
-2.022300731214303	0.0	3.141592653589793	0.0	0.0	0.0
-1.9982704372410922	0.0	3.141592653589793	0.0	0.0	0.0
-1.9741374364717348	0.0	3.141592653589793	0.0	0.0	0.0
-1.9499082973137278	0.0	3.141592653589793	0.0	0.0	0.0
-1.925589618454274	0.0	3.141592653589793	0.0	0.0	0.0
-1.9011880263114318	0.0	3.141592653589793	0.0	0.0	0.0
-1.8767101724852298	0.0	3.141592653589793	0.0	0.0	0.0
-1.8521627312088234	0.0	3.141592653589793	0.0	0.0	0.0
-1.8275523967995957	0.0	3.141592653589793	0.0	0.0	0.0
-1.8028858811103115	0.0	3.141592653589793	0.0	0.0	0.0
-1.7781699109802447	0.0	3.141592653589793	0.0	0.0	0.0
-1.7534112256863021	0.0	3.141592653589793	0.0	0.0	0.0
-1.7286165743941635	0.0	3.141592653589793	0.0	0.0	0.0
-1.703792713609407	0.0	3.141592653589793	0.0	0.0	0.0
-1.67894640462865	0.0	3.141592653589793	0.0	0.0	0.0
-1.6540844109906683	0.0	3.141592653589793	0.0	0.0	0.0
-1.6292134959275373	0.0	3.141592653589793	0.0	0.0	0.0
-1.6043404198157567	0.0	3.141592653589793	0.0	0.0	0.0
-1.5794719376273898	0.0	3.141592653589793	0.0	0.0	0.0
-1.5546147963811885	0.0	3.141592653589793	0.0	0.0	0.0
-1.529775732593735	0.0	3.141592653589793	0.0	0.0	0.0
-1.5049614697305551	0.0	3.141592653589793	0.0	0.0	0.0
-1.4801787156572694	0.0	3.141592653589793	0.0	0.0	0.0
-1.455434160090714	0.0	3.141592653589793	0.0	0.0	0.0
-1.4307344720500712	0.0	3.141592653589793	0.0	0.0	0.0
-1.4060862973080086	0.0	3.141592653589793	0.0	0.0	0.0
-1.3814962558418054	0.0	3.141592653589793	0.0	0.0	0.0
-1.3569709392844858	0.0	3.141592653589793	0.0	0.0	0.0
-1.3325169083759545	0.0	3.141592653589793	0.0	0.0	0.0
-1.308140690414111	0.0	3.141592653589793	0.0	0.0	0.0
-1.2838487767060092	0.0	3.141592653589793	0.0	0.0	0.0
-1.2596476200189666	0.0	3.141592653589793	0.0	0.0	0.0
-1.2355436320317077	0.0	3.141592653589793	0.0	0.0	0.0
-1.2115431807854837	0.0	3.141592653589793	0.0	0.0	0.0
-1.1876525881352218	0.0	3.141592653589793	0.0	0.0	0.0
-1.1638781272006415	0.0	3.141592653589793	0.0	0.0	0.0
-1.1402260198173941	0.0	3.141592653589793	0.0	0.0	0.0
-1.116702433988182	0.0	3.141592653589793	0.0	0.0	0.0
-1.09331348133392	0.0	3.141592653589793	0.0	0.0	0.0
-1.070065214544838	0.0	3.141592653589793	0.0	0.0	0.0
-1.0469636248316117	0.0	3.141592653589793	0.0	0.0	0.0
-1.0240146393765133	0.0	3.141592653589793	0.0	0.0	0.0
-1.001224118784544	0.0	3.141592653589793	0.0	0.0	0.0
-0.9785978545345437	0.0	3.141592653589793	0.0	0.0	0.0
-0.9561415664303343	0.0	3.141592653589793	0.0	0.0	0.0
-0.9338609000518527	0.0	3.141592653589793	0.0	0.0	0.0
-0.9117614242062935	0.0	3.141592653589793	0.0	0.0	0.0
-0.8898486283792213	0.0	3.141592653589793	0.0	0.0	0.0
-0.868127920185696	0.0	3.141592653589793	0.0	0.0	0.0
-0.8466046228214505	0.0	3.141592653589793	0.0	0.0	0.0
-0.8252839725139616	0.0	3.141592653589793	0.0	0.0	0.0
-0.8041711159736185	0.0	3.141592653589793	0.0	0.0	0.0
-0.783271107844854	0.0	3.141592653589793	0.0	0.0	0.0
-0.7625889081572579	0.0	3.141592653589793	0.0	0.0	0.0
-0.7421293797767285	0.0	3.141592653589793	0.0	0.0	0.0
-0.7218972858565911	0.0	3.141592653589793	0.0	0.0	0.0
-0.7018972872887321	0.0	3.141592653589793	0.0	0.0	0.0
-0.6821339401547366	0.0	3.141592653589793	0.0	0.0	0.0
-0.6626116931770119	0.0	3.141592653589793	0.0	0.0	0.0
-0.6433348851699172	0.0	3.141592653589793	0.0	0.0	0.0
-0.6243077424909158	0.0	3.141592653589793	0.0	0.0	0.0
-0.6055343764916783	0.0	3.141592653589793	0.0	0.0	0.0
-0.5870187809692391	0.0	3.141592653589793	0.0	0.0	0.0
-0.5687648296171046	0.0	3.141592653589793	0.0	0.0	0.0
-0.5507762734764086	0.0	3.141592653589793	0.0	0.0	0.0
-0.5330567383870184	0.0	3.141592653589793	0.0	0.0	0.0
-0.5156097224386995	0.0	3.141592653589793	0.0	0.0	0.0
-0.4984385934222182	0.0	3.141592653589793	0.0	0.0	0.0
-0.4815465862804711	0.0	3.141592653589793	0.0	0.0	0.0
-0.4649368005596628	0.0	3.141592653589793	0.0	0.0	0.0
-0.4486121978603519	0.0	3.141592653589793	0.0	0.0	0.0
-0.4325755992886844	0.0	3.141592653589793	0.0	0.0	0.0
-0.4168296829074425	0.0	3.141592653589793	0.0	0.0	0.0
-0.4013769811872354	0.0	3.141592653589793	0.0	0.0	0.0
-0.3862198784576023	0.0	3.141592653589793	0.0	0.0	0.0
-0.3713606083581098	0.0	3.141592653589793	0.0	0.0	0.0
-0.3568012512895393	0.0	3.141592653589793	0.0	0.0	0.0
-0.34254373186504594	0.0	3.141592653589793	0.0	0.0	0.0
-0.3285898163611769	0.0	3.141592653589793	0.0	0.0	0.0
-0.3149411101690909	0.0	3.141592653589793	0.0	0.0	0.0
-0.30159905524569375	0.0	3.141592653589793	0.0	0.0	0.0
-0.2885649275647193	0.0	3.141592653589793	0.0	0.0	0.0
-0.2758398345678952	0.0	3.141592653589793	0.0	0.0	0.0
-0.2634247126160627	0.0	3.141592653589793	0.0	0.0	0.0
-0.2513203244403215	0.0	3.141592653589793	0.0	0.0	0.0
-0.23952725659313856	0.0	3.141592653589793	0.0	0.0	0.0
-0.2280459168995126	0.0	3.141592653589793	0.0	0.0	0.0
-0.2168765319080581	0.0	3.141592653589793	0.0	0.0	0.0
-0.20601914434219637	0.0	3.141592653589793	0.0	0.0	0.0
-0.19547361055123424	0.0	3.141592653589793	0.0	0.0	0.0
-0.18523959796152312	0.0	3.141592653589793	0.0	0.0	0.0
-0.1753165825275822	0.0	3.141592653589793	0.0	0.0	0.0
-0.1657038461832432	0.0	3.141592653589793	0.0	0.0	0.0
-0.15640047429276294	0.0	3.141592653589793	0.0	0.0	0.0
-0.14740535310195924	0.0	3.141592653589793	0.0	0.0	0.0
-0.13871716718936788	0.0	3.141592653589793	0.0	0.0	0.0
-0.13033439691732696	0.0	3.141592653589793	0.0	0.0	0.0
-0.12225531588315874	0.0	3.141592653589793	0.0	0.0	0.0
-0.11447798837023804	0.0	3.141592653589793	0.0	0.0	0.0
-0.10700026679924157	0.0	3.141592653589793	0.0	0.0	0.0
-0.0998197891791115	0.0	3.141592653589793	0.0	0.0	0.0
-0.09293397655833147	0.0	3.141592653589793	0.0	0.0	0.0
-0.08634003047598782	0.0	3.141592653589793	0.0	0.0	0.0
-0.08003493041291421	0.0	3.141592653589793	0.0	0.0	0.0
-0.07401543124283094	0.0	3.141592653589793	0.0	0.0	0.0
-0.06827806068348963	0.0	3.141592653589793	0.0	0.0	0.0
-0.06281911674776453	0.0	3.141592653589793	0.0	0.0	0.0
-0.05763466519479721	0.0	3.141592653589793	0.0	0.0	0.0
-0.052720536981162525	0.0	3.141592653589793	0.0	0.0	0.0
-0.04807232571198483	0.0	3.141592653589793	0.0	0.0	0.0
-0.04368538509200093	0.0	3.141592653589793	0.0	0.0	0.0
-0.03955482637683261	0.0	3.141592653589793	0.0	0.0	0.0
-0.03567551582397854	0.0	3.141592653589793	0.0	0.0	0.0
-0.03204207214403354	0.0	3.141592653589793	0.0	0.0	0.0
-0.028648863951758585	0.0	3.141592653589793	0.0	0.0	0.0
-0.025490007217292998	0.0	3.141592653589793	0.0	0.0	0.0
-0.02255936271720671	0.0	3.141592653589793	0.0	0.0	0.0
-0.019850533485644917	0.0	3.141592653589793	0.0	0.0	0.0
-0.017356862265511808	0.0	3.141592653589793	0.0	0.0	0.0
-0.015071428959579691	0.0	3.141592653589793	0.0	0.0	0.0
-0.012987048081591013	0.0	3.141592653589793	0.0	0.0	0.0
-0.011096266207349714	0.0	3.141592653589793	0.0	0.0	0.0
-0.009391359426043522	0.0	3.141592653589793	0.0	0.0	0.0
-0.00786433079111859	0.0	3.141592653589793	0.0	0.0	0.0
-0.006506907771594683	0.0	3.141592653589793	0.0	0.0	0.0
-0.005310539703128114	0.0	3.141592653589793	0.0	0.0	0.0
-0.0042663952391421844	0.0	3.141592653589793	0.0	0.0	0.0
-0.003365359802049994	0.0	3.141592653589793	0.0	0.0	0.0
-0.002598033034164615	0.0	3.141592653589793	0.0	0.0	0.0
-0.001954726249056904	0.0	3.141592653589793	0.0	0.0	0.0
-0.0014254598826184406	0.0	3.141592653589793	0.0	0.0	0.0
-0.0009999609441315727	0.0	3.141592653589793	0.0	0.0	0.0
-0.000667660467492226	0.0	3.141592653589793	0.0	0.0	0.0
-0.0004176909622479741	0.0	3.141592653589793	0.0	0.0	0.0
-0.0002388838648172964	0.0	3.141592653589793	0.0	0.0	0.0
-0.00011976698956317477	0.0	3.141592653589793	0.0	0.0	0.0
-4.8561979959060864e-05	0.0	3.141592653589793	0.0	0.0	0.0
-1.3181759683789096e-05	0.0	3.141592653589793	0.0	0.0	0.0
-1.2279837733331078e-06	0.0	3.141592653589793	0.0	0.0	0.0
0.0	0.0	3.141592653589793	0.0	0.0	0.0
0.0	-2.550046270877759e-05	3.141592653589793	0.0	0.0	0.0
0.0	-0.00019919668251171382	3.141592653589793	0.0	0.0	0.0
0.0	-0.0006562715298030435	3.141592653589793	0.0	0.0	0.0
0.0	-0.0015181290005689446	3.141592653589793	0.0	0.0	0.0
0.0	-0.0028928529185785817	3.141592653589793	0.0	0.0	0.0
0.0	-0.004875665637575151	3.141592653589793	0.0	0.0	0.0
0.0	-0.007549386743466927	3.141592653589793	0.0	0.0	0.0
0.0	-0.010984891756518305	3.141592653589793	0.0	0.0	0.0
0.0	-0.015241570833540849	3.141592653589793	0.0	0.0	0.0
0.0	-0.020367787470084334	3.141592653589793	0.0	0.0	0.0
0.0	-0.026401337202627793	3.141592653589793	0.0	0.0	0.0
0.0	-0.03336990631077057	3.141592653589793	0.0	0.0	0.0
0.0	-0.04129153051942333	3.141592653589793	0.0	0.0	0.0
0.0	-0.050175053700999166	3.141592653589793	0.0	0.0	0.0
0.0	-0.0600205865776046	3.141592653589793	0.0	0.0	0.0
0.0	-0.0708199654232306	3.141592653589793	0.0	0.0	0.0
0.0	-0.08255721076594368	3.141592653589793	0.0	0.0	0.0
0.0	-0.09520898609007697	3.141592653589793	0.0	0.0	0.0
0.0	-0.10874505653842112	3.141592653589793	0.0	0.0	0.0
0.0	-0.12312874761441563	3.141592653589793	0.0	0.0	0.0
0.0	-0.1383174038843394	3.141592653589793	0.0	0.0	0.0
0.0	-0.15426284767950238	3.141592653589793	0.0	0.0	0.0
0.0	-0.17091183779843613	3.141592653589793	0.0	0.0	0.0
0.0	-0.1882065282090852	3.141592653589793	0.0	0.0	0.0
0.0	-0.20608492675099782	3.141592653589793	0.0	0.0	0.0
0.0	-0.22448135383751738	3.141592653589793	0.0	0.0	0.0
0.0	-0.24332690115797323	3.141592653589793	0.0	0.0	0.0
0.0	-0.2625498903798714	3.141592653589793	0.0	0.0	0.0
0.0	-0.2820763318510864	3.141592653589793	0.0	0.0	0.0
0.0	-0.3018303833020519	3.141592653589793	0.0	0.0	0.0
0.0	-0.32173480854795117	3.141592653589793	0.0	0.0	0.0
0.0	-0.34171143619090905	3.141592653589793	0.0	0.0	0.0
0.0	-0.3616816183221829	3.141592653589793	0.0	0.0	0.0
0.0	-0.3815666892243528	3.141592653589793	0.0	0.0	0.0
0.0	-0.40128842407351367	3.141592653589793	0.0	0.0	0.0
0.0	-0.42076949764146543	3.141592653589793	0.0	0.0	0.0
0.0	-0.4399339429979045	3.141592653589793	0.0	0.0	0.0
0.0	-0.45870761021261514	3.141592653589793	0.0	0.0	0.0
0.0	-0.4770186250576594	3.141592653589793	0.0	0.0	0.0
0.0	-0.49479784770956997	3.141592653589793	0.0	0.0	0.0
0.0	-0.5119793314515392	3.141592653589793	0.0	0.0	0.0
0.0	-0.5285007813756113	3.141592653589793	0.0	0.0	0.0
0.0	-0.5443040130848734	3.141592653589793	0.0	0.0	0.0
0.0	-0.5593354113956461	3.141592653589793	0.0	0.0	0.0
0.0	-0.5735463890396753	3.141592653589793	0.0	0.0	0.0
0.0	-0.5868938453663218	3.141592653589793	0.0	0.0	0.0
0.0	-0.5993406250447538	3.141592653589793	0.0	0.0	0.0
0.0	-0.6108559767661387	3.141592653589793	0.0	0.0	0.0
0.0	-0.6214160119458305	3.141592653589793	0.0	0.0	0.0
0.0	-0.6310041634255643	3.141592653589793	0.0	0.0	0.0
0.0	-0.639611644175647	3.141592653589793	0.0	0.0	0.0
0.0	-0.6472379059971456	3.141592653589793	0.0	0.0	0.0
0.0	-0.6538910982240833	3.141592653589793	0.0	0.0	0.0
0.0	-0.6595885264256252	3.141592653589793	0.0	0.0	0.0
0.0	-0.6643571111082704	3.141592653589793	0.0	0.0	0.0
0.0	-0.6682338464180497	3.141592653589793	0.0	0.0	0.0
0.0	-0.6712662588427034	3.141592653589793	0.0	0.0	0.0
0.0	-0.6735128659138869	3.141592653589793	0.0	0.0	0.0
0.0	-0.6750436349093523	3.141592653589793	0.0	0.0	0.0
0.0	-0.6759404415551415	3.141592653589793	0.0	0.0	0.0
0.0	-0.6762975287277802	3.141592653589793	0.0	0.0	0.0
0.0	-0.6763150851478027	3.141592653589793	0.0	0.0	0.0
0.0	-0.6763150851478027	3.141592653589793	0.0	0.0	0.0
0.0	-0.6761150851478027	3.141592653589793	0.0	0.0	0.0
0.0	-0.6755150851478027	3.141592653589793	0.0	0.0	0.0
0.0	-0.6745150851478027	3.141592653589793	0.0	0.0	0.0
0.0	-0.6731150851478027	3.141592653589793	0.0	0.0	0.0
0.0	-0.6713150851478027	3.141592653589793	0.0	0.0	0.0
0.0	-0.6691150851478027	3.141592653589793	0.0	0.0	0.0
0.0	-0.6665150851478027	3.141592653589793	0.0	0.0	0.0
0.0	-0.6635150851478027	3.141592653589793	0.0	0.0	0.0
0.0	-0.6601150851478027	3.141592653589793	0.0	0.0	0.0
0.0	-0.6563150851478027	3.141592653589793	0.0	0.0	0.0
0.0	-0.6521150851478027	3.141592653589793	0.0	0.0	0.0
0.0	-0.6475150851478026	3.141592653589793	0.0	0.0	0.0
0.0	-0.6425150851478028	3.141592653589793	0.0	0.0	0.0
0.0	-0.6371150851478027	3.141592653589793	0.0	0.0	0.0
0.0	-0.6313150851478027	3.141592653589793	0.0	0.0	0.0
0.0	-0.6251150851478027	3.141592653589793	0.0	0.0	0.0
0.0	-0.6185150851478027	3.141592653589793	0.0	0.0	0.0
0.0	-0.6115150851478027	3.141592653589793	0.0	0.0	0.0
0.0	-0.6041150851478027	3.141592653589793	0.0	0.0	0.0
0.0	-0.5963150851478026	3.141592653589793	0.0	0.0	0.0
0.0	-0.5881150851478026	3.141592653589793	0.0	0.0	0.0
0.0	-0.5795150851478026	3.141592653589793	0.0	0.0	0.0
0.0	-0.5705150851478027	3.141592653589793	0.0	0.0	0.0
0.0	-0.5611150851478026	3.141592653589793	0.0	0.0	0.0
0.0	-0.5513150851478026	3.141592653589793	0.0	0.0	0.0
0.0	-0.5411150851478026	3.141592653589793	0.0	0.0	0.0
0.0	-0.5305150851478027	3.141592653589793	0.0	0.0	0.0
0.0	-0.5195150851478026	3.141592653589793	0.0	0.0	0.0
0.0	-0.5081150851478026	3.141592653589793	0.0	0.0	0.0
0.0	-0.49631508514780254	3.141592653589793	0.0	0.0	0.0
0.0	-0.48411508514780255	3.141592653589793	0.0	0.0	0.0
0.0	-0.47151508514780255	3.141592653589793	0.0	0.0	0.0
0.0	-0.45851508514780254	3.141592653589793	0.0	0.0	0.0
0.0	-0.4451150851478025	3.141592653589793	0.0	0.0	0.0
0.0	-0.4313150851478025	3.141592653589793	0.0	0.0	0.0
0.0	-0.4171150851478025	3.141592653589793	0.0	0.0	0.0
0.0	-0.40251508514780243	3.141592653589793	0.0	0.0	0.0
0.0	-0.3875150851478024	3.141592653589793	0.0	0.0	0.0
0.0	-0.3721150851478024	3.141592653589793	0.0	0.0	0.0
0.0	-0.3563150851478024	3.141592653589793	0.0	0.0	0.0
0.0	-0.34011508514780237	3.141592653589793	0.0	0.0	0.0
0.0	-0.32351508514780236	3.141592653589793	0.0	0.0	0.0
0.0	-0.30651508514780235	3.141592653589793	0.0	0.0	0.0
0.0	-0.2891150851478023	3.141592653589793	0.0	0.0	0.0
0.0	-0.2713150851478023	3.141592653589793	0.0	0.0	0.0
0.0	-0.25311508514780223	3.141592653589793	0.0	0.0	0.0
0.0	-0.23451508514780223	3.141592653589793	0.0	0.0	0.0
0.0	-0.2155150851478022	3.141592653589793	0.0	0.0	0.0
0.0	-0.19611508514780218	3.141592653589793	0.0	0.0	0.0
0.0	-0.17631508514780225	3.141592653589793	0.0	0.0	0.0
0.0	-0.15611508514780226	3.141592653589793	0.0	0.0	0.0
0.0	-0.1355150851478022	3.141592653589793	0.0	0.0	0.0
0.0	-0.11451508514780218	3.141592653589793	0.0	0.0	0.0
0.0	-0.09311508514780209	3.141592653589793	0.0	0.0	0.0
0.0	-0.07131508514780216	3.141592653589793	0.0	0.0	0.0
0.0	-0.04911508514780205	3.141592653589793	0.0	0.0	0.0
0.0	-0.026530408719425802	3.141592653589793	0.0	0.0	0.0
0.0	-0.0038411284434994863	3.141592653589793	0.0	0.0	0.0
0.0	0.01884815183242683	3.141592653589793	0.0	0.0	0.0
0.0	0.041537432108353145	3.141592653589793	0.0	0.0	0.0
0.0	0.06422671238427946	3.141592653589793	0.0	0.0	0.0
0.0	0.08691599266020578	3.141592653589793	0.0	0.0	0.0
0.0	0.10960527293613209	3.141592653589793	0.0	0.0	0.0
0.0	0.1322945532120584	3.141592653589793	0.0	0.0	0.0
0.0	0.154917265440647	3.141592653589793	0.0	0.0	0.0
0.0	0.17717577648580407	3.141592653589793	0.0	0.0	0.0
0.0	0.19903428753096108	3.141592653589793	0.0	0.0	0.0
0.0	0.22049279857611814	3.141592653589793	0.0	0.0	0.0
0.0	0.24155130962127525	3.141592653589793	0.0	0.0	0.0
0.0	0.2622098206664323	3.141592653589793	0.0	0.0	0.0
0.0	0.28246833171158936	3.141592653589793	0.0	0.0	0.0
0.0	0.30232684275674643	3.141592653589793	0.0	0.0	0.0
0.0	0.3217853538019035	3.141592653589793	0.0	0.0	0.0
0.0	0.3408438648470606	3.141592653589793	0.0	0.0	0.0
0.0	0.3595023758922176	3.141592653589793	0.0	0.0	0.0
0.0	0.3777608869373747	3.141592653589793	0.0	0.0	0.0
0.0	0.39561939798253176	3.141592653589793	0.0	0.0	0.0
0.0	0.4130779090276888	3.141592653589793	0.0	0.0	0.0
0.0	0.43013642007284586	3.141592653589793	0.0	0.0	0.0
0.0	0.4467949311180029	3.141592653589793	0.0	0.0	0.0
0.0	0.46305344216315997	3.141592653589793	0.0	0.0	0.0
0.0	0.47891195320831703	3.141592653589793	0.0	0.0	0.0
0.0	0.4943704642534741	3.141592653589793	0.0	0.0	0.0
0.0	0.5094289752986312	3.141592653589793	0.0	0.0	0.0
0.0	0.5240874863437881	3.141592653589793	0.0	0.0	0.0
0.0	0.5383459973889453	3.141592653589793	0.0	0.0	0.0
0.0	0.5522045084341023	3.141592653589793	0.0	0.0	0.0
0.0	0.5656630194792593	3.141592653589793	0.0	0.0	0.0
0.0	0.5787215305244164	3.141592653589793	0.0	0.0	0.0
0.0	0.5913800415695734	3.141592653589793	0.0	0.0	0.0
0.0	0.6036385526147305	3.141592653589793	0.0	0.0	0.0
0.0	0.6154970636598875	3.141592653589793	0.0	0.0	0.0
0.0	0.6269555747050446	3.141592653589793	0.0	0.0	0.0
0.0	0.6380140857502016	3.141592653589793	0.0	0.0	0.0
0.0	0.6486725967953586	3.141592653589793	0.0	0.0	0.0
0.0	0.6589311078405157	3.141592653589793	0.0	0.0	0.0
0.0	0.6687896188856728	3.141592653589793	0.0	0.0	0.0
0.0	0.6782481299308298	3.141592653589793	0.0	0.0	0.0
0.0	0.6873066409759868	3.141592653589793	0.0	0.0	0.0
0.0	0.6959651520211438	3.141592653589793	0.0	0.0	0.0
0.0	0.7042236630663009	3.141592653589793	0.0	0.0	0.0
0.0	0.7120821741114579	3.141592653589793	0.0	0.0	0.0
0.0	0.719540685156615	3.141592653589793	0.0	0.0	0.0
0.0	0.726599196201772	3.141592653589793	0.0	0.0	0.0
0.0	0.7332577072469291	3.141592653589793	0.0	0.0	0.0
0.0	0.7395162182920861	3.141592653589793	0.0	0.0	0.0
0.0	0.7453747293372431	3.141592653589793	0.0	0.0	0.0
0.0	0.7508332403824002	3.141592653589793	0.0	0.0	0.0
0.0	0.7558917514275572	3.141592653589793	0.0	0.0	0.0
0.0	0.7605502624727143	3.141592653589793	0.0	0.0	0.0
0.0	0.7648087735178712	3.141592653589793	0.0	0.0	0.0
0.0	0.7686672845630284	3.141592653589793	0.0	0.0	0.0
0.0	0.7721257956081853	3.141592653589793	0.0	0.0	0.0
0.0	0.7751843066533424	3.141592653589793	0.0	0.0	0.0
0.0	0.7778428176984994	3.141592653589793	0.0	0.0	0.0
0.0	0.7801013287436565	3.141592653589793	0.0	0.0	0.0
0.0	0.7819598397888134	3.141592653589793	0.0	0.0	0.0
0.0	0.7834183508339705	3.141592653589793	0.0	0.0	0.0
0.0	0.7844768618791275	3.141592653589793	0.0	0.0	0.0
0.0	0.7851353729242846	3.141592653589793	0.0	0.0	0.0
0.0	0.7853981633974483	3.141592653589793	0.0	0.0	0.0
0.0	0.7853981633974483	3.141592653589793	0.0	0.0	0.0
0.0	0.7851981633974483	3.141592653589793	0.0	0.0	0.0
0.0	0.7845981633974483	3.141592653589793	0.0	0.0	0.0
0.0	0.7835981633974483	3.141592653589793	0.0	0.0	0.0
0.0	0.7821981633974483	3.141592653589793	0.0	0.0	0.0
0.0	0.7803981633974483	3.141592653589793	0.0	0.0	0.0
0.0	0.7781981633974483	3.141592653589793	0.0	0.0	0.0
0.0	0.7755981633974482	3.141592653589793	0.0	0.0	0.0
0.0	0.7725981633974482	3.141592653589793	0.0	0.0	0.0
0.0	0.7691981633974483	3.141592653589793	0.0	0.0	0.0
0.0	0.7653981633974483	3.141592653589793	0.0	0.0	0.0
0.0	0.7611981633974483	3.141592653589793	0.0	0.0	0.0
0.0	0.7565981633974483	3.141592653589793	0.0	0.0	0.0
0.0	0.7515981633974483	3.141592653589793	0.0	0.0	0.0
0.0	0.7461981633974483	3.141592653589793	0.0	0.0	0.0
0.0	0.7403981633974482	3.141592653589793	0.0	0.0	0.0
0.0	0.7341981633974483	3.141592653589793	0.0	0.0	0.0
0.0	0.7275981633974483	3.141592653589793	0.0	0.0	0.0
0.0	0.7205981633974483	3.141592653589793	0.0	0.0	0.0
0.0	0.7131981633974482	3.141592653589793	0.0	0.0	0.0
0.0	0.7053981633974482	3.141592653589793	0.0	0.0	0.0
0.0	0.6971981633974482	3.141592653589793	0.0	0.0	0.0
0.0	0.6885981633974483	3.141592653589793	0.0	0.0	0.0
0.0	0.6795981633974482	3.141592653589793	0.0	0.0	0.0
0.0	0.6701981633974482	3.141592653589793	0.0	0.0	0.0
0.0	0.6603981633974483	3.141592653589793	0.0	0.0	0.0
0.0	0.6501981633974482	3.141592653589793	0.0	0.0	0.0
0.0	0.6395981633974482	3.141592653589793	0.0	0.0	0.0
0.0	0.6285981633974482	3.141592653589793	0.0	0.0	0.0
0.0	0.6171981633974482	3.141592653589793	0.0	0.0	0.0
0.0	0.6053981633974481	3.141592653589793	0.0	0.0	0.0
0.0	0.5931981633974481	3.141592653589793	0.0	0.0	0.0
0.0	0.5805981633974482	3.141592653589793	0.0	0.0	0.0
0.0	0.5675981633974481	3.141592653589793	0.0	0.0	0.0
0.0	0.5541981633974481	3.141592653589793	0.0	0.0	0.0
0.0	0.5403981633974481	3.141592653589793	0.0	0.0	0.0
0.0	0.5261981633974481	3.141592653589793	0.0	0.0	0.0
0.0	0.511598163397448	3.141592653589793	0.0	0.0	0.0
0.0	0.496598163397448	3.141592653589793	0.0	0.0	0.0
0.0	0.481198163397448	3.141592653589793	0.0	0.0	0.0
0.0	0.465398163397448	3.141592653589793	0.0	0.0	0.0
0.0	0.44919816339744795	3.141592653589793	0.0	0.0	0.0
0.0	0.43259816339744794	3.141592653589793	0.0	0.0	0.0
0.0	0.41559816339744793	3.141592653589793	0.0	0.0	0.0
0.0	0.3981981633974479	3.141592653589793	0.0	0.0	0.0
0.0	0.38039816339744786	3.141592653589793	0.0	0.0	0.0
0.0	0.3621981633974478	3.141592653589793	0.0	0.0	0.0
0.0	0.3435981633974478	3.141592653589793	0.0	0.0	0.0
0.0	0.3245981633974478	3.141592653589793	0.0	0.0	0.0
0.0	0.30519816339744776	3.141592653589793	0.0	0.0	0.0
0.0	0.28539816339744783	3.141592653589793	0.0	0.0	0.0
0.0	0.26519816339744784	3.141592653589793	0.0	0.0	0.0
0.0	0.24459816339744778	3.141592653589793	0.0	0.0	0.0
0.0	0.22359816339744776	3.141592653589793	0.0	0.0	0.0
0.0	0.20219816339744767	3.141592653589793	0.0	0.0	0.0
0.0	0.18039816339744774	3.141592653589793	0.0	0.0	0.0
0.0	0.15819816339744763	3.141592653589793	0.0	0.0	0.0
0.0	0.13561348696907138	3.141592653589793	0.0	0.0	0.0
0.0	0.11292420669314507	3.141592653589793	0.0	0.0	0.0
0.0	0.09023492641721875	3.141592653589793	0.0	0.0	0.0
0.0	0.06754564614129244	3.141592653589793	0.0	0.0	0.0
0.0	0.04485636586536612	3.141592653589793	0.0	0.0	0.0
0.0	0.022167085589439806	3.141592653589793	0.0	0.0	0.0
0.0	-0.0005221946864865101	3.141592653589793	0.0	0.0	0.0
0.0	-0.023211474962412826	3.141592653589793	0.0	0.0	0.0
0.0	-0.04583418719100141	3.141592653589793	0.0	0.0	0.0
0.0	-0.06809269823615849	3.141592653589793	0.0	0.0	0.0
0.0	-0.0899512092813155	3.141592653589793	0.0	0.0	0.0
0.0	-0.11140972032647256	3.141592653589793	0.0	0.0	0.0
0.0	-0.13246823137162966	3.141592653589793	0.0	0.0	0.0
0.0	-0.1531267424167867	3.141592653589793	0.0	0.0	0.0
0.0	-0.17338525346194378	3.141592653589793	0.0	0.0	0.0
0.0	-0.19324376450710085	3.141592653589793	0.0	0.0	0.0
0.0	-0.2127022755522579	3.141592653589793	0.0	0.0	0.0
0.0	-0.231760786597415	3.141592653589793	0.0	0.0	0.0
0.0	-0.25041929764257204	3.141592653589793	0.0	0.0	0.0
0.0	-0.2686778086877291	3.141592653589793	0.0	0.0	0.0
0.0	-0.2865363197328862	3.141592653589793	0.0	0.0	0.0
0.0	-0.30399483077804323	3.141592653589793	0.0	0.0	0.0
0.0	-0.3210533418232003	3.141592653589793	0.0	0.0	0.0
0.0	-0.3377118528683573	3.141592653589793	0.0	0.0	0.0
0.0	-0.3539703639135144	3.141592653589793	0.0	0.0	0.0
0.0	-0.36982887495867145	3.141592653589793	0.0	0.0	0.0
0.0	-0.3852873860038285	3.141592653589793	0.0	0.0	0.0
0.0	-0.40034589704898554	3.141592653589793	0.0	0.0	0.0
0.0	-0.4150044080941426	3.141592653589793	0.0	0.0	0.0
0.0	-0.42926291913929965	3.141592653589793	0.0	0.0	0.0
0.0	-0.4431214301844567	3.141592653589793	0.0	0.0	0.0
0.0	-0.45657994122961376	3.141592653589793	0.0	0.0	0.0
0.0	-0.4696384522747708	3.141592653589793	0.0	0.0	0.0
0.0	-0.48229696331992783	3.141592653589793	0.0	0.0	0.0
0.0	-0.4945554743650849	3.141592653589793	0.0	0.0	0.0
0.0	-0.506413985410242	3.141592653589793	0.0	0.0	0.0
0.0	-0.517872496455399	3.141592653589793	0.0	0.0	0.0
0.0	-0.528931007500556	3.141592653589793	0.0	0.0	0.0
0.0	-0.5395895185457131	3.141592653589793	0.0	0.0	0.0
0.0	-0.5498480295908701	3.141592653589793	0.0	0.0	0.0
0.0	-0.5597065406360272	3.141592653589793	0.0	0.0	0.0
0.0	-0.5691650516811841	3.141592653589793	0.0	0.0	0.0
0.0	-0.5782235627263412	3.141592653589793	0.0	0.0	0.0
0.0	-0.5868820737714983	3.141592653589793	0.0	0.0	0.0
0.0	-0.5951405848166553	3.141592653589793	0.0	0.0	0.0
0.0	-0.6029990958618123	3.141592653589793	0.0	0.0	0.0
0.0	-0.6104576069069694	3.141592653589793	0.0	0.0	0.0
0.0	-0.6175161179521265	3.141592653589793	0.0	0.0	0.0
0.0	-0.6241746289972835	3.141592653589793	0.0	0.0	0.0
0.0	-0.6304331400424406	3.141592653589793	0.0	0.0	0.0
0.0	-0.6362916510875976	3.141592653589793	0.0	0.0	0.0
0.0	-0.6417501621327546	3.141592653589793	0.0	0.0	0.0
0.0	-0.6468086731779116	3.141592653589793	0.0	0.0	0.0
0.0	-0.6514671842230687	3.141592653589793	0.0	0.0	0.0
0.0	-0.6557256952682257	3.141592653589793	0.0	0.0	0.0
0.0	-0.6595842063133828	3.141592653589793	0.0	0.0	0.0
0.0	-0.6630427173585398	3.141592653589793	0.0	0.0	0.0
0.0	-0.6661012284036968	3.141592653589793	0.0	0.0	0.0
0.0	-0.6687597394488538	3.141592653589793	0.0	0.0	0.0
0.0	-0.6710182504940109	3.141592653589793	0.0	0.0	0.0
0.0	-0.6728767615391679	3.141592653589793	0.0	0.0	0.0
0.0	-0.6743352725843249	3.141592653589793	0.0	0.0	0.0
0.0	-0.6753937836294819	3.141592653589793	0.0	0.0	0.0
0.0	-0.676052294674639	3.141592653589793	0.0	0.0	0.0
0.0	-0.6763150851478027	3.141592653589793	0.0	0.0	0.0
0.0	-0.6764767968977153	3.141592653589793	0.0	0.0	0.0
0.0	-0.6768156739857599	3.141592653589793	0.0	0.0	0.0
0.0	-0.6771275423326062	3.141592653589793	0.0	0.0	0.0
0.0	-0.6772279783453964	3.141592653589793	0.0	0.0	0.0
0.0	-0.6769516417538206	3.141592653589793	0.0	0.0	0.0
0.0	-0.6761516084461898	3.141592653589793	0.0	0.0	0.0
0.0	-0.6746987033055116	3.141592653589793	0.0	0.0	0.0
0.0	-0.6724808330455643	3.141592653589793	0.0	0.0	0.0
0.0	-0.6694023190469709	3.141592653589793	0.0	0.0	0.0
0.0	-0.6653832301932748	3.141592653589793	0.0	0.0	0.0
0.0	-0.6603587157070133	3.141592653589793	0.0	0.0	0.0
0.0	-0.6542783379857923	3.141592653589793	0.0	0.0	0.0
0.0	-0.6471054054383607	3.141592653589793	0.0	0.0	0.0
0.0	-0.6388163053206856	3.141592653589793	0.0	0.0	0.0
0.0	-0.6293998365720261	3.141592653589793	0.0	0.0	0.0
0.0	-0.6188565426510079	3.141592653589793	0.0	0.0	0.0
0.0	-0.607198044371698	3.141592653589793	0.0	0.0	0.0
0.0	-0.5944463727396792	3.141592653589793	0.0	0.0	0.0
0.0	-0.5806333017881243	3.141592653589793	0.0	0.0	0.0
0.0	-0.5657996814138709	3.141592653589793	0.0	0.0	0.0
0.0	-0.5499947702134961	3.141592653589793	0.0	0.0	0.0
0.0	-0.5332755683193904	3.141592653589793	0.0	0.0	0.0
0.0	-0.5157061502358323	3.141592653589793	0.0	0.0	0.0
0.0	-0.49735699767506397	3.141592653589793	0.0	0.0	0.0
0.0	-0.4783043323933638	3.141592653589793	0.0	0.0	0.0
0.0	-0.4586294490271224	3.141592653589793	0.0	0.0	0.0
0.0	-0.43841804792891637	3.141592653589793	0.0	0.0	0.0
0.0	-0.4177595680035834	3.141592653589793	0.0	0.0	0.0
0.0	-0.39674651954429635	3.141592653589793	0.0	0.0	0.0
0.0	-0.37547381706863725	3.141592653589793	0.0	0.0	0.0
0.0	-0.3540381121546734	3.141592653589793	0.0	0.0	0.0
0.0	-0.3325371262770303	3.141592653589793	0.0	0.0	0.0
0.0	-0.3110689836429657	3.141592653589793	0.0	0.0	0.0
0.0	-0.28973154402844753	3.141592653589793	0.0	0.0	0.0
0.0	-0.26862173561422364	3.141592653589793	0.0	0.0	0.0
0.0	-0.24783488782189983	3.141592653589793	0.0	0.0	0.0
0.0	-0.22746406415001297	3.141592653589793	0.0	0.0	0.0
0.0	-0.2075993950101055	3.141592653589793	0.0	0.0	0.0
0.0	-0.18832741056280056	3.141592653589793	0.0	0.0	0.0
0.0	-0.16973037355387588	3.141592653589793	0.0	0.0	0.0
0.0	-0.1518856121503369	3.141592653589793	0.0	0.0	0.0
0.0	-0.13486485277649563	3.141592653589793	0.0	0.0	0.0
0.0	-0.1187335529500414	3.141592653589793	0.0	0.0	0.0
0.0	-0.10355023411811481	3.141592653589793	0.0	0.0	0.0
0.0	-0.08936581449338643	3.141592653589793	0.0	0.0	0.0
0.0	-0.07622294189012524	3.141592653589793	0.0	0.0	0.0
0.0	-0.06415532656027989	3.141592653589793	0.0	0.0	0.0
0.0	-0.05318707402954703	3.141592653589793	0.0	0.0	0.0
0.0	-0.04333201793345043	3.141592653589793	0.0	0.0	0.0
0.0	-0.03459305285341374	3.141592653589793	0.0	0.0	0.0
0.0	-0.026961467152832652	3.141592653589793	0.0	0.0	0.0
0.0	-0.02041627581315497	3.141592653589793	0.0	0.0	0.0
0.0	-0.014923553269948542	3.141592653589793	0.0	0.0	0.0
0.0	-0.010435766248983569	3.141592653589793	0.0	0.0	0.0
0.0	-0.006891106602295416	3.141592653589793	0.0	0.0	0.0
0.0	-0.004212824144274485	3.141592653589793	0.0	0.0	0.0
0.0	-0.002308559487724793	3.141592653589793	0.0	0.0	0.0
0.0	-0.0010696768799540735	3.141592653589793	0.0	0.0	0.0
0.0	-0.00037059703883413064	3.141592653589793	0.0	0.0	0.0
0.0	-6.812998888161559e-05	3.141592653589793	0.0	0.0	0.0
0.0	-8.078973356973052e-07	3.141592653589793	0.0	0.0	0.0
0.0	0.0	3.141592653589793	0.0	0.0	0.0
0.0	0.0	3.1415897117931433	0.0	0.0	0.0
0.0	0.0	3.14156927686703	0.0	0.0	0.0
0.0	0.0	3.1415142873435387	0.0	0.0	0.0
0.0	0.0	3.1414081488660277	0.0	0.0	0.0
0.0	0.0	3.1412347300176737	0.0	0.0	0.0
0.0	0.0	3.1409783581500146	0.0	0.0	0.0
0.0	0.0	3.1406238152114963	0.0	0.0	0.0
0.0	0.0	3.1401563335760136	0.0	0.0	0.0
0.0	0.0	3.1395615918714563	0.0	0.0	0.0
0.0	0.0	3.1388257108082525	0.0	0.0	0.0
0.0	0.0	3.1379352490079135	0.0	0.0	0.0
0.0	0.0	3.1368771988315762	0.0	0.0	0.0
0.0	0.0	3.135638982208552	0.0	0.0	0.0
0.0	0.0	3.134208446464862	0.0	0.0	0.0
0.0	0.0	3.1325738601517923	0.0	0.0	0.0
0.0	0.0	3.130723908874428	0.0	0.0	0.0
0.0	0.0	3.1286476911202032	0.0	0.0	0.0
0.0	0.0	3.1263347140874442	0.0	0.0	0.0
0.0	0.0	3.123774889513912	0.0	0.0	0.0
0.0	0.0	3.120958529505349	0.0	0.0	0.0
0.0	0.0	3.1178763423640197	0.0	0.0	0.0
0.0	0.0	3.114519428417258	0.0	0.0	0.0
0.0	0.0	3.1108792758460098	0.0	0.0	0.0
0.0	0.0	3.1069477565133763	0.0	0.0	0.0
0.0	0.0	3.1027171217931615	0.0	0.0	0.0
0.0	0.0	3.098179998398412	0.0	0.0	0.0
0.0	0.0	3.093329384209963	0.0	0.0	0.0
0.0	0.0	3.0881586441049858	0.0	0.0	0.0
0.0	0.0	3.082661505785523	0.0	0.0	0.0
0.0	0.0	3.0768320556070443	0.0	0.0	0.0
0.0	0.0	3.070664734406981	0.0	0.0	0.0
0.0	0.0	3.064154333333274	0.0	0.0	0.0
0.0	0.0	3.0572959896729195	0.0	0.0	0.0
0.0	0.0	3.0500851826805095	0.0	0.0	0.0
0.0	0.0	3.042517729406779	0.0	0.0	0.0
0.0	0.0	3.0345897805271487	0.0	0.0	0.0
0.0	0.0	3.0262978161702683	0.0	0.0	0.0
0.0	0.0	3.0176386417465615	0.0	0.0	0.0
0.0	0.0	3.0086093837767725	0.0	0.0	0.0
0.0	0.0	2.999207485720506	0.0	0.0	0.0
0.0	0.0	2.9894307038047736	0.0	0.0	0.0
0.0	0.0	2.9792771028525378	0.0	0.0	0.0
0.0	0.0	2.968745052111255	0.0	0.0	0.0
0.0	0.0	2.957833221081422	0.0	0.0	0.0
0.0	0.0	2.946540575345117	0.0	0.0	0.0
0.0	0.0	2.934866372394546	0.0	0.0	0.0
0.0	0.0	2.922810157460586	0.0	0.0	0.0
0.0	0.0	2.910371759341331	0.0	0.0	0.0
0.0	0.0	2.897551286230632	0.0	0.0	0.0
0.0	0.0	2.8843491215466455	0.0	0.0	0.0
0.0	0.0	2.870765919760374	0.0	0.0	0.0
0.0	0.0	2.856802602224214	0.0	0.0	0.0
0.0	0.0	2.8424603530004964	0.0	0.0	0.0
0.0	0.0	2.827740614690033	0.0	0.0	0.0
0.0	0.0	2.81264508426066	0.0	0.0	0.0
0.0	0.0	2.7971757088757805	0.0	0.0	0.0
0.0	0.0	2.781334681722912	0.0	0.0	0.0
0.0	0.0	2.7651244378422284	0.0	0.0	0.0
0.0	0.0	2.748547649955103	0.0	0.0	0.0
0.0	0.0	2.7316072242926546	0.0	0.0	0.0
0.0	0.0	2.714306296424292	0.0	0.0	0.0
0.0	0.0	2.6966482270862557	0.0	0.0	0.0
0.0	0.0	2.678636598010165	0.0	0.0	0.0
0.0	0.0	2.6602752077515586	0.0	0.0	0.0
0.0	0.0	2.6415680675184428	0.0	0.0	0.0
0.0	0.0	2.6225193969998317	0.0	0.0	0.0
0.0	0.0	2.6031336201942947	0.0	0.0	0.0
0.0	0.0	2.5834153612384982	0.0	0.0	0.0
0.0	0.0	2.5633694402357503	0.0	0.0	0.0
0.0	0.0	2.5430008690845476	0.0	0.0	0.0
0.0	0.0	2.522314847307112	0.0	0.0	0.0
0.0	0.0	2.501316757877946	0.0	0.0	0.0
0.0	0.0	2.480012163052365	0.0	0.0	0.0
0.0	0.0	2.458406800195051	0.0	0.0	0.0
0.0	0.0	2.4365065776085917	0.0	0.0	0.0
0.0	0.0	2.414317570362024	0.0	0.0	0.0
0.0	0.0	2.391846016119382	0.0	0.0	0.0
0.0	0.0	2.3690983109682375	0.0	0.0	0.0
0.0	0.0	2.3460810052482475	0.0	0.0	0.0
0.0	0.0	2.322800799379693	0.0	0.0	0.0
0.0	0.0	2.2992645396920306	0.0	0.0	0.0
0.0	0.0	2.275479214252429	0.0	0.0	0.0
0.0	0.0	2.2514519486943185	0.0	0.0	0.0
0.0	0.0	2.227190002045934	0.0	0.0	0.0
0.0	0.0	2.2027007625588557	0.0	0.0	0.0
0.0	0.0	2.177991743536559	0.0	0.0	0.0
0.0	0.0	2.1530705791629536	0.0	0.0	0.0
0.0	0.0	2.1279450203309302	0.0	0.0	0.0
0.0	0.0	2.102622930470904	0.0	0.0	0.0
0.0	0.0	2.0771122813793594	0.0	0.0	0.0
0.0	0.0	2.051421149047392	0.0	0.0	0.0
0.0	0.0	2.0255577094892563	0.0	0.0	0.0
0.0	0.0	1.9995302345709065	0.0	0.0	0.0
0.0	0.0	1.973347087838542	0.0	0.0	0.0
0.0	0.0	1.947016720347152	0.0	0.0	0.0
0.0	0.0	1.920547666489059	0.0	0.0	0.0
0.0	0.0	1.893948539822463	0.0	0.0	0.0
0.0	0.0	1.8672280288999852	0.0	0.0	0.0
0.0	0.0	1.840394893097213	0.0	0.0	0.0
0.0	0.0	1.8134579584412442	0.0	0.0	0.0
0.0	0.0	1.7864261134392287	0.0	0.0	0.0
0.0	0.0	1.7593083049069178	0.0	0.0	0.0
0.0	0.0	1.732113533797202	0.0	0.0	0.0
0.0	0.0	1.7048508510286586	0.0	0.0	0.0
0.0	0.0	1.677529353314098	0.0	0.0	0.0
0.0	0.0	1.650158178989102	0.0	0.0	0.0
0.0	0.0	1.622746503840574	0.0	0.0	0.0
0.0	0.0	1.5953035369352773	0.0	0.0	0.0
0.0	0.0	1.567838516448385	0.0	0.0	0.0
0.0	0.0	1.54036070549202	0.0	0.0	0.0
0.0	0.0	1.512879387943801	0.0	0.0	0.0
0.0	0.0	1.4854038642753853	0.0	0.0	0.0
0.0	0.0	1.4579434473810142	0.0	0.0	0.0
0.0	0.0	1.4305074584060569	0.0	0.0	0.0
0.0	0.0	1.4031052225755531	0.0	0.0	0.0
0.0	0.0	1.3757460650227622	0.0	0.0	0.0
0.0	0.0	1.3484393066176983	0.0	0.0	0.0
0.0	0.0	1.321194259795683	0.0	0.0	0.0
0.0	0.0	1.2940202243858856	0.0	0.0	0.0
0.0	0.0	1.2669264834398675	0.0	0.0	0.0
0.0	0.0	1.239922299060128	0.0	0.0	0.0
0.0	0.0	1.2130169082286444	0.0	0.0	0.0
0.0	0.0	1.1862195186354203	0.0	0.0	0.0
0.0	0.0	1.159539304507029	0.0	0.0	0.0
0.0	0.0	1.1329854024351556	0.0	0.0	0.0
0.0	0.0	1.106566907205142	0.0	0.0	0.0
0.0	0.0	1.0802928676245331	0.0	0.0	0.0
0.0	0.0	1.0541722823516169	0.0	0.0	0.0
0.0	0.0	1.028214095723974	0.0	0.0	0.0
0.0	0.0	1.002427193587015	0.0	0.0	0.0
0.0	0.0	0.9768203991225342	0.0	0.0	0.0
0.0	0.0	0.9514024686772393	0.0	0.0	0.0
0.0	0.0	0.9261820875913096	0.0	0.0	0.0
0.0	0.0	0.9011678660269342	0.0	0.0	0.0
0.0	0.0	0.8763683347968574	0.0	0.0	0.0
0.0	0.0	0.851791941192918	0.0	0.0	0.0
0.0	0.0	0.8274470448145985	0.0	0.0	0.0
0.0	0.0	0.8033419133975734	0.0	0.0	0.0
0.0	0.0	0.7794847186422418	0.0	0.0	0.0
0.0	0.0	0.7558835320422788	0.0	0.0	0.0
0.0	0.0	0.732546320713181	0.0	0.0	0.0
0.0	0.0	0.7094809432208029	0.0	0.0	0.0
0.0	0.0	0.6866951454099159	0.0	0.0	0.0
0.0	0.0	0.6641965562327332	0.0	0.0	0.0
0.0	0.0	0.6419926835774676	0.0	0.0	0.0
0.0	0.0	0.6200909100968723	0.0	0.0	0.0
0.0	0.0	0.5984984890367815	0.0	0.0	0.0
0.0	0.0	0.5772225400646613	0.0	0.0	0.0
0.0	0.0	0.5562700450981488	0.0	0.0	0.0
0.0	0.0	0.5356478441335906	0.0	0.0	0.0
0.0	0.0	0.5153626310746029	0.0	0.0	0.0
0.0	0.0	0.495420949560605	0.0	0.0	0.0
0.0	0.0	0.47582918879535807	0.0	0.0	0.0
0.0	0.0	0.4565935793755189	0.0	0.0	0.0
0.0	0.0	0.4377201891191862	0.0	0.0	0.0
0.0	0.0	0.4192149188944345	0.0	0.0	0.0
0.0	0.0	0.40108349844786284	0.0	0.0	0.0
0.0	0.0	0.3833314822331455	0.0	0.0	0.0
0.0	0.0	0.36596424523956017	0.0	0.0	0.0
0.0	0.0	0.34898697882055396	0.0	0.0	0.0
0.0	0.0	0.33240468652226207	0.0	0.0	0.0
0.0	0.0	0.3162221799120779	0.0	0.0	0.0
0.0	0.0	0.30044407440717436	0.0	0.0	0.0
0.0	0.0	0.2850747851030695	0.0	0.0	0.0
0.0	0.0	0.27011852260214386	0.0	0.0	0.0
0.0	0.0	0.2555792888422186	0.0	0.0	0.0
0.0	0.0	0.24146087292506646	0.0	0.0	0.0
0.0	0.0	0.22776684694497717	0.0	0.0	0.0
0.0	0.0	0.21450056181729416	0.0	0.0	0.0
0.0	0.0	0.20166514310696027	0.0	0.0	0.0
0.0	0.0	0.18926348685705818	0.0	0.0	0.0
0.0	0.0	0.177298255417365	0.0	0.0	0.0
0.0	0.0	0.16577187327286946	0.0	0.0	0.0
0.0	0.0	0.15468652287236573	0.0	0.0	0.0
0.0	0.0	0.14404414045694125	0.0	0.0	0.0
0.0	0.0	0.13384641188855984	0.0	0.0	0.0
0.0	0.0	0.12409476847858691	0.0	0.0	0.0
0.0	0.0	0.11479038281634235	0.0	0.0	0.0
0.0	0.0	0.10593416459764882	0.0	0.0	0.0
0.0	0.0	0.09752675645335174	0.0	0.0	0.0
0.0	0.0	0.08956852977789698	0.0	0.0	0.0
0.0	0.0	0.08205958055785079	0.0	0.0	0.0
0.0	0.0	0.07499972520045173	0.0	0.0	0.0
0.0	0.0	0.06838849636215638	0.0	0.0	0.0
0.0	0.0	0.0622251387771815	0.0	0.0	0.0
0.0	0.0	0.056508605086053265	0.0	0.0	0.0
0.0	0.0	0.051237551664137904	0.0	0.0	0.0
0.0	0.0	0.046410334450197155	0.0	0.0	0.0
0.0	0.0	0.042025004774938424	0.0	0.0	0.0
0.0	0.0	0.03807930518953384	0.0	0.0	0.0
0.0	0.0	0.03457066529419883	0.0	0.0	0.0
0.0	0.0	0.031496197566704964	0.0	0.0	0.0
0.0	0.0	0.02885269319094519	0.0	0.0	0.0
0.0	0.0	0.026636617885467118	0.0	0.0	0.0
0.0	0.0	0.02484410773201695	0.0	0.0	0.0
0.0	0.0	0.023470965004092292	0.0	0.0	0.0
0.0	0.0	0.02251265399547364	0.0	0.0	0.0
0.0	0.0	0.021964296848793197	0.0	0.0	0.0
0.0	0.0	0.021816615649929122	0.0	0.0	0.0
0.0	0.0	0.021816615649929122	0.0	0.0	0.0
0.0	0.0	0.02201661564992912	0.0	0.0	0.0
0.0	0.0	0.02261661564992912	0.0	0.0	0.0
0.0	0.0	0.02361661564992912	0.0	0.0	0.0
0.0	0.0	0.025016615649929123	0.0	0.0	0.0
0.0	0.0	0.026816615649929123	0.0	0.0	0.0
0.0	0.0	0.029016615649929123	0.0	0.0	0.0
0.0	0.0	0.031616615649929125	0.0	0.0	0.0
0.0	0.0	0.03461661564992912	0.0	0.0	0.0
0.0	0.0	0.03801661564992912	0.0	0.0	0.0
0.0	0.0	0.04181661564992912	0.0	0.0	0.0
0.0	0.0	0.04601661564992912	0.0	0.0	0.0
0.0	0.0	0.050616615649929114	0.0	0.0	0.0
0.0	0.0	0.05561661564992911	0.0	0.0	0.0
0.0	0.0	0.061016615649929114	0.0	0.0	0.0
0.0	0.0	0.06681661564992912	0.0	0.0	0.0
0.0	0.0	0.07301661564992912	0.0	0.0	0.0
0.0	0.0	0.07961661564992914	0.0	0.0	0.0
0.0	0.0	0.08661661564992913	0.0	0.0	0.0
0.0	0.0	0.09401661564992915	0.0	0.0	0.0
0.0	0.0	0.10181661564992915	0.0	0.0	0.0
0.0	0.0	0.11001661564992916	0.0	0.0	0.0
0.0	0.0	0.11861661564992917	0.0	0.0	0.0
0.0	0.0	0.12761661564992918	0.0	0.0	0.0
0.0	0.0	0.13701661564992917	0.0	0.0	0.0
0.0	0.0	0.14681661564992918	0.0	0.0	0.0
0.0	0.0	0.1570166156499292	0.0	0.0	0.0
0.0	0.0	0.1676166156499292	0.0	0.0	0.0
0.0	0.0	0.1786166156499292	0.0	0.0	0.0
0.0	0.0	0.19001661564992922	0.0	0.0	0.0
0.0	0.0	0.20181661564992925	0.0	0.0	0.0
0.0	0.0	0.21401661564992927	0.0	0.0	0.0
0.0	0.0	0.22661661564992927	0.0	0.0	0.0
0.0	0.0	0.23961661564992928	0.0	0.0	0.0
0.0	0.0	0.2530166156499293	0.0	0.0	0.0
0.0	0.0	0.2668166156499293	0.0	0.0	0.0
0.0	0.0	0.2810166156499293	0.0	0.0	0.0
0.0	0.0	0.29561661564992936	0.0	0.0	0.0
0.0	0.0	0.3106166156499294	0.0	0.0	0.0
0.0	0.0	0.32601661564992945	0.0	0.0	0.0
0.0	0.0	0.3418166156499294	0.0	0.0	0.0
0.0	0.0	0.3580166156499295	0.0	0.0	0.0
0.0	0.0	0.37461661564992943	0.0	0.0	0.0
0.0	0.0	0.39161661564992944	0.0	0.0	0.0
0.0	0.0	0.4090166156499295	0.0	0.0	0.0
0.0	0.0	0.42681661564992956	0.0	0.0	0.0
0.0	0.0	0.44501661564992956	0.0	0.0	0.0
0.0	0.0	0.4636166156499296	0.0	0.0	0.0
0.0	0.0	0.48261661564992964	0.0	0.0	0.0
0.0	0.0	0.5020166156499296	0.0	0.0	0.0
0.0	0.0	0.5218166156499295	0.0	0.0	0.0
0.0	0.0	0.5420166156499295	0.0	0.0	0.0
0.0	0.0	0.5626166156499296	0.0	0.0	0.0
0.0	0.0	0.5836166156499296	0.0	0.0	0.0
0.0	0.0	0.6050166156499297	0.0	0.0	0.0
0.0	0.0	0.6268166156499296	0.0	0.0	0.0
0.0	0.0	0.6490166156499297	0.0	0.0	0.0
0.0	0.0	0.6716166156499297	0.0	0.0	0.0
0.0	0.0	0.6946166156499298	0.0	0.0	0.0
0.0	0.0	0.7180166156499298	0.0	0.0	0.0
0.0	0.0	0.7418166156499298	0.0	0.0	0.0
0.0	0.0	0.7660166156499298	0.0	0.0	0.0
0.0	0.0	0.7906166156499299	0.0	0.0	0.0
0.0	0.0	0.8156166156499299	0.0	0.0	0.0
0.0	0.0	0.84101661564993	0.0	0.0	0.0
0.0	0.0	0.8668166156499301	0.0	0.0	0.0
0.0	0.0	0.8930166156499301	0.0	0.0	0.0
0.0	0.0	0.9196166156499301	0.0	0.0	0.0
0.0	0.0	0.9466166156499302	0.0	0.0	0.0
0.0	0.0	0.9740166156499301	0.0	0.0	0.0
0.0	0.0	1.0018166156499302	0.0	0.0	0.0
0.0	0.0	1.0300166156499302	0.0	0.0	0.0
0.0	0.0	1.0586166156499304	0.0	0.0	0.0
0.0	0.0	1.0876166156499303	0.0	0.0	0.0
0.0	0.0	1.1170166156499304	0.0	0.0	0.0
0.0	0.0	1.1468166156499304	0.0	0.0	0.0
0.0	0.0	1.1770166156499304	0.0	0.0	0.0
0.0	0.0	1.2076166156499306	0.0	0.0	0.0
0.0	0.0	1.2386166156499305	0.0	0.0	0.0
0.0	0.0	1.2699742618496974	0.0	0.0	0.0
0.0	0.0	1.3013901883855954	0.0	0.0	0.0
0.0	0.0	1.3328061149214934	0.0	0.0	0.0
0.0	0.0	1.3642220414573913	0.0	0.0	0.0
0.0	0.0	1.3956379679932893	0.0	0.0	0.0
0.0	0.0	1.4270538945291873	0.0	0.0	0.0
0.0	0.0	1.4584698210650853	0.0	0.0	0.0
0.0	0.0	1.4898857476009832	0.0	0.0	0.0
0.0	0.0	1.521301674136881	0.0	0.0	0.0
0.0	0.0	1.552717600672779	0.0	0.0	0.0
0.0	0.0	1.584133527208677	0.0	0.0	0.0
0.0	0.0	1.615549453744575	0.0	0.0	0.0
0.0	0.0	1.646965380280473	0.0	0.0	0.0
0.0	0.0	1.6783813068163709	0.0	0.0	0.0
0.0	0.0	1.7097972333522689	0.0	0.0	0.0
0.0	0.0	1.7412131598881668	0.0	0.0	0.0
0.0	0.0	1.7726290864240648	0.0	0.0	0.0
0.0	0.0	1.8040450129599628	0.0	0.0	0.0
0.0	0.0	1.8354609394958608	0.0	0.0	0.0
0.0	0.0	1.8668768660317587	0.0	0.0	0.0
0.0	0.0	1.8982927925676567	0.0	0.0	0.0
0.0	0.0	1.9297087191035547	0.0	0.0	0.0
0.0	0.0	1.9611246456394524	0.0	0.0	0.0
0.0	0.0	1.9925405721753504	0.0	0.0	0.0
0.0	0.0	2.0239564987112484	0.0	0.0	0.0
0.0	0.0	2.0553724252471466	0.0	0.0	0.0
0.0	0.0	2.0867883517830443	0.0	0.0	0.0
0.0	0.0	2.1182042783189425	0.0	0.0	0.0
0.0	0.0	2.1496202048548403	0.0	0.0	0.0
0.0	0.0	2.181036131390738	0.0	0.0	0.0
0.0	0.0	2.2124520579266362	0.0	0.0	0.0
0.0	0.0	2.243867984462534	0.0	0.0	0.0
0.0	0.0	2.275283910998432	0.0	0.0	0.0
0.0	0.0	2.30669983753433	0.0	0.0	0.0
0.0	0.0	2.338115764070228	0.0	0.0	0.0
0.0	0.0	2.369531690606126	0.0	0.0	0.0
0.0	0.0	2.400947617142024	0.0	0.0	0.0
0.0	0.0	2.432363543677922	0.0	0.0	0.0
0.0	0.0	2.46377947021382	0.0	0.0	0.0
0.0	0.0	2.495195396749718	0.0	0.0	0.0
0.0	0.0	2.526611323285616	0.0	0.0	0.0
0.0	0.0	2.5580272498215137	0.0	0.0	0.0
0.0	0.0	2.5894431763574115	0.0	0.0	0.0
0.0	0.0	2.6208591028933097	0.0	0.0	0.0
0.0	0.0	2.6522750294292075	0.0	0.0	0.0
0.0	0.0	2.6836909559651057	0.0	0.0	0.0
0.0	0.0	2.7151068825010034	0.0	0.0	0.0
0.0	0.0	2.7465228090369016	0.0	0.0	0.0
0.0	0.0	2.7779387355727994	0.0	0.0	0.0
0.0	0.0	2.8093546621086976	0.0	0.0	0.0
0.0	0.0	2.8407705886445953	0.0	0.0	0.0
0.0	0.0	2.8721865151804935	0.0	0.0	0.0
0.0	0.0	2.9036024417163913	0.0	0.0	0.0
0.0	0.0	2.9350183682522895	0.0	0.0	0.0
0.0	0.0	2.966434294788187	0.0	0.0	0.0
0.0	0.0	2.997850221324085	0.0	0.0	0.0
0.0	0.0	3.029266147859983	0.0	0.0	0.0
0.0	0.0	3.060682074395881	0.0	0.0	0.0
0.0	0.0	3.092098000931779	0.0	0.0	0.0
0.0	0.0	3.123513927467677	0.0	0.0	0.0
0.0	0.0	3.154929854003575	0.0	0.0	0.0
0.0	0.0	3.186345780539473	0.0	0.0	0.0
0.0	0.0	3.217761707075371	0.0	0.0	0.0
0.0	0.0	3.2491776336112688	0.0	0.0	0.0
0.0	0.0	3.280593560147167	0.0	0.0	0.0
0.0	0.0	3.3120094866830647	0.0	0.0	0.0
0.0	0.0	3.343425413218963	0.0	0.0	0.0
0.0	0.0	3.3748413397548607	0.0	0.0	0.0
0.0	0.0	3.406257266290759	0.0	0.0	0.0
0.0	0.0	3.4376731928266566	0.0	0.0	0.0
0.0	0.0	3.4690891193625544	0.0	0.0	0.0
0.0	0.0	3.5005050458984526	0.0	0.0	0.0
0.0	0.0	3.5319209724343503	0.0	0.0	0.0
0.0	0.0	3.5633368989702485	0.0	0.0	0.0
0.0	0.0	3.5947528255061463	0.0	0.0	0.0
0.0	0.0	3.6261687520420445	0.0	0.0	0.0
0.0	0.0	3.6575846785779422	0.0	0.0	0.0
0.0	0.0	3.6890006051138404	0.0	0.0	0.0
0.0	0.0	3.720416531649738	0.0	0.0	0.0
0.0	0.0	3.7518324581856364	0.0	0.0	0.0
0.0	0.0	3.783248384721534	0.0	0.0	0.0
0.0	0.0	3.8146643112574323	0.0	0.0	0.0
0.0	0.0	3.84608023779333	0.0	0.0	0.0
0.0	0.0	3.877496164329228	0.0	0.0	0.0
0.0	0.0	3.908912090865126	0.0	0.0	0.0
0.0	0.0	3.940328017401024	0.0	0.0	0.0
0.0	0.0	3.971743943936922	0.0	0.0	0.0
0.0	0.0	4.00315987047282	0.0	0.0	0.0
0.0	0.0	4.034575797008718	0.0	0.0	0.0
0.0	0.0	4.065991723544617	0.0	0.0	0.0
0.0	0.0	4.097407650080514	0.0	0.0	0.0
0.0	0.0	4.128823576616412	0.0	0.0	0.0
0.0	0.0	4.16023950315231	0.0	0.0	0.0
0.0	0.0	4.1916554296882085	0.0	0.0	0.0
0.0	0.0	4.223071356224106	0.0	0.0	0.0
0.0	0.0	4.254487282760004	0.0	0.0	0.0
0.0	0.0	4.285903209295902	0.0	0.0	0.0
0.0	0.0	4.3173191358317995	0.0	0.0	0.0
0.0	0.0	4.348735062367698	0.0	0.0	0.0
0.0	0.0	4.380150988903596	0.0	0.0	0.0
0.0	0.0	4.411566915439494	0.0	0.0	0.0
0.0	0.0	4.442982841975391	0.0	0.0	0.0
0.0	0.0	4.47439876851129	0.0	0.0	0.0
0.0	0.0	4.505814695047188	0.0	0.0	0.0
0.0	0.0	4.5372306215830855	0.0	0.0	0.0
0.0	0.0	4.568646548118983	0.0	0.0	0.0
0.0	0.0	4.600062474654882	0.0	0.0	0.0
0.0	0.0	4.63147840119078	0.0	0.0	0.0
0.0	0.0	4.6628943277266774	0.0	0.0	0.0
0.0	0.0	4.694310254262575	0.0	0.0	0.0
0.0	0.0	4.725726180798473	0.0	0.0	0.0
0.0	0.0	4.757142107334372	0.0	0.0	0.0
0.0	0.0	4.788558033870269	0.0	0.0	0.0
0.0	0.0	4.819973960406167	0.0	0.0	0.0
0.0	0.0	4.851389886942065	0.0	0.0	0.0
0.0	0.0	4.8828058134779635	0.0	0.0	0.0
0.0	0.0	4.914221740013861	0.0	0.0	0.0
0.0	0.0	4.945637666549759	0.0	0.0	0.0
0.0	0.0	4.977008994320225	0.0	0.0	0.0
0.0	0.0	5.008036031967234	0.0	0.0	0.0
0.0	0.0	5.038663069614243	0.0	0.0	0.0
0.0	0.0	5.068890107261251	0.0	0.0	0.0
0.0	0.0	5.098717144908259	0.0	0.0	0.0
0.0	0.0	5.128144182555268	0.0	0.0	0.0
0.0	0.0	5.157171220202276	0.0	0.0	0.0
0.0	0.0	5.185798257849285	0.0	0.0	0.0
0.0	0.0	5.214025295496294	0.0	0.0	0.0
0.0	0.0	5.241852333143302	0.0	0.0	0.0
0.0	0.0	5.26927937079031	0.0	0.0	0.0
0.0	0.0	5.296306408437319	0.0	0.0	0.0
0.0	0.0	5.322933446084327	0.0	0.0	0.0
0.0	0.0	5.349160483731335	0.0	0.0	0.0
0.0	0.0	5.374987521378344	0.0	0.0	0.0
0.0	0.0	5.400414559025353	0.0	0.0	0.0
0.0	0.0	5.4254415966723615	0.0	0.0	0.0
0.0	0.0	5.450068634319369	0.0	0.0	0.0
0.0	0.0	5.474295671966378	0.0	0.0	0.0
0.0	0.0	5.498122709613387	0.0	0.0	0.0
0.0	0.0	5.521549747260396	0.0	0.0	0.0
0.0	0.0	5.544576784907404	0.0	0.0	0.0
0.0	0.0	5.567203822554413	0.0	0.0	0.0
0.0	0.0	5.589430860201421	0.0	0.0	0.0
0.0	0.0	5.61125789784843	0.0	0.0	0.0
0.0	0.0	5.632684935495439	0.0	0.0	0.0
0.0	0.0	5.653711973142448	0.0	0.0	0.0
0.0	0.0	5.674339010789456	0.0	0.0	0.0
0.0	0.0	5.6945660484364655	0.0	0.0	0.0
0.0	0.0	5.714393086083474	0.0	0.0	0.0
