corentinberge/project_M2/Robot/Yaskawa/Code/src/identification_YASKAWA/All_positiondata_file.txt
q1	q2	q3	q4	q5	q6
0.001	0.001	1.69297	0.05	-1.98968	0.959931
0.0	0.001	1.69297	0.05	-1.98968	0.959931
0.0	0.0	1.69297	0.05	-1.98968	0.959931
0.0	0.0	1.693143153993448	0.05	-1.98968	0.959931
0.0	0.0	1.6943068365876701	0.05	-1.98968	0.959931
0.0	0.0	1.6973215981163254	0.05	-1.98968	0.959931
0.0	0.0	1.7029124751926956	0.05	-1.98968	0.959931
0.0	0.0	1.7116758995378	0.05	-1.98968	0.959931
0.0	0.0	1.7240866068085166	0.05	-1.98968	0.959931
0.0	0.0	1.7405045454256982	0.05	-1.98968	0.959931
0.0	0.0	1.7611817854022929	0.05	-1.98968	0.959931
0.0	0.0	1.7862694271714614	0.05	-1.98968	0.959931
0.0	0.0	1.8158245104146966	0.05	-1.98968	0.959931
0.0	0.0	1.8498169228899402	0.05	-1.98968	0.959931
0.0	0.0	1.8881363092597032	0.05	-1.98968	0.959931
0.0	0.0	1.9305989799191843	0.05	-1.98968	0.959931
0.0	0.0	1.9769548198243858	0.05	-1.98968	0.959931
0.0	0.0	2.0268941973202357	0.05	-1.98968	0.959931
0.0	0.0	2.080054872968704	0.05	-1.98968	0.959931
0.0	0.0	2.1360289083769213	0.05	-1.98968	0.959931
0.0	0.0	2.194369575025297	0.05	-1.98968	0.959931
0.0	0.0	2.2545982630956414	0.05	-1.98968	0.959931
0.0	0.0	2.3162113902992782	0.05	-1.98968	0.959931
0.0	0.0	2.3786873107051676	0.05	-1.98968	0.959931
0.0	0.0	2.4414932235680227	0.05	-1.98968	0.959931
0.0	0.0	2.504092082156428	0.05	-1.98968	0.959931
0.0	0.0	2.565949502580959	0.05	-1.98968	0.959931
0.0	0.0	2.6265406726223026	0.05	-1.98968	0.959931
0.0	0.0	2.6853572605593694	0.05	-1.98968	0.959931
0.0	0.0	2.7419143239974177	0.05	-1.98968	0.959931
0.0	0.0	2.795757218696169	0.05	-1.98968	0.959931
0.0	0.0	2.8464685073979306	0.05	-1.98968	0.959931
0.0	0.0	2.89367486865571	0.05	-1.98968	0.959931
0.0	0.0	2.9370540056613312	0.05	-1.98968	0.959931
0.0	0.0	2.976341555073561	0.05	-1.98968	0.959931
0.0	0.0	3.0113379958462247	0.05	-1.98968	0.959931
0.0	0.0	3.041915558056316	0.05	-1.98968	0.959931
0.0	0.0	3.0680251317321274	0.05	-1.98968	0.959931
0.0	0.0	3.089703175681367	0.05	-1.98968	0.959931
0.0	0.0	3.107078626319263	0.05	-1.98968	0.959931
0.0	0.0	3.1203798064967057	0.05	-1.98968	0.959931
0.0	0.0	3.129941334328345	0.05	-1.98968	0.959931
0.0	0.0	3.136211032020718	0.05	-1.98968	0.959931
0.0	0.0	3.139756834700374	0.05	-1.98968	0.959931
0.0	0.0	3.141273699241979	0.05	-1.98968	0.959931
0.0	0.0	3.1415905130964354	0.05	-1.98968	0.959931
0.0	0.0	3.141592653589793	0.05	-1.98968	0.959931
0.0	0.0	3.141592653589793	0.010233021833025949	-1.98968	0.959931
0.0	0.0	3.141592653589793	0.0	-1.98968	0.959931
0.0	0.0	3.141592653589793	0.0	-1.989434740081654	0.959931
0.0	0.0	3.141592653589793	0.0	-1.987787189328969	0.959931
0.0	0.0	3.141592653589793	0.0	-1.983521048090189	0.959931
0.0	0.0	3.141592653589793	0.0	-1.9756138299719623	0.959931
0.0	0.0	3.141592653589793	0.0	-1.9632268670044821	0.959931
0.0	0.0	3.141592653589793	0.0	-1.945695314806627	0.959931
0.0	0.0	3.141592653589793	0.0	-1.922518157751104	0.959931
0.0	0.0	3.141592653589793	0.0	-1.8933482141295903	0.959931
0.0	0.0	3.141592653589793	0.0	-1.8579821413178748	0.959931
0.0	0.0	3.141592653589793	0.0	-1.816350440940999	0.959931
0.0	0.0	3.141592653589793	0.0	-1.7685074640383998	0.959931
0.0	0.0	3.141592653589793	0.0	-1.714621416229051	0.959931
0.0	0.0	3.141592653589793	0.0	-1.6549643628766038	0.959931
0.0	0.0	3.141592653589793	0.0	-1.5899022342545313	0.959931
0.0	0.0	3.141592653589793	0.0	-1.519884830711267	0.959931
0.0	0.0	3.141592653589793	0.0	-1.445435827835348	0.959931
0.0	0.0	3.141592653589793	0.0	-1.3671427816205588	0.959931
0.0	0.0	3.141592653589793	0.0	-1.2856471336310675	0.959931
0.0	0.0	3.141592653589793	0.0	-1.2016342161665743	0.959931
0.0	0.0	3.141592653589793	0.0	-1.1158232574274471	0.959931
0.0	0.0	3.141592653589793	0.0	-1.0289573866798687	0.959931
0.0	0.0	3.141592653589793	0.0	-0.9417936394209732	0.959931
0.0	0.0	3.141592653589793	0.0	-0.855092962543992	0.959931
0.0	0.0	3.141592653589793	0.0	-0.7696102195033934	0.959931
0.0	0.0	3.141592653589793	0.0	-0.6860841954800246	0.959931
0.0	0.0	3.141592653589793	0.0	-0.6052276025462535	0.959931
0.0	0.0	3.141592653589793	0.0	-0.5277170848311106	0.959931
0.0	0.0	3.141592653589793	0.0	-0.4541832236854315	0.959931
0.0	0.0	3.141592653589793	0.0	-0.3852005428469971	0.959931
0.0	0.0	3.141592653589793	0.0	-0.32127751360567247	0.959931
0.0	0.0	3.141592653589793	0.0	-0.26284655996856054	0.959931
0.0	0.0	3.141592653589793	0.0	-0.2102540638251278	0.959931
0.0	0.0	3.141592653589793	0.0	-0.16375037011235571	0.959931
0.0	0.0	3.141592653589793	0.0	-0.12347979197988179	0.959931
0.0	0.0	3.141592653589793	0.0	-0.08947061595513617	0.959931
0.0	0.0	3.141592653589793	0.0	-0.061625107108492116	0.959931
0.0	0.0	3.141592653589793	0.0	-0.039709514218398745	0.959931
0.0	0.0	3.141592653589793	0.0	-0.023344074936527903	0.959931
0.0	0.0	3.141592653589793	0.0	-0.011993020952914435	0.959931
0.0	0.0	3.141592653589793	0.0	-0.004954583161097759	0.959931
0.0	0.0	3.141592653589793	0.0	-0.0013509968232643388	0.959931
0.0	0.0	3.141592653589793	0.0	-0.00011850673538482681	0.959931
0.0	0.0	3.141592653589793	0.0	0.0	0.959931
0.0	0.0	3.141592653589793	0.0	0.0	0.9589171864619893
0.0	0.0	3.141592653589793	0.0	0.0	0.9524182278802568
0.0	0.0	3.141592653589793	0.0	0.0	0.9365097378704055
0.0	0.0	3.141592653589793	0.0	0.0	0.9088022670751453
0.0	0.0	3.141592653589793	0.0	0.0	0.8682568235029202
0.0	0.0	3.141592653589793	0.0	0.0	0.8150003928665362
0.0	0.0	3.141592653589793	0.0	0.0	0.750141458921789
0.0	0.0	3.141592653589793	0.0	0.0	0.675585523806091
0.0	0.0	3.141592653589793	0.0	0.0	0.5938506283771006
0.0	0.0	3.141592653589793	0.0	0.0	0.507882872551347
0.0	0.0	3.141592653589793	0.0	0.0	0.42087193564286074
0.0	0.0	3.141592653589793	0.0	0.0	0.3360665967017993
0.0	0.0	3.141592653589793	0.0	0.0	0.2565902548530753
0.0	0.0	3.141592653589793	0.0	0.0	0.18525644963498522
0.0	0.0	3.141592653589793	0.0	0.0	0.1243843813378358
0.0	0.0	3.141592653589793	0.0	0.0	0.07561443134256862
0.0	0.0	3.141592653589793	0.0	0.0	0.03972368245939961
0.0	0.0	3.141592653589793	0.0	0.0	0.016441439266425828
0.0	0.0	3.141592653589793	0.0	0.0	0.004264748448277622
0.0	0.0	3.141592653589793	0.0	0.0	0.0002739191347220782
0.0	0.0	3.141592653589793	0.0	0.0	0.0
-8.947918642337278e-06	0.0	3.141592653589793	0.0	0.0	0.0
-7.092671069150192e-05	0.0	3.141592653589793	0.0	0.0	0.0
-0.0002371713456213481	0.0	3.141592653589793	0.0	0.0	0.0
-0.0005569775275985576	0.0	3.141592653589793	0.0	0.0	0.0
-0.0010777235883643167	0.0	3.141592653589793	0.0	0.0	0.0
-0.001844892380115994	0.0	3.141592653589793	0.0	0.0	0.0
-0.002902093168388821	0.0	3.141592653589793	0.0	0.0	0.0
-0.004291083524937564	0.0	3.141592653589793	0.0	0.0	0.0
-0.0060517912206182085	0.0	3.141592653589793	0.0	0.0	0.0
-0.008222336118269636	0.0	3.141592653589793	0.0	0.0	0.0
-0.010839052065595297	0.0	3.141592653589793	0.0	0.0	0.0
-0.013936508788044887	0.0	3.141592653589793	0.0	0.0	0.0
-0.017547533781696045	0.0	3.141592653589793	0.0	0.0	0.0
-0.02170323420613601	0.0	3.141592653589793	0.0	0.0	0.0
-0.02643301877734329	0.0	3.141592653589793	0.0	0.0	0.0
-0.031764619660569385	0.0	3.141592653589793	0.0	0.0	0.0
-0.03772411436322037	0.0	3.141592653589793	0.0	0.0	0.0
-0.04433594762773874	0.0	3.141592653589793	0.0	0.0	0.0
-0.05162295332448488	0.0	3.141592653589793	0.0	0.0	0.0
-0.05960637634461893	0.0	3.141592653589793	0.0	0.0	0.0
-0.06830589449298231	0.0	3.141592653589793	0.0	0.0	0.0
-0.07773964038097952	0.0	3.141592653589793	0.0	0.0	0.0
-0.08792422331945979	0.0	3.141592653589793	0.0	0.0	0.0
-0.09887475121159864	0.0	3.141592653589793	0.0	0.0	0.0
-0.11060485244577967	0.0	3.141592653589793	0.0	0.0	0.0
-0.12312669778847639	0.0	3.141592653589793	0.0	0.0	0.0
-0.13645102227713354	0.0	3.141592653589793	0.0	0.0	0.0
-0.15058714711304896	0.0	3.141592653589793	0.0	0.0	0.0
-0.1655430015542553	0.0	3.141592653589793	0.0	0.0	0.0
-0.18132514480840184	0.0	3.141592653589793	0.0	0.0	0.0
-0.19793878792563563	0.0	3.141592653589793	0.0	0.0	0.0
-0.21538781569148377	0.0	3.141592653589793	0.0	0.0	0.0
-0.23367480851973488	0.0	3.141592653589793	0.0	0.0	0.0
-0.2528010643453207	0.0	3.141592653589793	0.0	0.0	0.0
-0.2727666205171975	0.0	3.141592653589793	0.0	0.0	0.0
-0.2935702756912286	0.0	3.141592653589793	0.0	0.0	0.0
-0.31520961172306533	0.0	3.141592653589793	0.0	0.0	0.0
-0.3376810155610286	0.0	3.141592653589793	0.0	0.0	0.0
-0.36097970113899125	0.0	3.141592653589793	0.0	0.0	0.0
-0.3850997312692588	0.0	3.141592653589793	0.0	0.0	0.0
-0.4100340395354526	0.0	3.141592653589793	0.0	0.0	0.0
-0.43577445218539	0.0	3.141592653589793	0.0	0.0	0.0
-0.4623117100239663	0.0	3.141592653589793	0.0	0.0	0.0
-0.48963549030603754	0.0	3.141592653589793	0.0	0.0	0.0
-0.5177344286293005	0.0	3.141592653589793	0.0	0.0	0.0
-0.5465961408271763	0.0	3.141592653589793	0.0	0.0	0.0
-0.5762072448616898	0.0	3.141592653589793	0.0	0.0	0.0
-0.6065533827163536	0.0	3.141592653589793	0.0	0.0	0.0
-0.637619242289048	0.0	3.141592653589793	0.0	0.0	0.0
-0.6693885792849035	0.0	3.141592653589793	0.0	0.0	0.0
-0.7018442391091824	0.0	3.141592653589793	0.0	0.0	0.0
-0.7349681787601603	0.0	3.141592653589793	0.0	0.0	0.0
-0.7687414887220076	0.0	3.141592653589793	0.0	0.0	0.0
-0.8031444148576717	0.0	3.141592653589793	0.0	0.0	0.0
-0.8381563803017585	0.0	3.141592653589793	0.0	0.0	0.0
-0.8737560073534136	0.0	3.141592653589793	0.0	0.0	0.0
-0.9099211393692043	0.0	3.141592653589793	0.0	0.0	0.0
-0.9466288626560018	0.0	3.141592653589793	0.0	0.0	0.0
-0.9838555283638625	0.0	3.141592653589793	0.0	0.0	0.0
-1.0215767743789086	0.0	3.141592653589793	0.0	0.0	0.0
-1.0597675472162118	0.0	3.141592653589793	0.0	0.0	0.0
-1.0984021239126738	0.0	3.141592653589793	0.0	0.0	0.0
-1.1374541339199074	0.0	3.141592653589793	0.0	0.0	0.0
-1.1768965809971201	0.0	3.141592653589793	0.0	0.0	0.0
-1.2167018651039934	0.0	3.141592653589793	0.0	0.0	0.0
-1.2568418042935663	0.0	3.141592653589793	0.0	0.0	0.0
-1.2972876566051157	0.0	3.141592653589793	0.0	0.0	0.0
-1.3380101419570394	0.0	3.141592653589793	0.0	0.0	0.0
-1.3789794640397375	0.0	3.141592653589793	0.0	0.0	0.0
-1.4201653322084922	0.0	3.141592653589793	0.0	0.0	0.0
-1.461536983376352	0.0	3.141592653589793	0.0	0.0	0.0
-1.5030632039070122	0.0	3.141592653589793	0.0	0.0	0.0
-1.5447123515076966	0.0	3.141592653589793	0.0	0.0	0.0
-1.5864523771220391	0.0	3.141592653589793	0.0	0.0	0.0
-1.6282508468229666	0.0	3.141592653589793	0.0	0.0	0.0
-1.6700749637055772	0.0	3.141592653589793	0.0	0.0	0.0
-1.7118915897800262	0.0	3.141592653589793	0.0	0.0	0.0
-1.753667267864407	0.0	3.141592653589793	0.0	0.0	0.0
-1.795368243477629	0.0	3.141592653589793	0.0	0.0	0.0
-1.8369604867323028	0.0	3.141592653589793	0.0	0.0	0.0
-1.8784097142276237	0.0	3.141592653589793	0.0	0.0	0.0
-1.9196814109422453	0.0	3.141592653589793	0.0	0.0	0.0
-1.9607408521271719	0.0	3.141592653589793	0.0	0.0	0.0
-2.0015531251986314	0.0	3.141592653589793	0.0	0.0	0.0
-2.0420831516309614	0.0	3.141592653589793	0.0	0.0	0.0
-2.0822957088494918	0.0	3.141592653589793	0.0	0.0	0.0
-2.122155452123423	0.0	3.141592653589793	0.0	0.0	0.0
-2.161626936458706	0.0	3.141592653589793	0.0	0.0	0.0
-2.200674638490934	0.0	3.141592653589793	0.0	0.0	0.0
-2.2392629783782123	0.0	3.141592653589793	0.0	0.0	0.0
-2.2773563416940457	0.0	3.141592653589793	0.0	0.0	0.0
-2.314919101320221	0.0	3.141592653589793	0.0	0.0	0.0
-2.3519156393396856	0.0	3.141592653589793	0.0	0.0	0.0
-2.3883103689294325	0.0	3.141592653589793	0.0	0.0	0.0
-2.424067756253379	0.0	3.141592653589793	0.0	0.0	0.0
-2.459152342355249	0.0	3.141592653589793	0.0	0.0	0.0
-2.4935287650514573	0.0	3.141592653589793	0.0	0.0	0.0
-2.5271617808239863	0.0	3.141592653589793	0.0	0.0	0.0
-2.560016286713272	0.0	3.141592653589793	0.0	0.0	0.0
-2.5920573422110884	0.0	3.141592653589793	0.0	0.0	0.0
-2.6232501911534185	0.0	3.141592653589793	0.0	0.0	0.0
-2.6535602836133454	0.0	3.141592653589793	0.0	0.0	0.0
-2.6829532977939277	0.0	3.141592653589793	0.0	0.0	0.0
-2.711395161921097	0.0	3.141592653589793	0.0	0.0	0.0
-2.7388520761365074	0.0	3.141592653589793	0.0	0.0	0.0
-2.765290534390458	0.0	3.141592653589793	0.0	0.0	0.0
-2.7906773463347365	0.0	3.141592653589793	0.0	0.0	0.0
-2.814979659215527	0.0	3.141592653589793	0.0	0.0	0.0
-2.8381649797662787	0.0	3.141592653589793	0.0	0.0	0.0
-2.8602011961005953	0.0	3.141592653589793	0.0	0.0	0.0
-2.8810565996051105	0.0	3.141592653589793	0.0	0.0	0.0
-2.90069990683237	0.0	3.141592653589793	0.0	0.0	0.0
-2.91910028139372	0.0	3.141592653589793	0.0	0.0	0.0
-2.936227355852183	0.0	3.141592653589793	0.0	0.0	0.0
-2.952051253615332	0.0	3.141592653589793	0.0	0.0	0.0
-2.9665426108281934	0.0	3.141592653589793	0.0	0.0	0.0
-2.97967259826611	0.0	3.141592653589793	0.0	0.0	0.0
-2.991412943227628	0.0	3.141592653589793	0.0	0.0	0.0
-3.001735951427384	0.0	3.141592653589793	0.0	0.0	0.0
-3.0106145288889774	0.0	3.141592653589793	0.0	0.0	0.0
-3.0180222038378473	0.0	3.141592653589793	0.0	0.0	0.0
-3.0239331485941925	0.0	3.141592653589793	0.0	0.0	0.0
-3.0283222014657944	0.0	3.141592653589793	0.0	0.0	0.0
-3.0311648886409417	0.0	3.141592653589793	0.0	0.0	0.0
-3.032437446081297	0.0	3.141592653589793	0.0	0.0	0.0
-3.0325095753401476	0.0	3.141592653589793	0.0	0.0	0.0
-3.0325095753401476	0.0	3.141592653589793	0.0	0.0	0.0
-3.0317095753401477	0.0	3.141592653589793	0.0	0.0	0.0
-3.0293095753401476	0.0	3.141592653589793	0.0	0.0	0.0
-3.0253095753401475	0.0	3.141592653589793	0.0	0.0	0.0
-3.0197095753401477	0.0	3.141592653589793	0.0	0.0	0.0
-3.0125095753401476	0.0	3.141592653589793	0.0	0.0	0.0
-3.0037954746499014	0.0	3.141592653589793	0.0	0.0	0.0
-2.994719762539531	0.0	3.141592653589793	0.0	0.0	0.0
-2.9856440504291606	0.0	3.141592653589793	0.0	0.0	0.0
-2.9765683383187898	0.0	3.141592653589793	0.0	0.0	0.0
-2.9674926262084194	0.0	3.141592653589793	0.0	0.0	0.0
-2.958416914098049	0.0	3.141592653589793	0.0	0.0	0.0
-2.9493412019876786	0.0	3.141592653589793	0.0	0.0	0.0
-2.9402654898773077	0.0	3.141592653589793	0.0	0.0	0.0
-2.9311897777669373	0.0	3.141592653589793	0.0	0.0	0.0
-2.922114065656567	0.0	3.141592653589793	0.0	0.0	0.0
-2.913038353546196	0.0	3.141592653589793	0.0	0.0	0.0
-2.9039626414358257	0.0	3.141592653589793	0.0	0.0	0.0
-2.8948869293254553	0.0	3.141592653589793	0.0	0.0	0.0
-2.885811217215085	0.0	3.141592653589793	0.0	0.0	0.0
-2.876735505104714	0.0	3.141592653589793	0.0	0.0	0.0
-2.8676597929943437	0.0	3.141592653589793	0.0	0.0	0.0
-2.8585840808839733	0.0	3.141592653589793	0.0	0.0	0.0
-2.8495083687736025	0.0	3.141592653589793	0.0	0.0	0.0
-2.840432656663232	0.0	3.141592653589793	0.0	0.0	0.0
-2.8313569445528617	0.0	3.141592653589793	0.0	0.0	0.0
-2.8222812324424913	0.0	3.141592653589793	0.0	0.0	0.0
-2.8132055203321205	0.0	3.141592653589793	0.0	0.0	0.0
-2.80412980822175	0.0	3.141592653589793	0.0	0.0	0.0
-2.7950540961113797	0.0	3.141592653589793	0.0	0.0	0.0
-2.785978384001009	0.0	3.141592653589793	0.0	0.0	0.0
-2.7769026718906384	0.0	3.141592653589793	0.0	0.0	0.0
-2.767826959780268	0.0	3.141592653589793	0.0	0.0	0.0
-2.758751247669897	0.0	3.141592653589793	0.0	0.0	0.0
-2.749675535559527	0.0	3.141592653589793	0.0	0.0	0.0
-2.7405998234491564	0.0	3.141592653589793	0.0	0.0	0.0
-2.731524111338786	0.0	3.141592653589793	0.0	0.0	0.0
-2.722448399228415	0.0	3.141592653589793	0.0	0.0	0.0
-2.713372687118045	0.0	3.141592653589793	0.0	0.0	0.0
-2.7042969750076744	0.0	3.141592653589793	0.0	0.0	0.0
-2.695221262897304	0.0	3.141592653589793	0.0	0.0	0.0
-2.686145550786933	0.0	3.141592653589793	0.0	0.0	0.0
-2.677069838676563	0.0	3.141592653589793	0.0	0.0	0.0
-2.6679941265661924	0.0	3.141592653589793	0.0	0.0	0.0
-2.6589184144558216	0.0	3.141592653589793	0.0	0.0	0.0
-2.649842702345451	0.0	3.141592653589793	0.0	0.0	0.0
-2.6407669902350808	0.0	3.141592653589793	0.0	0.0	0.0
-2.63169127812471	0.0	3.141592653589793	0.0	0.0	0.0
-2.6226155660143395	0.0	3.141592653589793	0.0	0.0	0.0
-2.613539853903969	0.0	3.141592653589793	0.0	0.0	0.0
-2.6044641417935988	0.0	3.141592653589793	0.0	0.0	0.0
-2.595388429683228	0.0	3.141592653589793	0.0	0.0	0.0
-2.5863127175728575	0.0	3.141592653589793	0.0	0.0	0.0
-2.577237005462487	0.0	3.141592653589793	0.0	0.0	0.0
-2.5681612933521167	0.0	3.141592653589793	0.0	0.0	0.0
-2.559085581241746	0.0	3.141592653589793	0.0	0.0	0.0
-2.5500098691313755	0.0	3.141592653589793	0.0	0.0	0.0
-2.540934157021005	0.0	3.141592653589793	0.0	0.0	0.0
-2.5318584449106343	0.0	3.141592653589793	0.0	0.0	0.0
-2.522782732800264	0.0	3.141592653589793	0.0	0.0	0.0
-2.5137070206898935	0.0	3.141592653589793	0.0	0.0	0.0
-2.5046313085795227	0.0	3.141592653589793	0.0	0.0	0.0
-2.4955555964691523	0.0	3.141592653589793	0.0	0.0	0.0
-2.486479884358782	0.0	3.141592653589793	0.0	0.0	0.0
-2.4774041722484115	0.0	3.141592653589793	0.0	0.0	0.0
-2.4683284601380406	0.0	3.141592653589793	0.0	0.0	0.0
-2.4592527480276702	0.0	3.141592653589793	0.0	0.0	0.0
-2.4501770359173	0.0	3.141592653589793	0.0	0.0	0.0
-2.4411013238069295	0.0	3.141592653589793	0.0	0.0	0.0
-2.4320256116965586	0.0	3.141592653589793	0.0	0.0	0.0
-2.4229498995861882	0.0	3.141592653589793	0.0	0.0	0.0
-2.413874187475818	0.0	3.141592653589793	0.0	0.0	0.0
-2.404798475365447	0.0	3.141592653589793	0.0	0.0	0.0
-2.3957227632550766	0.0	3.141592653589793	0.0	0.0	0.0
-2.386647051144706	0.0	3.141592653589793	0.0	0.0	0.0
-2.3775713390343354	0.0	3.141592653589793	0.0	0.0	0.0
-2.368495626923965	0.0	3.141592653589793	0.0	0.0	0.0
-2.3594199148135946	0.0	3.141592653589793	0.0	0.0	0.0
-2.3503442027032238	0.0	3.141592653589793	0.0	0.0	0.0
-2.3412684905928534	0.0	3.141592653589793	0.0	0.0	0.0
-2.332192778482483	0.0	3.141592653589793	0.0	0.0	0.0
-2.3231170663721126	0.0	3.141592653589793	0.0	0.0	0.0
-2.314041354261742	0.0	3.141592653589793	0.0	0.0	0.0
-2.3049656421513713	0.0	3.141592653589793	0.0	0.0	0.0
-2.295889930041001	0.0	3.141592653589793	0.0	0.0	0.0
-2.2868142179306306	0.0	3.141592653589793	0.0	0.0	0.0
-2.2777385058202597	0.0	3.141592653589793	0.0	0.0	0.0
-2.2686627937098893	0.0	3.141592653589793	0.0	0.0	0.0
-2.259587081599519	0.0	3.141592653589793	0.0	0.0	0.0
-2.250511369489148	0.0	3.141592653589793	0.0	0.0	0.0
-2.2414356573787777	0.0	3.141592653589793	0.0	0.0	0.0
-2.2323599452684073	0.0	3.141592653589793	0.0	0.0	0.0
-2.2232842331580365	0.0	3.141592653589793	0.0	0.0	0.0
-2.214208521047666	0.0	3.141592653589793	0.0	0.0	0.0
-2.2051328089372957	0.0	3.141592653589793	0.0	0.0	0.0
-2.1960570968269253	0.0	3.141592653589793	0.0	0.0	0.0
-2.1869813847165545	0.0	3.141592653589793	0.0	0.0	0.0
-2.177905672606184	0.0	3.141592653589793	0.0	0.0	0.0
-2.1688299604958137	0.0	3.141592653589793	0.0	0.0	0.0
-2.1597542483854433	0.0	3.141592653589793	0.0	0.0	0.0
-2.1506785362750724	0.0	3.141592653589793	0.0	0.0	0.0
-2.141602824164702	0.0	3.141592653589793	0.0	0.0	0.0
-2.1325271120543317	0.0	3.141592653589793	0.0	0.0	0.0
-2.123451399943961	0.0	3.141592653589793	0.0	0.0	0.0
-2.1143756878335904	0.0	3.141592653589793	0.0	0.0	0.0
-2.10529997572322	0.0	3.141592653589793	0.0	0.0	0.0
-2.096224263612849	0.0	3.141592653589793	0.0	0.0	0.0
-2.087148551502479	0.0	3.141592653589793	0.0	0.0	0.0
-2.0780728393921084	0.0	3.141592653589793	0.0	0.0	0.0
-2.0689971272817376	0.0	3.141592653589793	0.0	0.0	0.0
-2.059921415171367	0.0	3.141592653589793	0.0	0.0	0.0
-2.050845703060997	0.0	3.141592653589793	0.0	0.0	0.0
-2.0417699909506264	0.0	3.141592653589793	0.0	0.0	0.0
-2.032694278840256	0.0	3.141592653589793	0.0	0.0	0.0
-2.023618566729885	0.0	3.141592653589793	0.0	0.0	0.0
-2.0145428546195148	0.0	3.141592653589793	0.0	0.0	0.0
-2.0054671425091444	0.0	3.141592653589793	0.0	0.0	0.0
-1.9963914303987735	0.0	3.141592653589793	0.0	0.0	0.0
-1.9873157182884031	0.0	3.141592653589793	0.0	0.0	0.0
-1.9782400061780325	0.0	3.141592653589793	0.0	0.0	0.0
-1.9691642940676621	0.0	3.141592653589793	0.0	0.0	0.0
-1.9600885819572915	0.0	3.141592653589793	0.0	0.0	0.0
-1.9510128698469211	0.0	3.141592653589793	0.0	0.0	0.0
-1.9419371577365505	0.0	3.141592653589793	0.0	0.0	0.0
-1.93286144562618	0.0	3.141592653589793	0.0	0.0	0.0
-1.9237857335158095	0.0	3.141592653589793	0.0	0.0	0.0
-1.9147100214054389	0.0	3.141592653589793	0.0	0.0	0.0
-1.9056343092950685	0.0	3.141592653589793	0.0	0.0	0.0
-1.8965585971846979	0.0	3.141592653589793	0.0	0.0	0.0
-1.8874828850743275	0.0	3.141592653589793	0.0	0.0	0.0
-1.8784071729639569	0.0	3.141592653589793	0.0	0.0	0.0
-1.8693314608535863	0.0	3.141592653589793	0.0	0.0	0.0
-1.8602557487432159	0.0	3.141592653589793	0.0	0.0	0.0
-1.8511800366328452	0.0	3.141592653589793	0.0	0.0	0.0
-1.8421043245224749	0.0	3.141592653589793	0.0	0.0	0.0
-1.8330286124121042	0.0	3.141592653589793	0.0	0.0	0.0
-1.8239529003017336	0.0	3.141592653589793	0.0	0.0	0.0
-1.8148771881913632	0.0	3.141592653589793	0.0	0.0	0.0
-1.8058014760809926	0.0	3.141592653589793	0.0	0.0	0.0
-1.7967257639706222	0.0	3.141592653589793	0.0	0.0	0.0
-1.7876500518602516	0.0	3.141592653589793	0.0	0.0	0.0
-1.7785743397498812	0.0	3.141592653589793	0.0	0.0	0.0
-1.7694986276395106	0.0	3.141592653589793	0.0	0.0	0.0
-1.76042291552914	0.0	3.141592653589793	0.0	0.0	0.0
-1.7513472034187696	0.0	3.141592653589793	0.0	0.0	0.0
-1.742271491308399	0.0	3.141592653589793	0.0	0.0	0.0
-1.7331957791980286	0.0	3.141592653589793	0.0	0.0	0.0
-1.724120067087658	0.0	3.141592653589793	0.0	0.0	0.0
-1.7150443549772874	0.0	3.141592653589793	0.0	0.0	0.0
-1.705968642866917	0.0	3.141592653589793	0.0	0.0	0.0
-1.6968929307565463	0.0	3.141592653589793	0.0	0.0	0.0
-1.687817218646176	0.0	3.141592653589793	0.0	0.0	0.0
-1.6787415065358053	0.0	3.141592653589793	0.0	0.0	0.0
-1.669665794425435	0.0	3.141592653589793	0.0	0.0	0.0
-1.6605900823150643	0.0	3.141592653589793	0.0	0.0	0.0
-1.6515143702046937	0.0	3.141592653589793	0.0	0.0	0.0
-1.6424386580943233	0.0	3.141592653589793	0.0	0.0	0.0
-1.6333629459839527	0.0	3.141592653589793	0.0	0.0	0.0
-1.6242872338735823	0.0	3.141592653589793	0.0	0.0	0.0
-1.6152115217632117	0.0	3.141592653589793	0.0	0.0	0.0
-1.606135809652841	0.0	3.141592653589793	0.0	0.0	0.0
-1.5970600975424707	0.0	3.141592653589793	0.0	0.0	0.0
-1.5879843854321	0.0	3.141592653589793	0.0	0.0	0.0
-1.5789086733217297	0.0	3.141592653589793	0.0	0.0	0.0
-1.569832961211359	0.0	3.141592653589793	0.0	0.0	0.0
-1.5607572491009887	0.0	3.141592653589793	0.0	0.0	0.0
-1.551681536990618	0.0	3.141592653589793	0.0	0.0	0.0
-1.5426058248802474	0.0	3.141592653589793	0.0	0.0	0.0
-1.533530112769877	0.0	3.141592653589793	0.0	0.0	0.0
-1.5244544006595064	0.0	3.141592653589793	0.0	0.0	0.0
-1.515378688549136	0.0	3.141592653589793	0.0	0.0	0.0
-1.5063029764387654	0.0	3.141592653589793	0.0	0.0	0.0
-1.497227264328395	0.0	3.141592653589793	0.0	0.0	0.0
-1.4881515522180244	0.0	3.141592653589793	0.0	0.0	0.0
-1.4790758401076538	0.0	3.141592653589793	0.0	0.0	0.0
-1.4700001279972834	0.0	3.141592653589793	0.0	0.0	0.0
-1.4609244158869128	0.0	3.141592653589793	0.0	0.0	0.0
-1.4518487037765424	0.0	3.141592653589793	0.0	0.0	0.0
-1.4427729916661718	0.0	3.141592653589793	0.0	0.0	0.0
-1.4336972795558012	0.0	3.141592653589793	0.0	0.0	0.0
-1.4246215674454308	0.0	3.141592653589793	0.0	0.0	0.0
-1.4155458553350602	0.0	3.141592653589793	0.0	0.0	0.0
-1.4064701432246898	0.0	3.141592653589793	0.0	0.0	0.0
-1.3973944311143192	0.0	3.141592653589793	0.0	0.0	0.0
-1.3883187190039488	0.0	3.141592653589793	0.0	0.0	0.0
-1.3792430068935781	0.0	3.141592653589793	0.0	0.0	0.0
-1.3701672947832075	0.0	3.141592653589793	0.0	0.0	0.0
-1.3610915826728371	0.0	3.141592653589793	0.0	0.0	0.0
-1.3520158705624665	0.0	3.141592653589793	0.0	0.0	0.0
-1.3429401584520961	0.0	3.141592653589793	0.0	0.0	0.0
-1.3338644463417255	0.0	3.141592653589793	0.0	0.0	0.0
-1.324788734231355	0.0	3.141592653589793	0.0	0.0	0.0
-1.3157130221209845	0.0	3.141592653589793	0.0	0.0	0.0
-1.306637310010614	0.0	3.141592653589793	0.0	0.0	0.0
-1.2975615979002435	0.0	3.141592653589793	0.0	0.0	0.0
-1.2884858857898729	0.0	3.141592653589793	0.0	0.0	0.0
-1.2794101736795025	0.0	3.141592653589793	0.0	0.0	0.0
-1.2703344615691319	0.0	3.141592653589793	0.0	0.0	0.0
-1.2612587494587613	0.0	3.141592653589793	0.0	0.0	0.0
-1.2521830373483909	0.0	3.141592653589793	0.0	0.0	0.0
-1.2431073252380205	0.0	3.141592653589793	0.0	0.0	0.0
-1.23403161312765	0.0	3.141592653589793	0.0	0.0	0.0
-1.22495590101728	0.0	3.141592653589793	0.0	0.0	0.0
-1.2158801889069095	0.0	3.141592653589793	0.0	0.0	0.0
-1.2068044767965391	0.0	3.141592653589793	0.0	0.0	0.0
-1.197728764686169	0.0	3.141592653589793	0.0	0.0	0.0
-1.1886530525757986	0.0	3.141592653589793	0.0	0.0	0.0
-1.1795773404654282	0.0	3.141592653589793	0.0	0.0	0.0
-1.170501628355058	0.0	3.141592653589793	0.0	0.0	0.0
-1.1614259162446876	0.0	3.141592653589793	0.0	0.0	0.0
-1.1523502041343172	0.0	3.141592653589793	0.0	0.0	0.0
-1.143274492023947	0.0	3.141592653589793	0.0	0.0	0.0
-1.1341987799135766	0.0	3.141592653589793	0.0	0.0	0.0
-1.1251230678032063	0.0	3.141592653589793	0.0	0.0	0.0
-1.116047355692836	0.0	3.141592653589793	0.0	0.0	0.0
-1.1069716435824657	0.0	3.141592653589793	0.0	0.0	0.0
-1.0978959314720953	0.0	3.141592653589793	0.0	0.0	0.0
-1.0888202193617251	0.0	3.141592653589793	0.0	0.0	0.0
-1.0797445072513547	0.0	3.141592653589793	0.0	0.0	0.0
-1.0706687951409843	0.0	3.141592653589793	0.0	0.0	0.0
-1.0615930830306142	0.0	3.141592653589793	0.0	0.0	0.0
-1.0525173709202438	0.0	3.141592653589793	0.0	0.0	0.0
-1.0434416588098734	0.0	3.141592653589793	0.0	0.0	0.0
-1.0343659466995032	0.0	3.141592653589793	0.0	0.0	0.0
-1.0252902345891326	0.0	3.141592653589793	0.0	0.0	0.0
-1.0162145224787626	0.0	3.141592653589793	0.0	0.0	0.0
-1.0071388103683923	0.0	3.141592653589793	0.0	0.0	0.0
-0.9980630982580219	0.0	3.141592653589793	0.0	0.0	0.0
-0.9889873861476515	0.0	3.141592653589793	0.0	0.0	0.0
-0.9799116740372811	0.0	3.141592653589793	0.0	0.0	0.0
-0.9708359619269107	0.0	3.141592653589793	0.0	0.0	0.0
-0.9617602498165407	0.0	3.141592653589793	0.0	0.0	0.0
-0.9526845377061703	0.0	3.141592653589793	0.0	0.0	0.0
-0.9436088255958	0.0	3.141592653589793	0.0	0.0	0.0
-0.9345331134854296	0.0	3.141592653589793	0.0	0.0	0.0
-0.9254574013750592	0.0	3.141592653589793	0.0	0.0	0.0
-0.9163816892646888	0.0	3.141592653589793	0.0	0.0	0.0
-0.9073059771543188	0.0	3.141592653589793	0.0	0.0	0.0
-0.8982302650439484	0.0	3.141592653589793	0.0	0.0	0.0
-0.889154552933578	0.0	3.141592653589793	0.0	0.0	0.0
-0.8800788408232076	0.0	3.141592653589793	0.0	0.0	0.0
-0.8710031287128372	0.0	3.141592653589793	0.0	0.0	0.0
-0.8619274166024669	0.0	3.141592653589793	0.0	0.0	0.0
-0.8528517044920969	0.0	3.141592653589793	0.0	0.0	0.0
-0.8437759923817265	0.0	3.141592653589793	0.0	0.0	0.0
-0.8347002802713561	0.0	3.141592653589793	0.0	0.0	0.0
-0.8256245681609857	0.0	3.141592653589793	0.0	0.0	0.0
-0.8165488560506153	0.0	3.141592653589793	0.0	0.0	0.0
-0.8074731439402449	0.0	3.141592653589793	0.0	0.0	0.0
-0.798397431829875	0.0	3.141592653589793	0.0	0.0	0.0
-0.7893217197195046	0.0	3.141592653589793	0.0	0.0	0.0
-0.7802460076091342	0.0	3.141592653589793	0.0	0.0	0.0
-0.7711702954987638	0.0	3.141592653589793	0.0	0.0	0.0
-0.7620945833883934	0.0	3.141592653589793	0.0	0.0	0.0
-0.753018871278023	0.0	3.141592653589793	0.0	0.0	0.0
-0.7439431591676531	0.0	3.141592653589793	0.0	0.0	0.0
-0.7348674470572827	0.0	3.141592653589793	0.0	0.0	0.0
-0.7257917349469123	0.0	3.141592653589793	0.0	0.0	0.0
-0.7167160228365419	0.0	3.141592653589793	0.0	0.0	0.0
-0.7076403107261715	0.0	3.141592653589793	0.0	0.0	0.0
-0.6985645986158011	0.0	3.141592653589793	0.0	0.0	0.0
-0.6894888865054312	0.0	3.141592653589793	0.0	0.0	0.0
-0.6804131743950608	0.0	3.141592653589793	0.0	0.0	0.0
-0.6713374622846904	0.0	3.141592653589793	0.0	0.0	0.0
-0.66226175017432	0.0	3.141592653589793	0.0	0.0	0.0
-0.6531860380639496	0.0	3.141592653589793	0.0	0.0	0.0
-0.6441103259535792	0.0	3.141592653589793	0.0	0.0	0.0
-0.6350346138432093	0.0	3.141592653589793	0.0	0.0	0.0
-0.6259589017328389	0.0	3.141592653589793	0.0	0.0	0.0
-0.6168831896224685	0.0	3.141592653589793	0.0	0.0	0.0
-0.6078074775120981	0.0	3.141592653589793	0.0	0.0	0.0
-0.5987317654017277	0.0	3.141592653589793	0.0	0.0	0.0
-0.5896560532913573	0.0	3.141592653589793	0.0	0.0	0.0
-0.5805803411809869	0.0	3.141592653589793	0.0	0.0	0.0
-0.5715046290706169	0.0	3.141592653589793	0.0	0.0	0.0
-0.5624289169602465	0.0	3.141592653589793	0.0	0.0	0.0
-0.5533532048498762	0.0	3.141592653589793	0.0	0.0	0.0
-0.5442774927395058	0.0	3.141592653589793	0.0	0.0	0.0
-0.5352017806291354	0.0	3.141592653589793	0.0	0.0	0.0
-0.526126068518765	0.0	3.141592653589793	0.0	0.0	0.0
-0.517050356408395	0.0	3.141592653589793	0.0	0.0	0.0
-0.5079746442980246	0.0	3.141592653589793	0.0	0.0	0.0
-0.49889893218765424	0.0	3.141592653589793	0.0	0.0	0.0
-0.48982322007728385	0.0	3.141592653589793	0.0	0.0	0.0
-0.48074750796691346	0.0	3.141592653589793	0.0	0.0	0.0
-0.47167179585654306	0.0	3.141592653589793	0.0	0.0	0.0
-0.4625960837461731	0.0	3.141592653589793	0.0	0.0	0.0
-0.4535203716358027	0.0	3.141592653589793	0.0	0.0	0.0
-0.44444465952543233	0.0	3.141592653589793	0.0	0.0	0.0
-0.43536894741506194	0.0	3.141592653589793	0.0	0.0	0.0
-0.42629323530469154	0.0	3.141592653589793	0.0	0.0	0.0
-0.41721752319432115	0.0	3.141592653589793	0.0	0.0	0.0
-0.4081418110839512	0.0	3.141592653589793	0.0	0.0	0.0
-0.3990660989735808	0.0	3.141592653589793	0.0	0.0	0.0
-0.3899903868632104	0.0	3.141592653589793	0.0	0.0	0.0
-0.38091467475284	0.0	3.141592653589793	0.0	0.0	0.0
-0.37183896264246963	0.0	3.141592653589793	0.0	0.0	0.0
-0.36276325053209924	0.0	3.141592653589793	0.0	0.0	0.0
-0.3536875384217293	0.0	3.141592653589793	0.0	0.0	0.0
-0.3446118263113589	0.0	3.141592653589793	0.0	0.0	0.0
-0.3355361142009885	0.0	3.141592653589793	0.0	0.0	0.0
-0.3264604020906181	0.0	3.141592653589793	0.0	0.0	0.0
-0.3173846899802477	0.0	3.141592653589793	0.0	0.0	0.0
-0.3083089778698773	0.0	3.141592653589793	0.0	0.0	0.0
-0.29923326575950737	0.0	3.141592653589793	0.0	0.0	0.0
-0.290157553649137	0.0	3.141592653589793	0.0	0.0	0.0
-0.2810818415387666	0.0	3.141592653589793	0.0	0.0	0.0
-0.2720061294283962	0.0	3.141592653589793	0.0	0.0	0.0
-0.2629304173180258	0.0	3.141592653589793	0.0	0.0	0.0
-0.2538547052076554	0.0	3.141592653589793	0.0	0.0	0.0
-0.24477899309728546	0.0	3.141592653589793	0.0	0.0	0.0
-0.23570328098691506	0.0	3.141592653589793	0.0	0.0	0.0
-0.22662756887654467	0.0	3.141592653589793	0.0	0.0	0.0
-0.21755185676617428	0.0	3.141592653589793	0.0	0.0	0.0
-0.20847614465580389	0.0	3.141592653589793	0.0	0.0	0.0
-0.1994004325454335	0.0	3.141592653589793	0.0	0.0	0.0
-0.1903247204350631	0.0	3.141592653589793	0.0	0.0	0.0
-0.18124900832469315	0.0	3.141592653589793	0.0	0.0	0.0
-0.17217329621432276	0.0	3.141592653589793	0.0	0.0	0.0
-0.16309758410395236	0.0	3.141592653589793	0.0	0.0	0.0
-0.15402187199358197	0.0	3.141592653589793	0.0	0.0	0.0
-0.14494615988321158	0.0	3.141592653589793	0.0	0.0	0.0
-0.13587044777284119	0.0	3.141592653589793	0.0	0.0	0.0
-0.12679473566247124	0.0	3.141592653589793	0.0	0.0	0.0
-0.11771902355210084	0.0	3.141592653589793	0.0	0.0	0.0
-0.10864331144173045	0.0	3.141592653589793	0.0	0.0	0.0
-0.09956759933136006	0.0	3.141592653589793	0.0	0.0	0.0
-0.09049188722098966	0.0	3.141592653589793	0.0	0.0	0.0
-0.08141617511061927	0.0	3.141592653589793	0.0	0.0	0.0
-0.07234046300024932	0.0	3.141592653589793	0.0	0.0	0.0
-0.06326475088987893	0.0	3.141592653589793	0.0	0.0	0.0
-0.054189038779508536	0.0	3.141592653589793	0.0	0.0	0.0
-0.04511332666913814	0.0	3.141592653589793	0.0	0.0	0.0
-0.03603761455876775	0.0	3.141592653589793	0.0	0.0	0.0
-0.026961902448397357	0.0	3.141592653589793	0.0	0.0	0.0
-0.017886190338027408	0.0	3.141592653589793	0.0	0.0	0.0
-0.008810478227657015	0.0	3.141592653589793	0.0	0.0	0.0
0.0002652338827133782	0.0	3.141592653589793	0.0	0.0	0.0
0.009340945993083771	0.0	3.141592653589793	0.0	0.0	0.0
0.018416658103454164	0.0	3.141592653589793	0.0	0.0	0.0
0.027492370213824557	0.0	3.141592653589793	0.0	0.0	0.0
0.036568082324194506	0.0	3.141592653589793	0.0	0.0	0.0
0.0456437944345649	0.0	3.141592653589793	0.0	0.0	0.0
0.05471950654493529	0.0	3.141592653589793	0.0	0.0	0.0
0.06379521865530569	0.0	3.141592653589793	0.0	0.0	0.0
0.07287093076567608	0.0	3.141592653589793	0.0	0.0	0.0
0.08194664287604647	0.0	3.141592653589793	0.0	0.0	0.0
0.09102235498641642	0.0	3.141592653589793	0.0	0.0	0.0
0.10009806709678681	0.0	3.141592653589793	0.0	0.0	0.0
0.1091737792071572	0.0	3.141592653589793	0.0	0.0	0.0
0.1182494913175276	0.0	3.141592653589793	0.0	0.0	0.0
0.127325203427898	0.0	3.141592653589793	0.0	0.0	0.0
0.13640091553826839	0.0	3.141592653589793	0.0	0.0	0.0
0.14547662764863833	0.0	3.141592653589793	0.0	0.0	0.0
0.15455233975900873	0.0	3.141592653589793	0.0	0.0	0.0
0.16362805186937912	0.0	3.141592653589793	0.0	0.0	0.0
0.17270376397974951	0.0	3.141592653589793	0.0	0.0	0.0
0.1817794760901199	0.0	3.141592653589793	0.0	0.0	0.0
0.1908551882004903	0.0	3.141592653589793	0.0	0.0	0.0
0.19993090031086025	0.0	3.141592653589793	0.0	0.0	0.0
0.20900661242123064	0.0	3.141592653589793	0.0	0.0	0.0
0.21808232453160104	0.0	3.141592653589793	0.0	0.0	0.0
0.22715803664197143	0.0	3.141592653589793	0.0	0.0	0.0
0.23623374875234182	0.0	3.141592653589793	0.0	0.0	0.0
0.24530946086271221	0.0	3.141592653589793	0.0	0.0	0.0
0.2543851729730826	0.0	3.141592653589793	0.0	0.0	0.0
0.26346088508345256	0.0	3.141592653589793	0.0	0.0	0.0
0.27253659719382295	0.0	3.141592653589793	0.0	0.0	0.0
0.28161230930419334	0.0	3.141592653589793	0.0	0.0	0.0
0.29068802141456374	0.0	3.141592653589793	0.0	0.0	0.0
0.29976373352493413	0.0	3.141592653589793	0.0	0.0	0.0
0.3088394456353045	0.0	3.141592653589793	0.0	0.0	0.0
0.31791515774567447	0.0	3.141592653589793	0.0	0.0	0.0
0.32699086985604486	0.0	3.141592653589793	0.0	0.0	0.0
0.33606658196641526	0.0	3.141592653589793	0.0	0.0	0.0
0.34514229407678565	0.0	3.141592653589793	0.0	0.0	0.0
0.35421800618715604	0.0	3.141592653589793	0.0	0.0	0.0
0.36329371829752644	0.0	3.141592653589793	0.0	0.0	0.0
0.3723694304078964	0.0	3.141592653589793	0.0	0.0	0.0
0.3814451425182668	0.0	3.141592653589793	0.0	0.0	0.0
0.39052085462863717	0.0	3.141592653589793	0.0	0.0	0.0
0.39959656673900756	0.0	3.141592653589793	0.0	0.0	0.0
0.40867227884937796	0.0	3.141592653589793	0.0	0.0	0.0
0.41774799095974835	0.0	3.141592653589793	0.0	0.0	0.0
0.4268237030701183	0.0	3.141592653589793	0.0	0.0	0.0
0.4358994151804887	0.0	3.141592653589793	0.0	0.0	0.0
0.4449751272908591	0.0	3.141592653589793	0.0	0.0	0.0
0.4540508394012295	0.0	3.141592653589793	0.0	0.0	0.0
0.46312655151159987	0.0	3.141592653589793	0.0	0.0	0.0
0.47220226362197026	0.0	3.141592653589793	0.0	0.0	0.0
0.4812779757323402	0.0	3.141592653589793	0.0	0.0	0.0
0.4903536878427106	0.0	3.141592653589793	0.0	0.0	0.0
0.499429399953081	0.0	3.141592653589793	0.0	0.0	0.0
0.5085051120634514	0.0	3.141592653589793	0.0	0.0	0.0
0.5175808241738218	0.0	3.141592653589793	0.0	0.0	0.0
0.5266565362841922	0.0	3.141592653589793	0.0	0.0	0.0
0.5357322483945621	0.0	3.141592653589793	0.0	0.0	0.0
0.5448079605049325	0.0	3.141592653589793	0.0	0.0	0.0
0.5538836726153029	0.0	3.141592653589793	0.0	0.0	0.0
0.5629593847256733	0.0	3.141592653589793	0.0	0.0	0.0
0.5720350968360437	0.0	3.141592653589793	0.0	0.0	0.0
0.5811108089464145	0.0	3.141592653589793	0.0	0.0	0.0
0.5901865210567845	0.0	3.141592653589793	0.0	0.0	0.0
0.5992622331671553	0.0	3.141592653589793	0.0	0.0	0.0
0.6083379452775257	0.0	3.141592653589793	0.0	0.0	0.0
0.6174136573878961	0.0	3.141592653589793	0.0	0.0	0.0
0.6264893694982665	0.0	3.141592653589793	0.0	0.0	0.0
0.6355650816086365	0.0	3.141592653589793	0.0	0.0	0.0
0.6446407937190068	0.0	3.141592653589793	0.0	0.0	0.0
0.6537165058293772	0.0	3.141592653589793	0.0	0.0	0.0
0.6627922179397476	0.0	3.141592653589793	0.0	0.0	0.0
0.671867930050118	0.0	3.141592653589793	0.0	0.0	0.0
0.6809436421604884	0.0	3.141592653589793	0.0	0.0	0.0
0.6900193542708584	0.0	3.141592653589793	0.0	0.0	0.0
0.6990950663812288	0.0	3.141592653589793	0.0	0.0	0.0
0.7081707784915992	0.0	3.141592653589793	0.0	0.0	0.0
0.7172464906019695	0.0	3.141592653589793	0.0	0.0	0.0
0.7263222027123399	0.0	3.141592653589793	0.0	0.0	0.0
0.7353979148227103	0.0	3.141592653589793	0.0	0.0	0.0
0.7444736269330807	0.0	3.141592653589793	0.0	0.0	0.0
0.7535493390434507	0.0	3.141592653589793	0.0	0.0	0.0
0.7626250511538211	0.0	3.141592653589793	0.0	0.0	0.0
0.7717007632641915	0.0	3.141592653589793	0.0	0.0	0.0
0.7807764753745619	0.0	3.141592653589793	0.0	0.0	0.0
0.7898521874849322	0.0	3.141592653589793	0.0	0.0	0.0
0.7989278995953026	0.0	3.141592653589793	0.0	0.0	0.0
0.8080036117056726	0.0	3.141592653589793	0.0	0.0	0.0
0.817079323816043	0.0	3.141592653589793	0.0	0.0	0.0
0.8261550359264134	0.0	3.141592653589793	0.0	0.0	0.0
0.8352307480367838	0.0	3.141592653589793	0.0	0.0	0.0
0.8443064601471542	0.0	3.141592653589793	0.0	0.0	0.0
0.8533821722575246	0.0	3.141592653589793	0.0	0.0	0.0
0.8624578843678945	0.0	3.141592653589793	0.0	0.0	0.0
0.8715335964782649	0.0	3.141592653589793	0.0	0.0	0.0
0.8806093085886353	0.0	3.141592653589793	0.0	0.0	0.0
0.8896850206990057	0.0	3.141592653589793	0.0	0.0	0.0
0.8987607328093761	0.0	3.141592653589793	0.0	0.0	0.0
0.9078364449197465	0.0	3.141592653589793	0.0	0.0	0.0
0.9169121570301164	0.0	3.141592653589793	0.0	0.0	0.0
0.9259878691404868	0.0	3.141592653589793	0.0	0.0	0.0
0.9350635812508572	0.0	3.141592653589793	0.0	0.0	0.0
0.9441392933612276	0.0	3.141592653589793	0.0	0.0	0.0
0.953215005471598	0.0	3.141592653589793	0.0	0.0	0.0
0.9622907175819684	0.0	3.141592653589793	0.0	0.0	0.0
0.9713664296923388	0.0	3.141592653589793	0.0	0.0	0.0
0.9804421418027087	0.0	3.141592653589793	0.0	0.0	0.0
0.9895178539130796	0.0	3.141592653589793	0.0	0.0	0.0
0.9985935660234495	0.0	3.141592653589793	0.0	0.0	0.0
1.0076692781338195	0.0	3.141592653589793	0.0	0.0	0.0
1.0167449902441903	0.0	3.141592653589793	0.0	0.0	0.0
1.0258207023545602	0.0	3.141592653589793	0.0	0.0	0.0
1.034896414464931	0.0	3.141592653589793	0.0	0.0	0.0
1.043972126575301	0.0	3.141592653589793	0.0	0.0	0.0
1.053047838685671	0.0	3.141592653589793	0.0	0.0	0.0
1.0621235507960418	0.0	3.141592653589793	0.0	0.0	0.0
1.0711992629064118	0.0	3.141592653589793	0.0	0.0	0.0
1.0802749750167826	0.0	3.141592653589793	0.0	0.0	0.0
1.0893506871271526	0.0	3.141592653589793	0.0	0.0	0.0
1.0984263992375234	0.0	3.141592653589793	0.0	0.0	0.0
1.1075021113478933	0.0	3.141592653589793	0.0	0.0	0.0
1.1165778234582633	0.0	3.141592653589793	0.0	0.0	0.0
1.1256535355686341	0.0	3.141592653589793	0.0	0.0	0.0
1.134729247679004	0.0	3.141592653589793	0.0	0.0	0.0
1.143804959789375	0.0	3.141592653589793	0.0	0.0	0.0
1.1528806718997449	0.0	3.141592653589793	0.0	0.0	0.0
1.1619563840101157	0.0	3.141592653589793	0.0	0.0	0.0
1.1710320961204856	0.0	3.141592653589793	0.0	0.0	0.0
1.1801078082308556	0.0	3.141592653589793	0.0	0.0	0.0
1.1891835203412264	0.0	3.141592653589793	0.0	0.0	0.0
1.1982592324515964	0.0	3.141592653589793	0.0	0.0	0.0
1.2073349445619672	0.0	3.141592653589793	0.0	0.0	0.0
1.2164106566723372	0.0	3.141592653589793	0.0	0.0	0.0
1.2254863687827071	0.0	3.141592653589793	0.0	0.0	0.0
1.234562080893078	0.0	3.141592653589793	0.0	0.0	0.0
1.243637793003448	0.0	3.141592653589793	0.0	0.0	0.0
1.2527135051138187	0.0	3.141592653589793	0.0	0.0	0.0
1.2617892172241887	0.0	3.141592653589793	0.0	0.0	0.0
1.2708649293345595	0.0	3.141592653589793	0.0	0.0	0.0
1.2799406414449295	0.0	3.141592653589793	0.0	0.0	0.0
1.2890163535552994	0.0	3.141592653589793	0.0	0.0	0.0
1.2980920656656703	0.0	3.141592653589793	0.0	0.0	0.0
1.3071677777760402	0.0	3.141592653589793	0.0	0.0	0.0
1.316243489886411	0.0	3.141592653589793	0.0	0.0	0.0
1.325319201996781	0.0	3.141592653589793	0.0	0.0	0.0
1.334394914107151	0.0	3.141592653589793	0.0	0.0	0.0
1.3434706262175218	0.0	3.141592653589793	0.0	0.0	0.0
1.3525463383278917	0.0	3.141592653589793	0.0	0.0	0.0
1.3616220504382626	0.0	3.141592653589793	0.0	0.0	0.0
1.3706977625486325	0.0	3.141592653589793	0.0	0.0	0.0
1.3797734746590034	0.0	3.141592653589793	0.0	0.0	0.0
1.3888491867693733	0.0	3.141592653589793	0.0	0.0	0.0
1.3979248988797432	0.0	3.141592653589793	0.0	0.0	0.0
1.407000610990114	0.0	3.141592653589793	0.0	0.0	0.0
1.416076323100484	0.0	3.141592653589793	0.0	0.0	0.0
1.4251520352108549	0.0	3.141592653589793	0.0	0.0	0.0
1.4342277473212248	0.0	3.141592653589793	0.0	0.0	0.0
1.4433034594315948	0.0	3.141592653589793	0.0	0.0	0.0
1.4523791715419656	0.0	3.141592653589793	0.0	0.0	0.0
1.4614548836523356	0.0	3.141592653589793	0.0	0.0	0.0
1.4705305957627064	0.0	3.141592653589793	0.0	0.0	0.0
1.4796063078730763	0.0	3.141592653589793	0.0	0.0	0.0
1.4886820199834472	0.0	3.141592653589793	0.0	0.0	0.0
1.4977577320938171	0.0	3.141592653589793	0.0	0.0	0.0
1.506833444204187	0.0	3.141592653589793	0.0	0.0	0.0
1.515909156314558	0.0	3.141592653589793	0.0	0.0	0.0
1.5249848684249279	0.0	3.141592653589793	0.0	0.0	0.0
1.5340605805352987	0.0	3.141592653589793	0.0	0.0	0.0
1.5431362926456687	0.0	3.141592653589793	0.0	0.0	0.0
1.5522120047560386	0.0	3.141592653589793	0.0	0.0	0.0
1.5612877168664094	0.0	3.141592653589793	0.0	0.0	0.0
1.5703634289767794	0.0	3.141592653589793	0.0	0.0	0.0
1.5794391410871502	0.0	3.141592653589793	0.0	0.0	0.0
1.5885148531975202	0.0	3.141592653589793	0.0	0.0	0.0
1.597590565307891	0.0	3.141592653589793	0.0	0.0	0.0
1.606666277418261	0.0	3.141592653589793	0.0	0.0	0.0
1.615741989528631	0.0	3.141592653589793	0.0	0.0	0.0
1.6248177016390017	0.0	3.141592653589793	0.0	0.0	0.0
1.6338934137493717	0.0	3.141592653589793	0.0	0.0	0.0
1.6429691258597425	0.0	3.141592653589793	0.0	0.0	0.0
1.6520448379701125	0.0	3.141592653589793	0.0	0.0	0.0
1.6611205500804833	0.0	3.141592653589793	0.0	0.0	0.0
1.6701962621908533	0.0	3.141592653589793	0.0	0.0	0.0
1.6792719743012232	0.0	3.141592653589793	0.0	0.0	0.0
1.688347686411594	0.0	3.141592653589793	0.0	0.0	0.0
1.697423398521964	0.0	3.141592653589793	0.0	0.0	0.0
1.7064991106323348	0.0	3.141592653589793	0.0	0.0	0.0
1.7155748227427048	0.0	3.141592653589793	0.0	0.0	0.0
1.7246505348530747	0.0	3.141592653589793	0.0	0.0	0.0
1.7337262469634456	0.0	3.141592653589793	0.0	0.0	0.0
1.7428019590738155	0.0	3.141592653589793	0.0	0.0	0.0
1.7518776711841864	0.0	3.141592653589793	0.0	0.0	0.0
1.7609533832945563	0.0	3.141592653589793	0.0	0.0	0.0
1.7700290954049271	0.0	3.141592653589793	0.0	0.0	0.0
1.779104807515297	0.0	3.141592653589793	0.0	0.0	0.0
1.788180519625667	0.0	3.141592653589793	0.0	0.0	0.0
1.7972562317360379	0.0	3.141592653589793	0.0	0.0	0.0
1.8063319438464078	0.0	3.141592653589793	0.0	0.0	0.0
1.8154076559567787	0.0	3.141592653589793	0.0	0.0	0.0
1.8244833680671486	0.0	3.141592653589793	0.0	0.0	0.0
1.8335590801775186	0.0	3.141592653589793	0.0	0.0	0.0
1.8426347922878894	0.0	3.141592653589793	0.0	0.0	0.0
1.8517105043982593	0.0	3.141592653589793	0.0	0.0	0.0
1.8607862165086302	0.0	3.141592653589793	0.0	0.0	0.0
1.8698619286190001	0.0	3.141592653589793	0.0	0.0	0.0
1.878937640729371	0.0	3.141592653589793	0.0	0.0	0.0
1.888013352839741	0.0	3.141592653589793	0.0	0.0	0.0
1.8970890649501109	0.0	3.141592653589793	0.0	0.0	0.0
1.9061647770604817	0.0	3.141592653589793	0.0	0.0	0.0
1.9152404891708517	0.0	3.141592653589793	0.0	0.0	0.0
1.9243162012812225	0.0	3.141592653589793	0.0	0.0	0.0
1.9333919133915924	0.0	3.141592653589793	0.0	0.0	0.0
1.9424676255019624	0.0	3.141592653589793	0.0	0.0	0.0
1.9515433376123332	0.0	3.141592653589793	0.0	0.0	0.0
1.9606190497227032	0.0	3.141592653589793	0.0	0.0	0.0
1.969694761833074	0.0	3.141592653589793	0.0	0.0	0.0
1.978770473943444	0.0	3.141592653589793	0.0	0.0	0.0
1.9878461860538148	0.0	3.141592653589793	0.0	0.0	0.0
1.9969218981641847	0.0	3.141592653589793	0.0	0.0	0.0
2.0059976102745547	0.0	3.141592653589793	0.0	0.0	0.0
2.0150733223849255	0.0	3.141592653589793	0.0	0.0	0.0
2.0241490344952955	0.0	3.141592653589793	0.0	0.0	0.0
2.0332247466056663	0.0	3.141592653589793	0.0	0.0	0.0
2.0423004587160363	0.0	3.141592653589793	0.0	0.0	0.0
2.051376170826407	0.0	3.141592653589793	0.0	0.0	0.0
2.060451882936777	0.0	3.141592653589793	0.0	0.0	0.0
2.069527595047147	0.0	3.141592653589793	0.0	0.0	0.0
2.078603307157518	0.0	3.141592653589793	0.0	0.0	0.0
2.087679019267888	0.0	3.141592653589793	0.0	0.0	0.0
2.0967547313782586	0.0	3.141592653589793	0.0	0.0	0.0
2.1058304434886286	0.0	3.141592653589793	0.0	0.0	0.0
2.1149061555989985	0.0	3.141592653589793	0.0	0.0	0.0
2.1239818677093694	0.0	3.141592653589793	0.0	0.0	0.0
2.1330575798197393	0.0	3.141592653589793	0.0	0.0	0.0
2.14213329193011	0.0	3.141592653589793	0.0	0.0	0.0
2.15120900404048	0.0	3.141592653589793	0.0	0.0	0.0
2.160284716150851	0.0	3.141592653589793	0.0	0.0	0.0
2.169360428261221	0.0	3.141592653589793	0.0	0.0	0.0
2.178436140371591	0.0	3.141592653589793	0.0	0.0	0.0
2.1875118524819617	0.0	3.141592653589793	0.0	0.0	0.0
2.1965875645923316	0.0	3.141592653589793	0.0	0.0	0.0
2.2056632767027025	0.0	3.141592653589793	0.0	0.0	0.0
2.2147389888130724	0.0	3.141592653589793	0.0	0.0	0.0
2.2238147009234424	0.0	3.141592653589793	0.0	0.0	0.0
2.232890413033813	0.0	3.141592653589793	0.0	0.0	0.0
2.241966125144183	0.0	3.141592653589793	0.0	0.0	0.0
2.251041837254554	0.0	3.141592653589793	0.0	0.0	0.0
2.260117549364924	0.0	3.141592653589793	0.0	0.0	0.0
2.2691932614752948	0.0	3.141592653589793	0.0	0.0	0.0
2.2782689735856647	0.0	3.141592653589793	0.0	0.0	0.0
2.2873446856960347	0.0	3.141592653589793	0.0	0.0	0.0
2.2964203978064055	0.0	3.141592653589793	0.0	0.0	0.0
2.3054961099167754	0.0	3.141592653589793	0.0	0.0	0.0
2.3145718220271463	0.0	3.141592653589793	0.0	0.0	0.0
2.3236475341375162	0.0	3.141592653589793	0.0	0.0	0.0
2.332723246247886	0.0	3.141592653589793	0.0	0.0	0.0
2.341798958358257	0.0	3.141592653589793	0.0	0.0	0.0
2.350874670468627	0.0	3.141592653589793	0.0	0.0	0.0
2.359950382578998	0.0	3.141592653589793	0.0	0.0	0.0
2.3690260946893678	0.0	3.141592653589793	0.0	0.0	0.0
2.3781018067997386	0.0	3.141592653589793	0.0	0.0	0.0
2.3871775189101085	0.0	3.141592653589793	0.0	0.0	0.0
2.3962532310204785	0.0	3.141592653589793	0.0	0.0	0.0
2.4053289431308493	0.0	3.141592653589793	0.0	0.0	0.0
2.4144046552412193	0.0	3.141592653589793	0.0	0.0	0.0
2.42348036735159	0.0	3.141592653589793	0.0	0.0	0.0
2.43255607946196	0.0	3.141592653589793	0.0	0.0	0.0
2.441631791572331	0.0	3.141592653589793	0.0	0.0	0.0
2.450707503682701	0.0	3.141592653589793	0.0	0.0	0.0
2.459783215793071	0.0	3.141592653589793	0.0	0.0	0.0
2.4688589279034416	0.0	3.141592653589793	0.0	0.0	0.0
2.4779346400138116	0.0	3.141592653589793	0.0	0.0	0.0
2.4870103521241824	0.0	3.141592653589793	0.0	0.0	0.0
2.4960860642345524	0.0	3.141592653589793	0.0	0.0	0.0
2.5051617763449223	0.0	3.141592653589793	0.0	0.0	0.0
2.514237488455293	0.0	3.141592653589793	0.0	0.0	0.0
2.523313200565663	0.0	3.141592653589793	0.0	0.0	0.0
2.532388912676034	0.0	3.141592653589793	0.0	0.0	0.0
2.541464624786404	0.0	3.141592653589793	0.0	0.0	0.0
2.5505403368967747	0.0	3.141592653589793	0.0	0.0	0.0
2.5596160490071447	0.0	3.141592653589793	0.0	0.0	0.0
2.5686917611175146	0.0	3.141592653589793	0.0	0.0	0.0
2.5777674732278855	0.0	3.141592653589793	0.0	0.0	0.0
2.5868431853382554	0.0	3.141592653589793	0.0	0.0	0.0
2.5959188974486263	0.0	3.141592653589793	0.0	0.0	0.0
2.604994609558996	0.0	3.141592653589793	0.0	0.0	0.0
2.614070321669366	0.0	3.141592653589793	0.0	0.0	0.0
2.623146033779737	0.0	3.141592653589793	0.0	0.0	0.0
2.632221745890107	0.0	3.141592653589793	0.0	0.0	0.0
2.6412974580004778	0.0	3.141592653589793	0.0	0.0	0.0
2.6503731701108477	0.0	3.141592653589793	0.0	0.0	0.0
2.6594488822212186	0.0	3.141592653589793	0.0	0.0	0.0
2.6685245943315885	0.0	3.141592653589793	0.0	0.0	0.0
2.6776003064419585	0.0	3.141592653589793	0.0	0.0	0.0
2.6866760185523293	0.0	3.141592653589793	0.0	0.0	0.0
2.6957517306626992	0.0	3.141592653589793	0.0	0.0	0.0
2.70482744277307	0.0	3.141592653589793	0.0	0.0	0.0
2.71390315488344	0.0	3.141592653589793	0.0	0.0	0.0
2.72297886699381	0.0	3.141592653589793	0.0	0.0	0.0
2.732054579104181	0.0	3.141592653589793	0.0	0.0	0.0
2.7411302912145508	0.0	3.141592653589793	0.0	0.0	0.0
2.7502060033249216	0.0	3.141592653589793	0.0	0.0	0.0
2.7592817154352915	0.0	3.141592653589793	0.0	0.0	0.0
2.7683574275456624	0.0	3.141592653589793	0.0	0.0	0.0
2.7774331396560323	0.0	3.141592653589793	0.0	0.0	0.0
2.7865088517664023	0.0	3.141592653589793	0.0	0.0	0.0
2.795584563876773	0.0	3.141592653589793	0.0	0.0	0.0
2.804660275987143	0.0	3.141592653589793	0.0	0.0	0.0
2.813735988097514	0.0	3.141592653589793	0.0	0.0	0.0
2.822811700207884	0.0	3.141592653589793	0.0	0.0	0.0
2.831887412318254	0.0	3.141592653589793	0.0	0.0	0.0
2.8409631244286246	0.0	3.141592653589793	0.0	0.0	0.0
2.8500388365389946	0.0	3.141592653589793	0.0	0.0	0.0
2.8591145486493654	0.0	3.141592653589793	0.0	0.0	0.0
2.8681902607597354	0.0	3.141592653589793	0.0	0.0	0.0
2.877265972870106	0.0	3.141592653589793	0.0	0.0	0.0
2.886341684980476	0.0	3.141592653589793	0.0	0.0	0.0
2.895417397090846	0.0	3.141592653589793	0.0	0.0	0.0
2.904493109201217	0.0	3.141592653589793	0.0	0.0	0.0
2.913568821311587	0.0	3.141592653589793	0.0	0.0	0.0
2.9226445334219577	0.0	3.141592653589793	0.0	0.0	0.0
2.9317202455323277	0.0	3.141592653589793	0.0	0.0	0.0
2.9407959576426985	0.0	3.141592653589793	0.0	0.0	0.0
2.9498716697530685	0.0	3.141592653589793	0.0	0.0	0.0
2.9589473818634384	0.0	3.141592653589793	0.0	0.0	0.0
2.9680230939738093	0.0	3.141592653589793	0.0	0.0	0.0
2.977098806084179	0.0	3.141592653589793	0.0	0.0	0.0
2.98617451819455	0.0	3.141592653589793	0.0	0.0	0.0
2.99525023030492	0.0	3.141592653589793	0.0	0.0	0.0
3.00432594241529	0.0	3.141592653589793	0.0	0.0	0.0
3.0134016545256608	0.0	3.141592653589793	0.0	0.0	0.0
3.0224773666360307	0.0	3.141592653589793	0.0	0.0	0.0
3.0315530787464016	0.0	3.141592653589793	0.0	0.0	0.0
3.0406287908567715	0.0	3.141592653589793	0.0	0.0	0.0
3.0497045029671423	0.0	3.141592653589793	0.0	0.0	0.0
3.0587802150775123	0.0	3.141592653589793	0.0	0.0	0.0
3.0678559271878822	0.0	3.141592653589793	0.0	0.0	0.0
3.076931639298253	0.0	3.141592653589793	0.0	0.0	0.0
3.086007351408623	0.0	3.141592653589793	0.0	0.0	0.0
3.095083063518994	0.0	3.141592653589793	0.0	0.0	0.0
3.104158775629364	0.0	3.141592653589793	0.0	0.0	0.0
3.1132344877397338	0.0	3.141592653589793	0.0	0.0	0.0
3.121905170264316	0.0	3.141592653589793	0.0	0.0	0.0
3.129042420836241	0.0	3.141592653589793	0.0	0.0	0.0
3.1345796714081664	0.0	3.141592653589793	0.0	0.0	0.0
3.1385169219800915	0.0	3.141592653589793	0.0	0.0	0.0
3.1408541725520167	0.0	3.141592653589793	0.0	0.0	0.0
3.141592653589793	0.0	3.141592653589793	0.0	0.0	0.0
3.141592653589793	0.0	3.141592653589793	0.0	0.0	0.0
3.140792653589793	0.0	3.141592653589793	0.0	0.0	0.0
3.138392653589793	0.0	3.141592653589793	0.0	0.0	0.0
3.134392653589793	0.0	3.141592653589793	0.0	0.0	0.0
3.128792653589793	0.0	3.141592653589793	0.0	0.0	0.0
3.121592653589793	0.0	3.141592653589793	0.0	0.0	0.0
3.112878552899547	0.0	3.141592653589793	0.0	0.0	0.0
3.1038028407891765	0.0	3.141592653589793	0.0	0.0	0.0
3.094727128678806	0.0	3.141592653589793	0.0	0.0	0.0
3.0856514165684352	0.0	3.141592653589793	0.0	0.0	0.0
3.076575704458065	0.0	3.141592653589793	0.0	0.0	0.0
3.0674999923476944	0.0	3.141592653589793	0.0	0.0	0.0
3.058424280237324	0.0	3.141592653589793	0.0	0.0	0.0
3.049348568126953	0.0	3.141592653589793	0.0	0.0	0.0
3.040272856016583	0.0	3.141592653589793	0.0	0.0	0.0
3.0311971439062124	0.0	3.141592653589793	0.0	0.0	0.0
3.0221214317958416	0.0	3.141592653589793	0.0	0.0	0.0
3.013045719685471	0.0	3.141592653589793	0.0	0.0	0.0
3.003970007575101	0.0	3.141592653589793	0.0	0.0	0.0
2.9948942954647304	0.0	3.141592653589793	0.0	0.0	0.0
2.9858185833543596	0.0	3.141592653589793	0.0	0.0	0.0
2.976742871243989	0.0	3.141592653589793	0.0	0.0	0.0
2.967667159133619	0.0	3.141592653589793	0.0	0.0	0.0
2.958591447023248	0.0	3.141592653589793	0.0	0.0	0.0
2.9495157349128776	0.0	3.141592653589793	0.0	0.0	0.0
2.940440022802507	0.0	3.141592653589793	0.0	0.0	0.0
2.9313643106921368	0.0	3.141592653589793	0.0	0.0	0.0
2.922288598581766	0.0	3.141592653589793	0.0	0.0	0.0
2.9132128864713955	0.0	3.141592653589793	0.0	0.0	0.0
2.904137174361025	0.0	3.141592653589793	0.0	0.0	0.0
2.8950614622506543	0.0	3.141592653589793	0.0	0.0	0.0
2.885985750140284	0.0	3.141592653589793	0.0	0.0	0.0
2.8769100380299135	0.0	3.141592653589793	0.0	0.0	0.0
2.867834325919543	0.0	3.141592653589793	0.0	0.0	0.0
2.8587586138091723	0.0	3.141592653589793	0.0	0.0	0.0
2.849682901698802	0.0	3.141592653589793	0.0	0.0	0.0
2.8406071895884315	0.0	3.141592653589793	0.0	0.0	0.0
2.8315314774780607	0.0	3.141592653589793	0.0	0.0	0.0
2.8224557653676903	0.0	3.141592653589793	0.0	0.0	0.0
2.81338005325732	0.0	3.141592653589793	0.0	0.0	0.0
2.804304341146949	0.0	3.141592653589793	0.0	0.0	0.0
2.7952286290365786	0.0	3.141592653589793	0.0	0.0	0.0
2.7861529169262083	0.0	3.141592653589793	0.0	0.0	0.0
2.777077204815838	0.0	3.141592653589793	0.0	0.0	0.0
2.768001492705467	0.0	3.141592653589793	0.0	0.0	0.0
2.7589257805950966	0.0	3.141592653589793	0.0	0.0	0.0
2.7498500684847262	0.0	3.141592653589793	0.0	0.0	0.0
2.740774356374356	0.0	3.141592653589793	0.0	0.0	0.0
2.731698644263985	0.0	3.141592653589793	0.0	0.0	0.0
2.7226229321536146	0.0	3.141592653589793	0.0	0.0	0.0
2.7135472200432442	0.0	3.141592653589793	0.0	0.0	0.0
2.7044715079328734	0.0	3.141592653589793	0.0	0.0	0.0
2.695395795822503	0.0	3.141592653589793	0.0	0.0	0.0
2.6863200837121326	0.0	3.141592653589793	0.0	0.0	0.0
2.6772443716017618	0.0	3.141592653589793	0.0	0.0	0.0
2.6681686594913914	0.0	3.141592653589793	0.0	0.0	0.0
2.659092947381021	0.0	3.141592653589793	0.0	0.0	0.0
2.6500172352706506	0.0	3.141592653589793	0.0	0.0	0.0
2.64094152316028	0.0	3.141592653589793	0.0	0.0	0.0
2.6318658110499094	0.0	3.141592653589793	0.0	0.0	0.0
2.622790098939539	0.0	3.141592653589793	0.0	0.0	0.0
2.6137143868291686	0.0	3.141592653589793	0.0	0.0	0.0
2.6046386747187977	0.0	3.141592653589793	0.0	0.0	0.0
2.5955629626084273	0.0	3.141592653589793	0.0	0.0	0.0
2.586487250498057	0.0	3.141592653589793	0.0	0.0	0.0
2.577411538387686	0.0	3.141592653589793	0.0	0.0	0.0
2.5683358262773157	0.0	3.141592653589793	0.0	0.0	0.0
2.5592601141669453	0.0	3.141592653589793	0.0	0.0	0.0
2.5501844020565745	0.0	3.141592653589793	0.0	0.0	0.0
2.541108689946204	0.0	3.141592653589793	0.0	0.0	0.0
2.5320329778358337	0.0	3.141592653589793	0.0	0.0	0.0
2.522957265725463	0.0	3.141592653589793	0.0	0.0	0.0
2.5138815536150925	0.0	3.141592653589793	0.0	0.0	0.0
2.504805841504722	0.0	3.141592653589793	0.0	0.0	0.0
2.4957301293943517	0.0	3.141592653589793	0.0	0.0	0.0
2.4866544172839813	0.0	3.141592653589793	0.0	0.0	0.0
2.4775787051736105	0.0	3.141592653589793	0.0	0.0	0.0
2.46850299306324	0.0	3.141592653589793	0.0	0.0	0.0
2.4594272809528697	0.0	3.141592653589793	0.0	0.0	0.0
2.450351568842499	0.0	3.141592653589793	0.0	0.0	0.0
2.4412758567321284	0.0	3.141592653589793	0.0	0.0	0.0
2.432200144621758	0.0	3.141592653589793	0.0	0.0	0.0
2.423124432511387	0.0	3.141592653589793	0.0	0.0	0.0
2.414048720401017	0.0	3.141592653589793	0.0	0.0	0.0
2.4049730082906464	0.0	3.141592653589793	0.0	0.0	0.0
2.3958972961802756	0.0	3.141592653589793	0.0	0.0	0.0
2.386821584069905	0.0	3.141592653589793	0.0	0.0	0.0
2.377745871959535	0.0	3.141592653589793	0.0	0.0	0.0
2.3686701598491644	0.0	3.141592653589793	0.0	0.0	0.0
2.359594447738794	0.0	3.141592653589793	0.0	0.0	0.0
2.350518735628423	0.0	3.141592653589793	0.0	0.0	0.0
2.341443023518053	0.0	3.141592653589793	0.0	0.0	0.0
2.3323673114076824	0.0	3.141592653589793	0.0	0.0	0.0
2.3232915992973115	0.0	3.141592653589793	0.0	0.0	0.0
2.314215887186941	0.0	3.141592653589793	0.0	0.0	0.0
2.3051401750765708	0.0	3.141592653589793	0.0	0.0	0.0
2.2960644629662	0.0	3.141592653589793	0.0	0.0	0.0
2.2869887508558295	0.0	3.141592653589793	0.0	0.0	0.0
2.277913038745459	0.0	3.141592653589793	0.0	0.0	0.0
2.2688373266350883	0.0	3.141592653589793	0.0	0.0	0.0
2.259761614524718	0.0	3.141592653589793	0.0	0.0	0.0
2.2506859024143475	0.0	3.141592653589793	0.0	0.0	0.0
2.2416101903039767	0.0	3.141592653589793	0.0	0.0	0.0
2.2325344781936063	0.0	3.141592653589793	0.0	0.0	0.0
2.223458766083236	0.0	3.141592653589793	0.0	0.0	0.0
2.2143830539728655	0.0	3.141592653589793	0.0	0.0	0.0
2.205307341862495	0.0	3.141592653589793	0.0	0.0	0.0
2.1962316297521243	0.0	3.141592653589793	0.0	0.0	0.0
2.187155917641754	0.0	3.141592653589793	0.0	0.0	0.0
2.1780802055313835	0.0	3.141592653589793	0.0	0.0	0.0
2.1690044934210126	0.0	3.141592653589793	0.0	0.0	0.0
2.1599287813106423	0.0	3.141592653589793	0.0	0.0	0.0
2.150853069200272	0.0	3.141592653589793	0.0	0.0	0.0
2.141777357089901	0.0	3.141592653589793	0.0	0.0	0.0
2.1327016449795306	0.0	3.141592653589793	0.0	0.0	0.0
2.1236259328691602	0.0	3.141592653589793	0.0	0.0	0.0
2.1145502207587894	0.0	3.141592653589793	0.0	0.0	0.0
2.105474508648419	0.0	3.141592653589793	0.0	0.0	0.0
2.0963987965380486	0.0	3.141592653589793	0.0	0.0	0.0
2.0873230844276778	0.0	3.141592653589793	0.0	0.0	0.0
2.078247372317308	0.0	3.141592653589793	0.0	0.0	0.0
2.069171660206937	0.0	3.141592653589793	0.0	0.0	0.0
2.0600959480965666	0.0	3.141592653589793	0.0	0.0	0.0
2.051020235986196	0.0	3.141592653589793	0.0	0.0	0.0
2.0419445238758254	0.0	3.141592653589793	0.0	0.0	0.0
2.032868811765455	0.0	3.141592653589793	0.0	0.0	0.0
2.0237930996550846	0.0	3.141592653589793	0.0	0.0	0.0
2.0147173875447137	0.0	3.141592653589793	0.0	0.0	0.0
2.0056416754343434	0.0	3.141592653589793	0.0	0.0	0.0
1.996565963323973	0.0	3.141592653589793	0.0	0.0	0.0
1.9874902512136023	0.0	3.141592653589793	0.0	0.0	0.0
1.9784145391032317	0.0	3.141592653589793	0.0	0.0	0.0
1.9693388269928613	0.0	3.141592653589793	0.0	0.0	0.0
1.9602631148824907	0.0	3.141592653589793	0.0	0.0	0.0
1.9511874027721203	0.0	3.141592653589793	0.0	0.0	0.0
1.9421116906617497	0.0	3.141592653589793	0.0	0.0	0.0
1.933035978551379	0.0	3.141592653589793	0.0	0.0	0.0
1.9239602664410087	0.0	3.141592653589793	0.0	0.0	0.0
1.914884554330638	0.0	3.141592653589793	0.0	0.0	0.0
1.9058088422202677	0.0	3.141592653589793	0.0	0.0	0.0
1.896733130109897	0.0	3.141592653589793	0.0	0.0	0.0
1.8876574179995267	0.0	3.141592653589793	0.0	0.0	0.0
1.878581705889156	0.0	3.141592653589793	0.0	0.0	0.0
1.8695059937787855	0.0	3.141592653589793	0.0	0.0	0.0
1.860430281668415	0.0	3.141592653589793	0.0	0.0	0.0
1.8513545695580444	0.0	3.141592653589793	0.0	0.0	0.0
1.842278857447674	0.0	3.141592653589793	0.0	0.0	0.0
1.8332031453373034	0.0	3.141592653589793	0.0	0.0	0.0
1.8241274332269328	0.0	3.141592653589793	0.0	0.0	0.0
1.8150517211165624	0.0	3.141592653589793	0.0	0.0	0.0
1.8059760090061918	0.0	3.141592653589793	0.0	0.0	0.0
1.7969002968958214	0.0	3.141592653589793	0.0	0.0	0.0
1.7878245847854508	0.0	3.141592653589793	0.0	0.0	0.0
1.7787488726750804	0.0	3.141592653589793	0.0	0.0	0.0
1.7696731605647098	0.0	3.141592653589793	0.0	0.0	0.0
1.7605974484543392	0.0	3.141592653589793	0.0	0.0	0.0
1.7515217363439688	0.0	3.141592653589793	0.0	0.0	0.0
1.7424460242335982	0.0	3.141592653589793	0.0	0.0	0.0
1.7333703121232278	0.0	3.141592653589793	0.0	0.0	0.0
1.7242946000128572	0.0	3.141592653589793	0.0	0.0	0.0
1.7152188879024866	0.0	3.141592653589793	0.0	0.0	0.0
1.7061431757921162	0.0	3.141592653589793	0.0	0.0	0.0
1.6970674636817455	0.0	3.141592653589793	0.0	0.0	0.0
1.6879917515713752	0.0	3.141592653589793	0.0	0.0	0.0
1.6789160394610045	0.0	3.141592653589793	0.0	0.0	0.0
1.6698403273506341	0.0	3.141592653589793	0.0	0.0	0.0
1.6607646152402635	0.0	3.141592653589793	0.0	0.0	0.0
1.651688903129893	0.0	3.141592653589793	0.0	0.0	0.0
1.6426131910195225	0.0	3.141592653589793	0.0	0.0	0.0
1.633537478909152	0.0	3.141592653589793	0.0	0.0	0.0
1.6244617667987815	0.0	3.141592653589793	0.0	0.0	0.0
1.615386054688411	0.0	3.141592653589793	0.0	0.0	0.0
1.6063103425780405	0.0	3.141592653589793	0.0	0.0	0.0
1.59723463046767	0.0	3.141592653589793	0.0	0.0	0.0
1.5881589183572993	0.0	3.141592653589793	0.0	0.0	0.0
1.5790832062469289	0.0	3.141592653589793	0.0	0.0	0.0
1.5700074941365583	0.0	3.141592653589793	0.0	0.0	0.0
1.5609317820261879	0.0	3.141592653589793	0.0	0.0	0.0
1.5518560699158173	0.0	3.141592653589793	0.0	0.0	0.0
1.5427803578054466	0.0	3.141592653589793	0.0	0.0	0.0
1.5337046456950763	0.0	3.141592653589793	0.0	0.0	0.0
1.5246289335847056	0.0	3.141592653589793	0.0	0.0	0.0
1.5155532214743352	0.0	3.141592653589793	0.0	0.0	0.0
1.5064775093639646	0.0	3.141592653589793	0.0	0.0	0.0
1.4974017972535942	0.0	3.141592653589793	0.0	0.0	0.0
1.4883260851432236	0.0	3.141592653589793	0.0	0.0	0.0
1.479250373032853	0.0	3.141592653589793	0.0	0.0	0.0
1.4701746609224826	0.0	3.141592653589793	0.0	0.0	0.0
1.461098948812112	0.0	3.141592653589793	0.0	0.0	0.0
1.4520232367017416	0.0	3.141592653589793	0.0	0.0	0.0
1.442947524591371	0.0	3.141592653589793	0.0	0.0	0.0
1.4338718124810004	0.0	3.141592653589793	0.0	0.0	0.0
1.42479610037063	0.0	3.141592653589793	0.0	0.0	0.0
1.4157203882602594	0.0	3.141592653589793	0.0	0.0	0.0
1.406644676149889	0.0	3.141592653589793	0.0	0.0	0.0
1.3975689640395184	0.0	3.141592653589793	0.0	0.0	0.0
1.388493251929148	0.0	3.141592653589793	0.0	0.0	0.0
1.3794175398187773	0.0	3.141592653589793	0.0	0.0	0.0
1.3703418277084067	0.0	3.141592653589793	0.0	0.0	0.0
1.3612661155980363	0.0	3.141592653589793	0.0	0.0	0.0
1.352190403487666	0.0	3.141592653589793	0.0	0.0	0.0
1.3431146913772956	0.0	3.141592653589793	0.0	0.0	0.0
1.3340389792669254	0.0	3.141592653589793	0.0	0.0	0.0
1.324963267156555	0.0	3.141592653589793	0.0	0.0	0.0
1.3158875550461846	0.0	3.141592653589793	0.0	0.0	0.0
1.3068118429358144	0.0	3.141592653589793	0.0	0.0	0.0
1.297736130825444	0.0	3.141592653589793	0.0	0.0	0.0
1.2886604187150736	0.0	3.141592653589793	0.0	0.0	0.0
1.2795847066047035	0.0	3.141592653589793	0.0	0.0	0.0
1.270508994494333	0.0	3.141592653589793	0.0	0.0	0.0
1.2614332823839627	0.0	3.141592653589793	0.0	0.0	0.0
1.2523575702735925	0.0	3.141592653589793	0.0	0.0	0.0
1.2432818581632221	0.0	3.141592653589793	0.0	0.0	0.0
1.2342061460528517	0.0	3.141592653589793	0.0	0.0	0.0
1.2251304339424816	0.0	3.141592653589793	0.0	0.0	0.0
1.2160547218321112	0.0	3.141592653589793	0.0	0.0	0.0
1.2069790097217408	0.0	3.141592653589793	0.0	0.0	0.0
1.1979032976113706	0.0	3.141592653589793	0.0	0.0	0.0
1.1888275855010002	0.0	3.141592653589793	0.0	0.0	0.0
1.1797518733906298	0.0	3.141592653589793	0.0	0.0	0.0
1.1706761612802596	0.0	3.141592653589793	0.0	0.0	0.0
1.1616004491698892	0.0	3.141592653589793	0.0	0.0	0.0
1.1525247370595189	0.0	3.141592653589793	0.0	0.0	0.0
1.1434490249491487	0.0	3.141592653589793	0.0	0.0	0.0
1.134373312838778	0.0	3.141592653589793	0.0	0.0	0.0
1.1252976007284081	0.0	3.141592653589793	0.0	0.0	0.0
1.1162218886180377	0.0	3.141592653589793	0.0	0.0	0.0
1.1071461765076673	0.0	3.141592653589793	0.0	0.0	0.0
1.098070464397297	0.0	3.141592653589793	0.0	0.0	0.0
1.0889947522869265	0.0	3.141592653589793	0.0	0.0	0.0
1.0799190401765562	0.0	3.141592653589793	0.0	0.0	0.0
1.0708433280661862	0.0	3.141592653589793	0.0	0.0	0.0
1.0617676159558158	0.0	3.141592653589793	0.0	0.0	0.0
1.0526919038454454	0.0	3.141592653589793	0.0	0.0	0.0
1.043616191735075	0.0	3.141592653589793	0.0	0.0	0.0
1.0345404796247046	0.0	3.141592653589793	0.0	0.0	0.0
1.0254647675143342	0.0	3.141592653589793	0.0	0.0	0.0
1.0163890554039643	0.0	3.141592653589793	0.0	0.0	0.0
1.007313343293594	0.0	3.141592653589793	0.0	0.0	0.0
0.9982376311832235	0.0	3.141592653589793	0.0	0.0	0.0
0.9891619190728531	0.0	3.141592653589793	0.0	0.0	0.0
0.9800862069624827	0.0	3.141592653589793	0.0	0.0	0.0
0.9710104948521123	0.0	3.141592653589793	0.0	0.0	0.0
0.9619347827417424	0.0	3.141592653589793	0.0	0.0	0.0
0.952859070631372	0.0	3.141592653589793	0.0	0.0	0.0
0.9437833585210016	0.0	3.141592653589793	0.0	0.0	0.0
0.9347076464106312	0.0	3.141592653589793	0.0	0.0	0.0
0.9256319343002608	0.0	3.141592653589793	0.0	0.0	0.0
0.9165562221898904	0.0	3.141592653589793	0.0	0.0	0.0
0.9074805100795205	0.0	3.141592653589793	0.0	0.0	0.0
0.8984047979691501	0.0	3.141592653589793	0.0	0.0	0.0
0.8893290858587797	0.0	3.141592653589793	0.0	0.0	0.0
0.8802533737484093	0.0	3.141592653589793	0.0	0.0	0.0
0.8711776616380389	0.0	3.141592653589793	0.0	0.0	0.0
0.8621019495276685	0.0	3.141592653589793	0.0	0.0	0.0
0.8530262374172985	0.0	3.141592653589793	0.0	0.0	0.0
0.8439505253069282	0.0	3.141592653589793	0.0	0.0	0.0
0.8348748131965578	0.0	3.141592653589793	0.0	0.0	0.0
0.8257991010861874	0.0	3.141592653589793	0.0	0.0	0.0
0.816723388975817	0.0	3.141592653589793	0.0	0.0	0.0
0.8076476768654466	0.0	3.141592653589793	0.0	0.0	0.0
0.7985719647550766	0.0	3.141592653589793	0.0	0.0	0.0
0.7894962526447062	0.0	3.141592653589793	0.0	0.0	0.0
0.7804205405343358	0.0	3.141592653589793	0.0	0.0	0.0
0.7713448284239655	0.0	3.141592653589793	0.0	0.0	0.0
0.7622691163135951	0.0	3.141592653589793	0.0	0.0	0.0
0.7531934042032247	0.0	3.141592653589793	0.0	0.0	0.0
0.7441176920928547	0.0	3.141592653589793	0.0	0.0	0.0
0.7350419799824843	0.0	3.141592653589793	0.0	0.0	0.0
0.7259662678721139	0.0	3.141592653589793	0.0	0.0	0.0
0.7168905557617435	0.0	3.141592653589793	0.0	0.0	0.0
0.7078148436513731	0.0	3.141592653589793	0.0	0.0	0.0
0.6987391315410028	0.0	3.141592653589793	0.0	0.0	0.0
0.6896634194306324	0.0	3.141592653589793	0.0	0.0	0.0
0.6805877073202624	0.0	3.141592653589793	0.0	0.0	0.0
0.671511995209892	0.0	3.141592653589793	0.0	0.0	0.0
0.6624362830995216	0.0	3.141592653589793	0.0	0.0	0.0
0.6533605709891512	0.0	3.141592653589793	0.0	0.0	0.0
0.6442848588787808	0.0	3.141592653589793	0.0	0.0	0.0
0.6352091467684104	0.0	3.141592653589793	0.0	0.0	0.0
0.6261334346580405	0.0	3.141592653589793	0.0	0.0	0.0
0.6170577225476701	0.0	3.141592653589793	0.0	0.0	0.0
0.6079820104372997	0.0	3.141592653589793	0.0	0.0	0.0
0.5989062983269293	0.0	3.141592653589793	0.0	0.0	0.0
0.5898305862165589	0.0	3.141592653589793	0.0	0.0	0.0
0.5807548741061885	0.0	3.141592653589793	0.0	0.0	0.0
0.5716791619958186	0.0	3.141592653589793	0.0	0.0	0.0
0.5626034498854482	0.0	3.141592653589793	0.0	0.0	0.0
0.5535277377750778	0.0	3.141592653589793	0.0	0.0	0.0
0.5444520256647074	0.0	3.141592653589793	0.0	0.0	0.0
0.535376313554337	0.0	3.141592653589793	0.0	0.0	0.0
0.5263006014439666	0.0	3.141592653589793	0.0	0.0	0.0
0.5172248893335967	0.0	3.141592653589793	0.0	0.0	0.0
0.5081491772232263	0.0	3.141592653589793	0.0	0.0	0.0
0.4990734651128559	0.0	3.141592653589793	0.0	0.0	0.0
0.4899977530024855	0.0	3.141592653589793	0.0	0.0	0.0
0.4809220408921151	0.0	3.141592653589793	0.0	0.0	0.0
0.4718463287817447	0.0	3.141592653589793	0.0	0.0	0.0
0.46277061667137476	0.0	3.141592653589793	0.0	0.0	0.0
0.45369490456100436	0.0	3.141592653589793	0.0	0.0	0.0
0.44461919245063397	0.0	3.141592653589793	0.0	0.0	0.0
0.4355434803402636	0.0	3.141592653589793	0.0	0.0	0.0
0.4264677682298932	0.0	3.141592653589793	0.0	0.0	0.0
0.4173920561195228	0.0	3.141592653589793	0.0	0.0	0.0
0.40831634400915284	0.0	3.141592653589793	0.0	0.0	0.0
0.39924063189878245	0.0	3.141592653589793	0.0	0.0	0.0
0.39016491978841206	0.0	3.141592653589793	0.0	0.0	0.0
0.38108920767804166	0.0	3.141592653589793	0.0	0.0	0.0
0.37201349556767127	0.0	3.141592653589793	0.0	0.0	0.0
0.3629377834573009	0.0	3.141592653589793	0.0	0.0	0.0
0.35386207134693093	0.0	3.141592653589793	0.0	0.0	0.0
0.34478635923656054	0.0	3.141592653589793	0.0	0.0	0.0
0.33571064712619014	0.0	3.141592653589793	0.0	0.0	0.0
0.32663493501581975	0.0	3.141592653589793	0.0	0.0	0.0
0.31755922290544936	0.0	3.141592653589793	0.0	0.0	0.0
0.30848351079507896	0.0	3.141592653589793	0.0	0.0	0.0
0.29940779868470857	0.0	3.141592653589793	0.0	0.0	0.0
0.2903320865743386	0.0	3.141592653589793	0.0	0.0	0.0
0.28125637446396823	0.0	3.141592653589793	0.0	0.0	0.0
0.27218066235359784	0.0	3.141592653589793	0.0	0.0	0.0
0.26310495024322744	0.0	3.141592653589793	0.0	0.0	0.0
0.25402923813285705	0.0	3.141592653589793	0.0	0.0	0.0
0.24495352602248666	0.0	3.141592653589793	0.0	0.0	0.0
0.2358778139121167	0.0	3.141592653589793	0.0	0.0	0.0
0.22680210180174631	0.0	3.141592653589793	0.0	0.0	0.0
0.21772638969137592	0.0	3.141592653589793	0.0	0.0	0.0
0.20865067758100553	0.0	3.141592653589793	0.0	0.0	0.0
0.19957496547063514	0.0	3.141592653589793	0.0	0.0	0.0
0.19049925336026474	0.0	3.141592653589793	0.0	0.0	0.0
0.1814235412498948	0.0	3.141592653589793	0.0	0.0	0.0
0.1723478291395244	0.0	3.141592653589793	0.0	0.0	0.0
0.163272117029154	0.0	3.141592653589793	0.0	0.0	0.0
0.15419640491878361	0.0	3.141592653589793	0.0	0.0	0.0
0.14512069280841322	0.0	3.141592653589793	0.0	0.0	0.0
0.13604498069804283	0.0	3.141592653589793	0.0	0.0	0.0
0.12696926858767288	0.0	3.141592653589793	0.0	0.0	0.0
0.11789355647730249	0.0	3.141592653589793	0.0	0.0	0.0
0.10881784436693209	0.0	3.141592653589793	0.0	0.0	0.0
0.0997421322565617	0.0	3.141592653589793	0.0	0.0	0.0
0.0906664201461913	0.0	3.141592653589793	0.0	0.0	0.0
0.08159070803582091	0.0	3.141592653589793	0.0	0.0	0.0
0.07251499592545096	0.0	3.141592653589793	0.0	0.0	0.0
0.06343928381508057	0.0	3.141592653589793	0.0	0.0	0.0
0.05436357170471018	0.0	3.141592653589793	0.0	0.0	0.0
0.045287859594339785	0.0	3.141592653589793	0.0	0.0	0.0
0.03621214748396939	0.0	3.141592653589793	0.0	0.0	0.0
0.027136435373599	0.0	3.141592653589793	0.0	0.0	0.0
0.01806072326322905	0.0	3.141592653589793	0.0	0.0	0.0
0.008985011152858657	0.0	3.141592653589793	0.0	0.0	0.0
-9.070095751173568e-05	0.0	3.141592653589793	0.0	0.0	0.0
-0.009166413067882129	0.0	3.141592653589793	0.0	0.0	0.0
-0.018242125178252522	0.0	3.141592653589793	0.0	0.0	0.0
-0.027317837288622915	0.0	3.141592653589793	0.0	0.0	0.0
-0.036393549398992864	0.0	3.141592653589793	0.0	0.0	0.0
-0.04546926150936326	0.0	3.141592653589793	0.0	0.0	0.0
-0.05454497361973365	0.0	3.141592653589793	0.0	0.0	0.0
-0.06362068573010404	0.0	3.141592653589793	0.0	0.0	0.0
-0.07269639784047444	0.0	3.141592653589793	0.0	0.0	0.0
-0.08177210995084483	0.0	3.141592653589793	0.0	0.0	0.0
-0.09084782206121478	0.0	3.141592653589793	0.0	0.0	0.0
-0.09992353417158517	0.0	3.141592653589793	0.0	0.0	0.0
-0.10899924628195556	0.0	3.141592653589793	0.0	0.0	0.0
-0.11807495839232596	0.0	3.141592653589793	0.0	0.0	0.0
-0.12715067050269635	0.0	3.141592653589793	0.0	0.0	0.0
-0.13622638261306674	0.0	3.141592653589793	0.0	0.0	0.0
-0.14530209472343714	0.0	3.141592653589793	0.0	0.0	0.0
-0.15437780683380709	0.0	3.141592653589793	0.0	0.0	0.0
-0.16345351894417748	0.0	3.141592653589793	0.0	0.0	0.0
-0.17252923105454787	0.0	3.141592653589793	0.0	0.0	0.0
-0.18160494316491826	0.0	3.141592653589793	0.0	0.0	0.0
-0.19068065527528866	0.0	3.141592653589793	0.0	0.0	0.0
-0.19975636738565905	0.0	3.141592653589793	0.0	0.0	0.0
-0.208832079496029	0.0	3.141592653589793	0.0	0.0	0.0
-0.2179077916063994	0.0	3.141592653589793	0.0	0.0	0.0
-0.22698350371676979	0.0	3.141592653589793	0.0	0.0	0.0
-0.23605921582714018	0.0	3.141592653589793	0.0	0.0	0.0
-0.24513492793751057	0.0	3.141592653589793	0.0	0.0	0.0
-0.25421064004788096	0.0	3.141592653589793	0.0	0.0	0.0
-0.2632863521582509	0.0	3.141592653589793	0.0	0.0	0.0
-0.2723620642686213	0.0	3.141592653589793	0.0	0.0	0.0
-0.2814377763789917	0.0	3.141592653589793	0.0	0.0	0.0
-0.2905134884893621	0.0	3.141592653589793	0.0	0.0	0.0
-0.2995892005997325	0.0	3.141592653589793	0.0	0.0	0.0
-0.3086649127101029	0.0	3.141592653589793	0.0	0.0	0.0
-0.31774062482047283	0.0	3.141592653589793	0.0	0.0	0.0
-0.3268163369308432	0.0	3.141592653589793	0.0	0.0	0.0
-0.3358920490412136	0.0	3.141592653589793	0.0	0.0	0.0
-0.344967761151584	0.0	3.141592653589793	0.0	0.0	0.0
-0.3540434732619544	0.0	3.141592653589793	0.0	0.0	0.0
-0.3631191853723248	0.0	3.141592653589793	0.0	0.0	0.0
-0.37219489748269474	0.0	3.141592653589793	0.0	0.0	0.0
-0.38127060959306514	0.0	3.141592653589793	0.0	0.0	0.0
-0.39034632170343553	0.0	3.141592653589793	0.0	0.0	0.0
-0.3994220338138059	0.0	3.141592653589793	0.0	0.0	0.0
-0.4084977459241763	0.0	3.141592653589793	0.0	0.0	0.0
-0.4175734580345467	0.0	3.141592653589793	0.0	0.0	0.0
-0.42664917014491666	0.0	3.141592653589793	0.0	0.0	0.0
-0.43572488225528705	0.0	3.141592653589793	0.0	0.0	0.0
-0.44480059436565744	0.0	3.141592653589793	0.0	0.0	0.0
-0.45387630647602784	0.0	3.141592653589793	0.0	0.0	0.0
-0.46295201858639823	0.0	3.141592653589793	0.0	0.0	0.0
-0.47202773069676907	0.0	3.141592653589793	0.0	0.0	0.0
-0.481103442807139	0.0	3.141592653589793	0.0	0.0	0.0
-0.49017915491750985	0.0	3.141592653589793	0.0	0.0	0.0
-0.49925486702788024	0.0	3.141592653589793	0.0	0.0	0.0
-0.5083305791382506	0.0	3.141592653589793	0.0	0.0	0.0
-0.517406291248621	0.0	3.141592653589793	0.0	0.0	0.0
-0.526482003358991	0.0	3.141592653589793	0.0	0.0	0.0
-0.5355577154693614	0.0	3.141592653589793	0.0	0.0	0.0
-0.5446334275797318	0.0	3.141592653589793	0.0	0.0	0.0
-0.5537091396901022	0.0	3.141592653589793	0.0	0.0	0.0
-0.5627848518004726	0.0	3.141592653589793	0.0	0.0	0.0
-0.571860563910843	0.0	3.141592653589793	0.0	0.0	0.0
-0.5809362760212129	0.0	3.141592653589793	0.0	0.0	0.0
-0.5900119881315833	0.0	3.141592653589793	0.0	0.0	0.0
-0.5990877002419537	0.0	3.141592653589793	0.0	0.0	0.0
-0.6081634123523241	0.0	3.141592653589793	0.0	0.0	0.0
-0.6172391244626945	0.0	3.141592653589793	0.0	0.0	0.0
-0.6263148365730649	0.0	3.141592653589793	0.0	0.0	0.0
-0.6353905486834353	0.0	3.141592653589793	0.0	0.0	0.0
-0.6444662607938052	0.0	3.141592653589793	0.0	0.0	0.0
-0.6535419729041756	0.0	3.141592653589793	0.0	0.0	0.0
-0.662617685014546	0.0	3.141592653589793	0.0	0.0	0.0
-0.6716933971249164	0.0	3.141592653589793	0.0	0.0	0.0
-0.6807691092352868	0.0	3.141592653589793	0.0	0.0	0.0
-0.6898448213456572	0.0	3.141592653589793	0.0	0.0	0.0
-0.6989205334560271	0.0	3.141592653589793	0.0	0.0	0.0
-0.7079962455663975	0.0	3.141592653589793	0.0	0.0	0.0
-0.7170719576767679	0.0	3.141592653589793	0.0	0.0	0.0
-0.7261476697871383	0.0	3.141592653589793	0.0	0.0	0.0
-0.7352233818975087	0.0	3.141592653589793	0.0	0.0	0.0
-0.7442990940078791	0.0	3.141592653589793	0.0	0.0	0.0
-0.753374806118249	0.0	3.141592653589793	0.0	0.0	0.0
-0.7624505182286194	0.0	3.141592653589793	0.0	0.0	0.0
-0.7715262303389898	0.0	3.141592653589793	0.0	0.0	0.0
-0.7806019424493602	0.0	3.141592653589793	0.0	0.0	0.0
-0.7896776545597306	0.0	3.141592653589793	0.0	0.0	0.0
-0.798753366670101	0.0	3.141592653589793	0.0	0.0	0.0
-0.8078290787804709	0.0	3.141592653589793	0.0	0.0	0.0
-0.8169047908908413	0.0	3.141592653589793	0.0	0.0	0.0
-0.8259805030012117	0.0	3.141592653589793	0.0	0.0	0.0
-0.8350562151115821	0.0	3.141592653589793	0.0	0.0	0.0
-0.8441319272219525	0.0	3.141592653589793	0.0	0.0	0.0
-0.8532076393323229	0.0	3.141592653589793	0.0	0.0	0.0
-0.8622833514426933	0.0	3.141592653589793	0.0	0.0	0.0
-0.8713590635530633	0.0	3.141592653589793	0.0	0.0	0.0
-0.8804347756634341	0.0	3.141592653589793	0.0	0.0	0.0
-0.889510487773804	0.0	3.141592653589793	0.0	0.0	0.0
-0.898586199884174	0.0	3.141592653589793	0.0	0.0	0.0
-0.9076619119945448	0.0	3.141592653589793	0.0	0.0	0.0
-0.9167376241049148	0.0	3.141592653589793	0.0	0.0	0.0
-0.9258133362152856	0.0	3.141592653589793	0.0	0.0	0.0
-0.9348890483256556	0.0	3.141592653589793	0.0	0.0	0.0
-0.9439647604360255	0.0	3.141592653589793	0.0	0.0	0.0
-0.9530404725463963	0.0	3.141592653589793	0.0	0.0	0.0
-0.9621161846567663	0.0	3.141592653589793	0.0	0.0	0.0
-0.9711918967671371	0.0	3.141592653589793	0.0	0.0	0.0
-0.9802676088775071	0.0	3.141592653589793	0.0	0.0	0.0
-0.9893433209878779	0.0	3.141592653589793	0.0	0.0	0.0
-0.9984190330982479	0.0	3.141592653589793	0.0	0.0	0.0
-1.0074947452086178	0.0	3.141592653589793	0.0	0.0	0.0
-1.0165704573189887	0.0	3.141592653589793	0.0	0.0	0.0
-1.0256461694293586	0.0	3.141592653589793	0.0	0.0	0.0
-1.0347218815397294	0.0	3.141592653589793	0.0	0.0	0.0
-1.0437975936500994	0.0	3.141592653589793	0.0	0.0	0.0
-1.0528733057604702	0.0	3.141592653589793	0.0	0.0	0.0
-1.0619490178708402	0.0	3.141592653589793	0.0	0.0	0.0
-1.0710247299812101	0.0	3.141592653589793	0.0	0.0	0.0
-1.080100442091581	0.0	3.141592653589793	0.0	0.0	0.0
-1.089176154201951	0.0	3.141592653589793	0.0	0.0	0.0
-1.0982518663123217	0.0	3.141592653589793	0.0	0.0	0.0
-1.1073275784226917	0.0	3.141592653589793	0.0	0.0	0.0
-1.1164032905330616	0.0	3.141592653589793	0.0	0.0	0.0
-1.1254790026434325	0.0	3.141592653589793	0.0	0.0	0.0
-1.1345547147538024	0.0	3.141592653589793	0.0	0.0	0.0
-1.1436304268641733	0.0	3.141592653589793	0.0	0.0	0.0
-1.1527061389745432	0.0	3.141592653589793	0.0	0.0	0.0
-1.161781851084914	0.0	3.141592653589793	0.0	0.0	0.0
-1.170857563195284	0.0	3.141592653589793	0.0	0.0	0.0
-1.179933275305654	0.0	3.141592653589793	0.0	0.0	0.0
-1.1890089874160248	0.0	3.141592653589793	0.0	0.0	0.0
-1.1980846995263947	0.0	3.141592653589793	0.0	0.0	0.0
-1.2071604116367656	0.0	3.141592653589793	0.0	0.0	0.0
-1.2162361237471355	0.0	3.141592653589793	0.0	0.0	0.0
-1.2253118358575055	0.0	3.141592653589793	0.0	0.0	0.0
-1.2343875479678763	0.0	3.141592653589793	0.0	0.0	0.0
-1.2434632600782463	0.0	3.141592653589793	0.0	0.0	0.0
-1.252538972188617	0.0	3.141592653589793	0.0	0.0	0.0
-1.261614684298987	0.0	3.141592653589793	0.0	0.0	0.0
-1.2706903964093579	0.0	3.141592653589793	0.0	0.0	0.0
-1.2797661085197278	0.0	3.141592653589793	0.0	0.0	0.0
-1.2888418206300978	0.0	3.141592653589793	0.0	0.0	0.0
-1.2979175327404686	0.0	3.141592653589793	0.0	0.0	0.0
-1.3069932448508386	0.0	3.141592653589793	0.0	0.0	0.0
-1.3160689569612094	0.0	3.141592653589793	0.0	0.0	0.0
-1.3251446690715794	0.0	3.141592653589793	0.0	0.0	0.0
-1.3342203811819493	0.0	3.141592653589793	0.0	0.0	0.0
-1.3432960932923201	0.0	3.141592653589793	0.0	0.0	0.0
-1.35237180540269	0.0	3.141592653589793	0.0	0.0	0.0
-1.361447517513061	0.0	3.141592653589793	0.0	0.0	0.0
-1.3705232296234309	0.0	3.141592653589793	0.0	0.0	0.0
-1.3795989417338017	0.0	3.141592653589793	0.0	0.0	0.0
-1.3886746538441717	0.0	3.141592653589793	0.0	0.0	0.0
-1.3977503659545416	0.0	3.141592653589793	0.0	0.0	0.0
-1.4068260780649124	0.0	3.141592653589793	0.0	0.0	0.0
-1.4159017901752824	0.0	3.141592653589793	0.0	0.0	0.0
-1.4249775022856532	0.0	3.141592653589793	0.0	0.0	0.0
-1.4340532143960232	0.0	3.141592653589793	0.0	0.0	0.0
-1.4431289265063931	0.0	3.141592653589793	0.0	0.0	0.0
-1.452204638616764	0.0	3.141592653589793	0.0	0.0	0.0
-1.461280350727134	0.0	3.141592653589793	0.0	0.0	0.0
-1.4703560628375048	0.0	3.141592653589793	0.0	0.0	0.0
-1.4794317749478747	0.0	3.141592653589793	0.0	0.0	0.0
-1.4885074870582455	0.0	3.141592653589793	0.0	0.0	0.0
-1.4975831991686155	0.0	3.141592653589793	0.0	0.0	0.0
-1.5066589112789854	0.0	3.141592653589793	0.0	0.0	0.0
-1.5157346233893563	0.0	3.141592653589793	0.0	0.0	0.0
-1.5248103354997262	0.0	3.141592653589793	0.0	0.0	0.0
-1.533886047610097	0.0	3.141592653589793	0.0	0.0	0.0
-1.542961759720467	0.0	3.141592653589793	0.0	0.0	0.0
-1.5520374718308378	0.0	3.141592653589793	0.0	0.0	0.0
-1.5611131839412078	0.0	3.141592653589793	0.0	0.0	0.0
-1.5701888960515777	0.0	3.141592653589793	0.0	0.0	0.0
-1.5792646081619486	0.0	3.141592653589793	0.0	0.0	0.0
-1.5883403202723185	0.0	3.141592653589793	0.0	0.0	0.0
-1.5974160323826894	0.0	3.141592653589793	0.0	0.0	0.0
-1.6064917444930593	0.0	3.141592653589793	0.0	0.0	0.0
-1.6155674566034293	0.0	3.141592653589793	0.0	0.0	0.0
-1.6246431687138	0.0	3.141592653589793	0.0	0.0	0.0
-1.63371888082417	0.0	3.141592653589793	0.0	0.0	0.0
-1.6427945929345409	0.0	3.141592653589793	0.0	0.0	0.0
-1.6518703050449108	0.0	3.141592653589793	0.0	0.0	0.0
-1.6609460171552817	0.0	3.141592653589793	0.0	0.0	0.0
-1.6700217292656516	0.0	3.141592653589793	0.0	0.0	0.0
-1.6790974413760216	0.0	3.141592653589793	0.0	0.0	0.0
-1.6881731534863924	0.0	3.141592653589793	0.0	0.0	0.0
-1.6972488655967624	0.0	3.141592653589793	0.0	0.0	0.0
-1.7063245777071332	0.0	3.141592653589793	0.0	0.0	0.0
-1.7154002898175031	0.0	3.141592653589793	0.0	0.0	0.0
-1.724476001927873	0.0	3.141592653589793	0.0	0.0	0.0
-1.733551714038244	0.0	3.141592653589793	0.0	0.0	0.0
-1.7426274261486139	0.0	3.141592653589793	0.0	0.0	0.0
-1.7517031382589847	0.0	3.141592653589793	0.0	0.0	0.0
-1.7607788503693547	0.0	3.141592653589793	0.0	0.0	0.0
-1.7698545624797255	0.0	3.141592653589793	0.0	0.0	0.0
-1.7789302745900955	0.0	3.141592653589793	0.0	0.0	0.0
-1.7880059867004654	0.0	3.141592653589793	0.0	0.0	0.0
-1.7970816988108362	0.0	3.141592653589793	0.0	0.0	0.0
-1.8061574109212062	0.0	3.141592653589793	0.0	0.0	0.0
-1.815233123031577	0.0	3.141592653589793	0.0	0.0	0.0
-1.824308835141947	0.0	3.141592653589793	0.0	0.0	0.0
-1.833384547252317	0.0	3.141592653589793	0.0	0.0	0.0
-1.8424602593626878	0.0	3.141592653589793	0.0	0.0	0.0
-1.8515359714730577	0.0	3.141592653589793	0.0	0.0	0.0
-1.8606116835834285	0.0	3.141592653589793	0.0	0.0	0.0
-1.8696873956937985	0.0	3.141592653589793	0.0	0.0	0.0
-1.8787631078041693	0.0	3.141592653589793	0.0	0.0	0.0
-1.8878388199145393	0.0	3.141592653589793	0.0	0.0	0.0
-1.8969145320249092	0.0	3.141592653589793	0.0	0.0	0.0
-1.90599024413528	0.0	3.141592653589793	0.0	0.0	0.0
-1.91506595624565	0.0	3.141592653589793	0.0	0.0	0.0
-1.9241416683560209	0.0	3.141592653589793	0.0	0.0	0.0
-1.9332173804663908	0.0	3.141592653589793	0.0	0.0	0.0
-1.9422930925767616	0.0	3.141592653589793	0.0	0.0	0.0
-1.9513688046871316	0.0	3.141592653589793	0.0	0.0	0.0
-1.9604445167975015	0.0	3.141592653589793	0.0	0.0	0.0
-1.9695202289078724	0.0	3.141592653589793	0.0	0.0	0.0
-1.9785959410182423	0.0	3.141592653589793	0.0	0.0	0.0
-1.9876716531286132	0.0	3.141592653589793	0.0	0.0	0.0
-1.996747365238983	0.0	3.141592653589793	0.0	0.0	0.0
-2.005823077349353	0.0	3.141592653589793	0.0	0.0	0.0
-2.014898789459724	0.0	3.141592653589793	0.0	0.0	0.0
-2.023974501570094	0.0	3.141592653589793	0.0	0.0	0.0
-2.0330502136804647	0.0	3.141592653589793	0.0	0.0	0.0
-2.0421259257908346	0.0	3.141592653589793	0.0	0.0	0.0
-2.0512016379012055	0.0	3.141592653589793	0.0	0.0	0.0
-2.0602773500115754	0.0	3.141592653589793	0.0	0.0	0.0
-2.0693530621219454	0.0	3.141592653589793	0.0	0.0	0.0
-2.078428774232316	0.0	3.141592653589793	0.0	0.0	0.0
-2.087504486342686	0.0	3.141592653589793	0.0	0.0	0.0
-2.096580198453057	0.0	3.141592653589793	0.0	0.0	0.0
-2.105655910563427	0.0	3.141592653589793	0.0	0.0	0.0
-2.114731622673797	0.0	3.141592653589793	0.0	0.0	0.0
-2.1238073347841677	0.0	3.141592653589793	0.0	0.0	0.0
-2.1328830468945377	0.0	3.141592653589793	0.0	0.0	0.0
-2.1419587590049085	0.0	3.141592653589793	0.0	0.0	0.0
-2.1510344711152785	0.0	3.141592653589793	0.0	0.0	0.0
-2.1601101832256493	0.0	3.141592653589793	0.0	0.0	0.0
-2.1691858953360192	0.0	3.141592653589793	0.0	0.0	0.0
-2.178261607446389	0.0	3.141592653589793	0.0	0.0	0.0
-2.18733731955676	0.0	3.141592653589793	0.0	0.0	0.0
-2.19641303166713	0.0	3.141592653589793	0.0	0.0	0.0
-2.205488743777501	0.0	3.141592653589793	0.0	0.0	0.0
-2.2145644558878708	0.0	3.141592653589793	0.0	0.0	0.0
-2.2236401679982407	0.0	3.141592653589793	0.0	0.0	0.0
-2.2327158801086116	0.0	3.141592653589793	0.0	0.0	0.0
-2.2417915922189815	0.0	3.141592653589793	0.0	0.0	0.0
-2.2508673043293523	0.0	3.141592653589793	0.0	0.0	0.0
-2.2599430164397223	0.0	3.141592653589793	0.0	0.0	0.0
-2.269018728550093	0.0	3.141592653589793	0.0	0.0	0.0
-2.278094440660463	0.0	3.141592653589793	0.0	0.0	0.0
-2.287170152770833	0.0	3.141592653589793	0.0	0.0	0.0
-2.296245864881204	0.0	3.141592653589793	0.0	0.0	0.0
-2.305321576991574	0.0	3.141592653589793	0.0	0.0	0.0
-2.3143972891019446	0.0	3.141592653589793	0.0	0.0	0.0
-2.3234730012123146	0.0	3.141592653589793	0.0	0.0	0.0
-2.3325487133226854	0.0	3.141592653589793	0.0	0.0	0.0
-2.3416244254330554	0.0	3.141592653589793	0.0	0.0	0.0
-2.3507001375434253	0.0	3.141592653589793	0.0	0.0	0.0
-2.359775849653796	0.0	3.141592653589793	0.0	0.0	0.0
-2.368851561764166	0.0	3.141592653589793	0.0	0.0	0.0
-2.377927273874537	0.0	3.141592653589793	0.0	0.0	0.0
-2.387002985984907	0.0	3.141592653589793	0.0	0.0	0.0
-2.396078698095277	0.0	3.141592653589793	0.0	0.0	0.0
-2.4051544102056477	0.0	3.141592653589793	0.0	0.0	0.0
-2.4142301223160176	0.0	3.141592653589793	0.0	0.0	0.0
-2.4233058344263885	0.0	3.141592653589793	0.0	0.0	0.0
-2.4323815465367584	0.0	3.141592653589793	0.0	0.0	0.0
-2.4414572586471293	0.0	3.141592653589793	0.0	0.0	0.0
-2.450532970757499	0.0	3.141592653589793	0.0	0.0	0.0
-2.459608682867869	0.0	3.141592653589793	0.0	0.0	0.0
-2.46868439497824	0.0	3.141592653589793	0.0	0.0	0.0
-2.47776010708861	0.0	3.141592653589793	0.0	0.0	0.0
-2.486835819198981	0.0	3.141592653589793	0.0	0.0	0.0
-2.4959115313093507	0.0	3.141592653589793	0.0	0.0	0.0
-2.5049872434197207	0.0	3.141592653589793	0.0	0.0	0.0
-2.5140629555300915	0.0	3.141592653589793	0.0	0.0	0.0
-2.5231386676404615	0.0	3.141592653589793	0.0	0.0	0.0
-2.5322143797508323	0.0	3.141592653589793	0.0	0.0	0.0
-2.5412900918612022	0.0	3.141592653589793	0.0	0.0	0.0
-2.550365803971573	0.0	3.141592653589793	0.0	0.0	0.0
-2.559441516081943	0.0	3.141592653589793	0.0	0.0	0.0
-2.568517228192313	0.0	3.141592653589793	0.0	0.0	0.0
-2.577592940302684	0.0	3.141592653589793	0.0	0.0	0.0
-2.5866686524130538	0.0	3.141592653589793	0.0	0.0	0.0
-2.5957443645234246	0.0	3.141592653589793	0.0	0.0	0.0
-2.6048200766337946	0.0	3.141592653589793	0.0	0.0	0.0
-2.6138957887441645	0.0	3.141592653589793	0.0	0.0	0.0
-2.6229715008545353	0.0	3.141592653589793	0.0	0.0	0.0
-2.6320472129649053	0.0	3.141592653589793	0.0	0.0	0.0
-2.641122925075276	0.0	3.141592653589793	0.0	0.0	0.0
-2.650198637185646	0.0	3.141592653589793	0.0	0.0	0.0
-2.659274349296017	0.0	3.141592653589793	0.0	0.0	0.0
-2.668350061406387	0.0	3.141592653589793	0.0	0.0	0.0
-2.677425773516757	0.0	3.141592653589793	0.0	0.0	0.0
-2.6865014856271276	0.0	3.141592653589793	0.0	0.0	0.0
-2.6955771977374976	0.0	3.141592653589793	0.0	0.0	0.0
-2.7046529098478684	0.0	3.141592653589793	0.0	0.0	0.0
-2.7137286219582384	0.0	3.141592653589793	0.0	0.0	0.0
-2.7228043340686083	0.0	3.141592653589793	0.0	0.0	0.0
-2.731880046178979	0.0	3.141592653589793	0.0	0.0	0.0
-2.740955758289349	0.0	3.141592653589793	0.0	0.0	0.0
-2.75003147039972	0.0	3.141592653589793	0.0	0.0	0.0
-2.75910718251009	0.0	3.141592653589793	0.0	0.0	0.0
-2.7681828946204607	0.0	3.141592653589793	0.0	0.0	0.0
-2.7772586067308307	0.0	3.141592653589793	0.0	0.0	0.0
-2.7863343188412006	0.0	3.141592653589793	0.0	0.0	0.0
-2.7954100309515715	0.0	3.141592653589793	0.0	0.0	0.0
-2.8044857430619414	0.0	3.141592653589793	0.0	0.0	0.0
-2.8135614551723123	0.0	3.141592653589793	0.0	0.0	0.0
-2.822637167282682	0.0	3.141592653589793	0.0	0.0	0.0
-2.831712879393053	0.0	3.141592653589793	0.0	0.0	0.0
-2.840788591503423	0.0	3.141592653589793	0.0	0.0	0.0
-2.849864303613793	0.0	3.141592653589793	0.0	0.0	0.0
-2.858940015724164	0.0	3.141592653589793	0.0	0.0	0.0
-2.8680157278345337	0.0	3.141592653589793	0.0	0.0	0.0
-2.8770914399449046	0.0	3.141592653589793	0.0	0.0	0.0
-2.8861671520552745	0.0	3.141592653589793	0.0	0.0	0.0
-2.8952428641656445	0.0	3.141592653589793	0.0	0.0	0.0
-2.9043185762760153	0.0	3.141592653589793	0.0	0.0	0.0
-2.9133942883863853	0.0	3.141592653589793	0.0	0.0	0.0
-2.922470000496756	0.0	3.141592653589793	0.0	0.0	0.0
-2.931545712607126	0.0	3.141592653589793	0.0	0.0	0.0
-2.940621424717497	0.0	3.141592653589793	0.0	0.0	0.0
-2.949697136827867	0.0	3.141592653589793	0.0	0.0	0.0
-2.9587728489382368	0.0	3.141592653589793	0.0	0.0	0.0
-2.9678485610486076	0.0	3.141592653589793	0.0	0.0	0.0
-2.9769242731589776	0.0	3.141592653589793	0.0	0.0	0.0
-2.9859999852693484	0.0	3.141592653589793	0.0	0.0	0.0
-2.9950756973797183	0.0	3.141592653589793	0.0	0.0	0.0
-3.0041514094900883	0.0	3.141592653589793	0.0	0.0	0.0
-3.0128220920146704	0.0	3.141592653589793	0.0	0.0	0.0
-3.0199593425865956	0.0	3.141592653589793	0.0	0.0	0.0
-3.025496593158521	0.0	3.141592653589793	0.0	0.0	0.0
-3.029433843730446	0.0	3.141592653589793	0.0	0.0	0.0
-3.0317710943023712	0.0	3.141592653589793	0.0	0.0	0.0
-3.0325095753401476	0.0	3.141592653589793	0.0	0.0	0.0
-3.0325095753401476	0.0	3.141592653589793	0.0	0.0	0.0
-3.0317095753401477	0.0	3.141592653589793	0.0	0.0	0.0
-3.0293095753401476	0.0	3.141592653589793	0.0	0.0	0.0
-3.0253095753401475	0.0	3.141592653589793	0.0	0.0	0.0
-3.0197095753401477	0.0	3.141592653589793	0.0	0.0	0.0
-3.0125095753401476	0.0	3.141592653589793	0.0	0.0	0.0
-3.0037095753401477	0.0	3.141592653589793	0.0	0.0	0.0
-2.9933095753401475	0.0	3.141592653589793	0.0	0.0	0.0
-2.9813095753401475	0.0	3.141592653589793	0.0	0.0	0.0
-2.9677095753401477	0.0	3.141592653589793	0.0	0.0	0.0
-2.9525095753401476	0.0	3.141592653589793	0.0	0.0	0.0
-2.9357095753401476	0.0	3.141592653589793	0.0	0.0	0.0
-2.917653172579163	0.0	3.141592653589793	0.0	0.0	0.0
-2.899501748358422	0.0	3.141592653589793	0.0	0.0	0.0
-2.8813503241376806	0.0	3.141592653589793	0.0	0.0	0.0
-2.8631988999169398	0.0	3.141592653589793	0.0	0.0	0.0
-2.8450474756961985	0.0	3.141592653589793	0.0	0.0	0.0
-2.8268960514754577	0.0	3.141592653589793	0.0	0.0	0.0
-2.8087446272547165	0.0	3.141592653589793	0.0	0.0	0.0
-2.7905932030339757	0.0	3.141592653589793	0.0	0.0	0.0
-2.7724417788132345	0.0	3.141592653589793	0.0	0.0	0.0
-2.7542903545924933	0.0	3.141592653589793	0.0	0.0	0.0
-2.7361389303717525	0.0	3.141592653589793	0.0	0.0	0.0
-2.7179875061510113	0.0	3.141592653589793	0.0	0.0	0.0
-2.6998360819302705	0.0	3.141592653589793	0.0	0.0	0.0
-2.6816846577095292	0.0	3.141592653589793	0.0	0.0	0.0
-2.6635332334887885	0.0	3.141592653589793	0.0	0.0	0.0
-2.6453818092680472	0.0	3.141592653589793	0.0	0.0	0.0
-2.627230385047306	0.0	3.141592653589793	0.0	0.0	0.0
-2.609078960826565	0.0	3.141592653589793	0.0	0.0	0.0
-2.590927536605824	0.0	3.141592653589793	0.0	0.0	0.0
-2.572776112385083	0.0	3.141592653589793	0.0	0.0	0.0
-2.554624688164342	0.0	3.141592653589793	0.0	0.0	0.0
-2.536473263943601	0.0	3.141592653589793	0.0	0.0	0.0
-2.51832183972286	0.0	3.141592653589793	0.0	0.0	0.0
-2.5001704155021187	0.0	3.141592653589793	0.0	0.0	0.0
-2.482018991281378	0.0	3.141592653589793	0.0	0.0	0.0
-2.4638675670606367	0.0	3.141592653589793	0.0	0.0	0.0
-2.445716142839896	0.0	3.141592653589793	0.0	0.0	0.0
-2.4275647186191547	0.0	3.141592653589793	0.0	0.0	0.0
-2.409413294398414	0.0	3.141592653589793	0.0	0.0	0.0
-2.3912618701776727	0.0	3.141592653589793	0.0	0.0	0.0
-2.3731104459569314	0.0	3.141592653589793	0.0	0.0	0.0
-2.3549590217361906	0.0	3.141592653589793	0.0	0.0	0.0
-2.3368075975154494	0.0	3.141592653589793	0.0	0.0	0.0
-2.3186561732947086	0.0	3.141592653589793	0.0	0.0	0.0
-2.3005047490739674	0.0	3.141592653589793	0.0	0.0	0.0
-2.2823533248532266	0.0	3.141592653589793	0.0	0.0	0.0
-2.2642019006324854	0.0	3.141592653589793	0.0	0.0	0.0
-2.246050476411744	0.0	3.141592653589793	0.0	0.0	0.0
-2.2278990521910034	0.0	3.141592653589793	0.0	0.0	0.0
-2.2097476279702626	0.0	3.141592653589793	0.0	0.0	0.0
-2.1915962037495214	0.0	3.141592653589793	0.0	0.0	0.0
-2.17344477952878	0.0	3.141592653589793	0.0	0.0	0.0
-2.1552933553080393	0.0	3.141592653589793	0.0	0.0	0.0
-2.137141931087298	0.0	3.141592653589793	0.0	0.0	0.0
-2.118990506866557	0.0	3.141592653589793	0.0	0.0	0.0
-2.100839082645816	0.0	3.141592653589793	0.0	0.0	0.0
-2.0826876584250753	0.0	3.141592653589793	0.0	0.0	0.0
-2.064536234204334	0.0	3.141592653589793	0.0	0.0	0.0
-2.046384809983593	0.0	3.141592653589793	0.0	0.0	0.0
-2.028233385762852	0.0	3.141592653589793	0.0	0.0	0.0
-2.010081961542111	0.0	3.141592653589793	0.0	0.0	0.0
-1.9919305373213698	0.0	3.141592653589793	0.0	0.0	0.0
-1.9737791131006288	0.0	3.141592653589793	0.0	0.0	0.0
-1.9556276888798878	0.0	3.141592653589793	0.0	0.0	0.0
-1.9374762646591466	0.0	3.141592653589793	0.0	0.0	0.0
-1.9193248404384056	0.0	3.141592653589793	0.0	0.0	0.0
-1.9011734162176646	0.0	3.141592653589793	0.0	0.0	0.0
-1.8830219919969235	0.0	3.141592653589793	0.0	0.0	0.0
-1.8648705677761825	0.0	3.141592653589793	0.0	0.0	0.0
-1.8467191435554415	0.0	3.141592653589793	0.0	0.0	0.0
-1.8285677193347003	0.0	3.141592653589793	0.0	0.0	0.0
-1.8104162951139593	0.0	3.141592653589793	0.0	0.0	0.0
-1.7922648708932183	0.0	3.141592653589793	0.0	0.0	0.0
-1.7741134466724773	0.0	3.141592653589793	0.0	0.0	0.0
-1.7559620224517363	0.0	3.141592653589793	0.0	0.0	0.0
-1.7378105982309953	0.0	3.141592653589793	0.0	0.0	0.0
-1.7196591740102543	0.0	3.141592653589793	0.0	0.0	0.0
-1.701507749789513	0.0	3.141592653589793	0.0	0.0	0.0
-1.683356325568772	0.0	3.141592653589793	0.0	0.0	0.0
-1.665204901348031	0.0	3.141592653589793	0.0	0.0	0.0
-1.64705347712729	0.0	3.141592653589793	0.0	0.0	0.0
-1.628902052906549	0.0	3.141592653589793	0.0	0.0	0.0
-1.610750628685808	0.0	3.141592653589793	0.0	0.0	0.0
-1.5925992044650668	0.0	3.141592653589793	0.0	0.0	0.0
-1.5744477802443257	0.0	3.141592653589793	0.0	0.0	0.0
-1.5562963560235847	0.0	3.141592653589793	0.0	0.0	0.0
-1.5381449318028437	0.0	3.141592653589793	0.0	0.0	0.0
-1.5199935075821027	0.0	3.141592653589793	0.0	0.0	0.0
-1.5018420833613617	0.0	3.141592653589793	0.0	0.0	0.0
-1.4836906591406205	0.0	3.141592653589793	0.0	0.0	0.0
-1.4655392349198795	0.0	3.141592653589793	0.0	0.0	0.0
-1.4473878106991385	0.0	3.141592653589793	0.0	0.0	0.0
-1.4292363864783975	0.0	3.141592653589793	0.0	0.0	0.0
-1.4110849622576564	0.0	3.141592653589793	0.0	0.0	0.0
-1.3929335380369154	0.0	3.141592653589793	0.0	0.0	0.0
-1.3747821138161742	0.0	3.141592653589793	0.0	0.0	0.0
-1.3566306895954332	0.0	3.141592653589793	0.0	0.0	0.0
-1.3384792653746922	0.0	3.141592653589793	0.0	0.0	0.0
-1.3203278411539512	0.0	3.141592653589793	0.0	0.0	0.0
-1.3021764169332102	0.0	3.141592653589793	0.0	0.0	0.0
-1.2840249927124692	0.0	3.141592653589793	0.0	0.0	0.0
-1.265873568491728	0.0	3.141592653589793	0.0	0.0	0.0
-1.247722144270987	0.0	3.141592653589793	0.0	0.0	0.0
-1.229570720050246	0.0	3.141592653589793	0.0	0.0	0.0
-1.211419295829505	0.0	3.141592653589793	0.0	0.0	0.0
-1.193267871608764	0.0	3.141592653589793	0.0	0.0	0.0
-1.175116447388023	0.0	3.141592653589793	0.0	0.0	0.0
-1.1569650231672817	0.0	3.141592653589793	0.0	0.0	0.0
-1.1388135989465407	0.0	3.141592653589793	0.0	0.0	0.0
-1.1206621747257997	0.0	3.141592653589793	0.0	0.0	0.0
-1.1025107505050586	0.0	3.141592653589793	0.0	0.0	0.0
-1.0843593262843176	0.0	3.141592653589793	0.0	0.0	0.0
-1.0662079020635766	0.0	3.141592653589793	0.0	0.0	0.0
-1.0480564778428354	0.0	3.141592653589793	0.0	0.0	0.0
-1.0299050536220946	0.0	3.141592653589793	0.0	0.0	0.0
-1.0117536294013534	0.0	3.141592653589793	0.0	0.0	0.0
-0.9936022051806126	0.0	3.141592653589793	0.0	0.0	0.0
-0.9754507809598714	0.0	3.141592653589793	0.0	0.0	0.0
-0.9572993567391301	0.0	3.141592653589793	0.0	0.0	0.0
-0.9391479325183894	0.0	3.141592653589793	0.0	0.0	0.0
-0.9209965082976481	0.0	3.141592653589793	0.0	0.0	0.0
-0.9028450840769073	0.0	3.141592653589793	0.0	0.0	0.0
-0.8846936598561661	0.0	3.141592653589793	0.0	0.0	0.0
-0.8665422356354249	0.0	3.141592653589793	0.0	0.0	0.0
-0.8483908114146841	0.0	3.141592653589793	0.0	0.0	0.0
-0.8302393871939429	0.0	3.141592653589793	0.0	0.0	0.0
-0.8120879629732021	0.0	3.141592653589793	0.0	0.0	0.0
-0.7939365387524608	0.0	3.141592653589793	0.0	0.0	0.0
-0.77578511453172	0.0	3.141592653589793	0.0	0.0	0.0
-0.7576336903109788	0.0	3.141592653589793	0.0	0.0	0.0
-0.7394822660902376	0.0	3.141592653589793	0.0	0.0	0.0
-0.7213308418694968	0.0	3.141592653589793	0.0	0.0	0.0
-0.7031794176487556	0.0	3.141592653589793	0.0	0.0	0.0
-0.6850279934280148	0.0	3.141592653589793	0.0	0.0	0.0
-0.6668765692072736	0.0	3.141592653589793	0.0	0.0	0.0
-0.6487251449865323	0.0	3.141592653589793	0.0	0.0	0.0
-0.6305737207657915	0.0	3.141592653589793	0.0	0.0	0.0
-0.6124222965450503	0.0	3.141592653589793	0.0	0.0	0.0
-0.5942708723243095	0.0	3.141592653589793	0.0	0.0	0.0
-0.5761194481035683	0.0	3.141592653589793	0.0	0.0	0.0
-0.5579680238828275	0.0	3.141592653589793	0.0	0.0	0.0
-0.5398165996620863	0.0	3.141592653589793	0.0	0.0	0.0
-0.521665175441345	0.0	3.141592653589793	0.0	0.0	0.0
-0.5035137512206043	0.0	3.141592653589793	0.0	0.0	0.0
-0.48536232699986304	0.0	3.141592653589793	0.0	0.0	0.0
-0.46721090277912225	0.0	3.141592653589793	0.0	0.0	0.0
-0.449059478558381	0.0	3.141592653589793	0.0	0.0	0.0
-0.4309080543376398	0.0	3.141592653589793	0.0	0.0	0.0
-0.412756630116899	0.0	3.141592653589793	0.0	0.0	0.0
-0.3946052058961578	0.0	3.141592653589793	0.0	0.0	0.0
-0.376453781675417	0.0	3.141592653589793	0.0	0.0	0.0
-0.35830235745467576	0.0	3.141592653589793	0.0	0.0	0.0
-0.34015093323393497	0.0	3.141592653589793	0.0	0.0	0.0
-0.32199950901319374	0.0	3.141592653589793	0.0	0.0	0.0
-0.3038480847924525	0.0	3.141592653589793	0.0	0.0	0.0
-0.2856966605717117	0.0	3.141592653589793	0.0	0.0	0.0
-0.2675452363509705	0.0	3.141592653589793	0.0	0.0	0.0
-0.2493938121302297	0.0	3.141592653589793	0.0	0.0	0.0
-0.23124238790948848	0.0	3.141592653589793	0.0	0.0	0.0
-0.2130909636887477	0.0	3.141592653589793	0.0	0.0	0.0
-0.19493953946800646	0.0	3.141592653589793	0.0	0.0	0.0
-0.17678811524726523	0.0	3.141592653589793	0.0	0.0	0.0
-0.15863669102652445	0.0	3.141592653589793	0.0	0.0	0.0
-0.14048526680578322	0.0	3.141592653589793	0.0	0.0	0.0
-0.12233384258504243	0.0	3.141592653589793	0.0	0.0	0.0
-0.1041824183643012	0.0	3.141592653589793	0.0	0.0	0.0
-0.08603099414355997	0.0	3.141592653589793	0.0	0.0	0.0
-0.06787956992281918	0.0	3.141592653589793	0.0	0.0	0.0
-0.04972814570207795	0.0	3.141592653589793	0.0	0.0	0.0
-0.03157672148133717	0.0	3.141592653589793	0.0	0.0	0.0
-0.013425297260595936	0.0	3.141592653589793	0.0	0.0	0.0
0.00472612696014485	0.0	3.141592653589793	0.0	0.0	0.0
0.02287755118088608	0.0	3.141592653589793	0.0	0.0	0.0
0.04102897540162731	0.0	3.141592653589793	0.0	0.0	0.0
0.059180399622368096	0.0	3.141592653589793	0.0	0.0	0.0
0.07733182384310933	0.0	3.141592653589793	0.0	0.0	0.0
0.09548324806385011	0.0	3.141592653589793	0.0	0.0	0.0
0.11363467228459134	0.0	3.141592653589793	0.0	0.0	0.0
0.13178609650533257	0.0	3.141592653589793	0.0	0.0	0.0
0.14993752072607336	0.0	3.141592653589793	0.0	0.0	0.0
0.1680889449468146	0.0	3.141592653589793	0.0	0.0	0.0
0.18624036916755538	0.0	3.141592653589793	0.0	0.0	0.0
0.2043917933882966	0.0	3.141592653589793	0.0	0.0	0.0
0.2225432176090374	0.0	3.141592653589793	0.0	0.0	0.0
0.24069464182977862	0.0	3.141592653589793	0.0	0.0	0.0
0.25884606605051985	0.0	3.141592653589793	0.0	0.0	0.0
0.27699749027126064	0.0	3.141592653589793	0.0	0.0	0.0
0.29514891449200187	0.0	3.141592653589793	0.0	0.0	0.0
0.31330033871274265	0.0	3.141592653589793	0.0	0.0	0.0
0.3314517629334839	0.0	3.141592653589793	0.0	0.0	0.0
0.3496031871542251	0.0	3.141592653589793	0.0	0.0	0.0
0.3677546113749659	0.0	3.141592653589793	0.0	0.0	0.0
0.38590603559570713	0.0	3.141592653589793	0.0	0.0	0.0
0.4040574598164479	0.0	3.141592653589793	0.0	0.0	0.0
0.42220888403718915	0.0	3.141592653589793	0.0	0.0	0.0
0.44036030825792993	0.0	3.141592653589793	0.0	0.0	0.0
0.45851173247867116	0.0	3.141592653589793	0.0	0.0	0.0
0.4766631566994124	0.0	3.141592653589793	0.0	0.0	0.0
0.49481458092015274	0.0	3.141592653589793	0.0	0.0	0.0
0.5129660051408935	0.0	3.141592653589793	0.0	0.0	0.0
0.5311174293616343	0.0	3.141592653589793	0.0	0.0	0.0
0.5492688535823746	0.0	3.141592653589793	0.0	0.0	0.0
0.5674202778031154	0.0	3.141592653589793	0.0	0.0	0.0
0.5855717020238562	0.0	3.141592653589793	0.0	0.0	0.0
0.6037231262445966	0.0	3.141592653589793	0.0	0.0	0.0
0.6218745504653374	0.0	3.141592653589793	0.0	0.0	0.0
0.6400259746860781	0.0	3.141592653589793	0.0	0.0	0.0
0.6581773989068185	0.0	3.141592653589793	0.0	0.0	0.0
0.6763288231275593	0.0	3.141592653589793	0.0	0.0	0.0
0.6944802473483	0.0	3.141592653589793	0.0	0.0	0.0
0.7126316715690404	0.0	3.141592653589793	0.0	0.0	0.0
0.7307830957897812	0.0	3.141592653589793	0.0	0.0	0.0
0.748934520010522	0.0	3.141592653589793	0.0	0.0	0.0
0.7670859442312623	0.0	3.141592653589793	0.0	0.0	0.0
0.7852373684520031	0.0	3.141592653589793	0.0	0.0	0.0
0.8033887926727439	0.0	3.141592653589793	0.0	0.0	0.0
0.8215402168934842	0.0	3.141592653589793	0.0	0.0	0.0
0.839691641114225	0.0	3.141592653589793	0.0	0.0	0.0
0.8578430653349658	0.0	3.141592653589793	0.0	0.0	0.0
0.8759944895557061	0.0	3.141592653589793	0.0	0.0	0.0
0.8941459137764469	0.0	3.141592653589793	0.0	0.0	0.0
0.9122973379971877	0.0	3.141592653589793	0.0	0.0	0.0
0.930448762217928	0.0	3.141592653589793	0.0	0.0	0.0
0.9486001864386688	0.0	3.141592653589793	0.0	0.0	0.0
0.9667516106594096	0.0	3.141592653589793	0.0	0.0	0.0
0.98490303488015	0.0	3.141592653589793	0.0	0.0	0.0
1.0030544591008907	0.0	3.141592653589793	0.0	0.0	0.0
1.0212058833216315	0.0	3.141592653589793	0.0	0.0	0.0
1.0393573075423723	0.0	3.141592653589793	0.0	0.0	0.0
1.057508731763113	0.0	3.141592653589793	0.0	0.0	0.0
1.075660155983853	0.0	3.141592653589793	0.0	0.0	0.0
1.0938115802045938	0.0	3.141592653589793	0.0	0.0	0.0
1.1119630044253346	0.0	3.141592653589793	0.0	0.0	0.0
1.1301144286460754	0.0	3.141592653589793	0.0	0.0	0.0
1.1482658528668162	0.0	3.141592653589793	0.0	0.0	0.0
1.166417277087557	0.0	3.141592653589793	0.0	0.0	0.0
1.1845687013082968	0.0	3.141592653589793	0.0	0.0	0.0
1.2027201255290376	0.0	3.141592653589793	0.0	0.0	0.0
1.2208715497497784	0.0	3.141592653589793	0.0	0.0	0.0
1.2390229739705192	0.0	3.141592653589793	0.0	0.0	0.0
1.25717439819126	0.0	3.141592653589793	0.0	0.0	0.0
1.2753258224120008	0.0	3.141592653589793	0.0	0.0	0.0
1.2934772466327407	0.0	3.141592653589793	0.0	0.0	0.0
1.3116286708534814	0.0	3.141592653589793	0.0	0.0	0.0
1.3297800950742222	0.0	3.141592653589793	0.0	0.0	0.0
1.347931519294963	0.0	3.141592653589793	0.0	0.0	0.0
1.3660829435157038	0.0	3.141592653589793	0.0	0.0	0.0
1.3842343677364446	0.0	3.141592653589793	0.0	0.0	0.0
1.4023857919571845	0.0	3.141592653589793	0.0	0.0	0.0
1.4205372161779253	0.0	3.141592653589793	0.0	0.0	0.0
1.438688640398666	0.0	3.141592653589793	0.0	0.0	0.0
1.4568400646194068	0.0	3.141592653589793	0.0	0.0	0.0
1.4749914888401476	0.0	3.141592653589793	0.0	0.0	0.0
1.4931429130608884	0.0	3.141592653589793	0.0	0.0	0.0
1.5112943372816283	0.0	3.141592653589793	0.0	0.0	0.0
