corentinberge/project_M2/hc10_ros/scripts/data_torque.txt
q1 q2 q3 q4 q5 q6 t1 t2 t3 t4 t5 t6 
-0.958991015431	-0.308920880015	1.67954236657	0.053177282593	-1.98971556085	0.959368386272	-2.55751300317	-0.777806697992	1.09628283482	-1.1793121076	0.112426258405	1.73975586485
-0.955631349798	-0.308820015331	1.67946770197	0.0533662226155	-1.98967151788	0.959660200427	-0.946473030837	-0.535208354855	1.41135203406	-0.169303361251	0.00209893534882	-0.149724850453
-0.95271027688	-0.308770081456	1.67942250371	0.0532983995993	-1.98968844305	0.959699896019	-1.05671087653	-0.531163546712	1.40394965886	-0.183180090841	-0.00352283379756	-0.162310547521
-0.949512661011	-0.30872786091	1.67940604832	0.0533028821666	-1.98969956	0.959675295395	-1.31855426105	-0.534141488079	1.40316034368	-0.224132379967	-0.0140747685435	-0.191449031781
-0.945518851136	-0.308680338456	1.67938993663	0.0533548061598	-1.98970167646	0.959656987932	-1.56477775	-0.528981134647	1.41529018188	-0.18472290253	-0.0153286163437	-0.232938034257
-0.941528263964	-0.30865282403	1.6794002378	0.0533771650638	-1.98972087328	0.959536114524	-2.15065657158	-0.564017869423	1.3843951776	-0.400475477415	-0.031750001672	-0.224727391636
-0.936642915168	-0.308610599263	1.67940981192	0.0534769788098	-1.98972689564	0.959422225915	-2.7136086751	-0.586998266109	1.37563491588	-0.492885972095	-0.0346064025876	-0.22445069201
-0.93305207189	-0.308711989713	1.67930326835	0.0530049130028	-1.98970586709	0.959985164483	-1.20724600128	-0.470036389868	1.39629515796	-0.0143335680066	0.00976361949512	-0.201534540809
-0.928246696615	-0.308683599323	1.67937617533	0.0532456926895	-1.98970936084	0.959719015194	-2.07411284355	-0.50947369438	1.41255268291	-0.20472322182	-0.0342251056604	-0.301761485445
-0.922118089762	-0.308625830518	1.67941004012	0.0534850528281	-1.98970717463	0.959523408077	-2.81309722936	-0.535609882794	1.43090676367	-0.25748215571	-0.0474721325793	-0.38712663496
-0.913654545027	-0.308529685894	1.67936717429	0.0536444531279	-1.98969117267	0.959547733987	-3.03907360629	-0.507907808341	1.4787776591	0.0222339836211	-0.0214076930715	-0.468540188526
-0.904208485503	-0.308451619429	1.67931048481	0.0536314322558	-1.98969767024	0.959606081154	-3.28055894895	-0.492312951837	1.49024051698	0.125308944141	-0.0140442689715	-0.514618357646
-0.887342750222	-0.308052327257	1.67934494817	0.0546398904943	-1.9896923744	0.958927051493	-5.8290611901	-0.563698337788	1.61902948596	0.200133185743	-0.0541677137112	-0.889536203212
-0.874254979005	-0.308021945334	1.67921753766	0.05411459762	-1.98974835144	0.959186523011	-5.84896360516	-0.559455947317	1.52909864887	-0.0232398134975	-0.0613860479708	-0.808535453878
-0.856317704354	-0.307699277654	1.67939837203	0.0550728210147	-1.98981904572	0.957947924068	-10.3099123011	-0.837684947106	1.44426417581	-1.20132289675	-0.148456720968	-0.766539127564
-0.842634803766	-0.30796670738	1.6789413697	0.0533796729344	-1.98973385744	0.960076964186	-4.57194935361	-0.386430911509	1.54308584175	0.733646217838	0.0374646134324	-0.761780447797
-0.837691333296	-0.308493576984	1.6789039776	0.0518381734445	-1.98977564746	0.960968550181	-2.12451092599	-0.300998388431	1.35710327187	0.338462187932	0.0137388917565	-0.366175826521
-0.826813371834	-0.308546631677	1.67914247769	0.0525504453388	-1.98972185108	0.960402974554	-3.54902440606	-0.359251427763	1.43517599326	0.213351255548	-0.0315434539619	-0.561749999682
-0.813125501497	-0.308515688935	1.67922200622	0.0530174983754	-1.98968192707	0.960153067506	-4.36009297065	-0.378143232807	1.49401807098	0.374020611346	-0.0197148179252	-0.695496104876
-0.798713604807	-0.308463060325	1.67927911022	0.0533335577129	-1.98967368122	0.959907545476	-5.27581850839	-0.412575652427	1.5289290197	0.332270542916	-0.0440962485197	-0.82171887684
-0.78516846948	-0.308434662998	1.67938796361	0.0535757260953	-1.98970987624	0.959437470837	-6.87447750214	-0.526438055464	1.48634306253	-0.273114525835	-0.121782069705	-0.904161660169
-0.769546725125	-0.308344124565	1.6794295924	0.0538945793931	-1.98971028748	0.959155604332	-7.96701618158	-0.579532727682	1.49861138204	-0.392599615832	-0.13138458572	-0.980337962854
-0.758772898329	-0.30861146012	1.67924625796	0.0526825174291	-1.98973465889	0.959786899439	177.884624507	-0.31080265118	1.4460970073	0.575231352637	0.0232194545518	-0.598123380193
-0.736086765156	-0.308105077622	1.67951154778	0.054670095755	-1.98969774764	0.958590930963	-10.0764362144	-0.653919815353	1.59773092256	-0.423715937525	-0.174854159394	-1.27127080339
-0.71778534627	-0.308063485737	1.67938319934	0.0541208209923	-1.98977529199	0.958607301772	-11.3081332459	-0.833771855352	1.25446848912	-1.30942675562	-0.0148859638978	-0.0946890284295
-0.694711165597	-0.307833855875	1.67929540714	0.0545307989022	-1.98970937172	0.958910703114	-10.2450499197	-0.589014336116	1.64862305779	0.0339028956729	-0.139928595759	-1.4051755024
-0.669980987354	-0.307692150521	1.6790594306	0.0541810163587	-1.98968073301	0.959567099277	-9.05840704648	-0.444716427138	1.71571388992	0.8652230528	-0.0480966077519	-1.41827863849
-0.649215189524	-0.307733641932	1.67904232156	0.0537011592056	-1.98974861446	0.95960075801	-9.53454561038	-0.488280978209	1.61072915605	0.249665271744	-0.122022513035	-1.36408275718
-0.624106674698	-0.307684490614	1.67888575502	0.0534637573765	-1.9896944495	0.960175034706	-8.38361768707	-0.351633967035	1.67744772777	1.06558356025	-0.0148471061792	-1.34542685473
-0.59707287328	-0.307443363669	1.67911582782	0.0540726913852	-1.98984665754	0.958337568438	-17.7250861516	-1.31821498171	0.663587470464	-2.32431108825	0.420230466832	5.33757600532
-0.576068442408	-0.307815688285	1.67873261848	0.0525210781588	-1.98970822599	0.960909099531	-7.24925180731	-0.251271229053	1.59918900872	1.19627757249	0.020635836323	-1.19340997369
-0.558250905015	-0.308025408687	1.67901625316	0.0526280650694	-1.98975768979	0.960255140519	-9.02363334903	-0.404443507779	1.51454261428	0.0329156047646	-0.156075835559	-1.26296172218
-0.534770060732	-0.30803051257	1.67904031925	0.0530313415751	-1.98966232538	0.960360445199	-8.66787203743	-0.32511130399	1.63906032682	0.815809099006	-0.0652560919606	-1.35834120004
-0.510740968373	-0.307876639571	1.67935251164	0.0538332318948	-1.98979663471	0.958328269729	-20.9525296837	-1.63760531226	0.233721858807	-3.97482852231	0.667423640761	10.6882480477
-0.486954052082	-0.30806556085	1.67894733776	0.0527783767035	-1.98963092655	0.960755123445	-8.02999462769	-0.264483833723	1.64226997235	1.24627873547	0.0115081351847	-1.31192779087
-0.459718298247	-0.307818047346	1.67923126004	0.0535530195266	-1.98979156422	0.958690681735	-17.9130517652	-1.29433673003	0.603762473773	-2.38752210863	0.433079744842	5.57895515763
-0.438991186835	-0.308184994588	1.67887014495	0.0521247324673	-1.98965134206	0.961193540079	-7.27656194164	-0.218509289418	1.58217820654	1.19742293689	0.015367178858	-1.19713430028
-0.42199456405	-0.308383105568	1.67918355083	0.0523221681817	-1.98971767639	0.960361650077	-9.38709468241	-0.421202600014	1.46982178622	-0.201788903908	-0.176537641097	-1.23919311973
-0.401183017861	-0.308392632032	1.67931771438	0.0529656723426	-1.98965289217	0.960050124149	-9.9139464034	-0.429064227366	1.57349888657	0.0853700089587	-0.162008013239	-1.39733955541
-0.38083443713	-0.308416391275	1.6793888802	0.0531285272359	-1.98966760327	0.959762964246	-10.7158159985	-0.513723484374	1.51838846586	-0.276076800155	-0.171702542319	-1.34142818309
-0.358711523408	-0.308362328717	1.679386472	0.0533587080557	-1.98964194256	0.959746186446	-10.6854380886	-0.489894416216	1.59050464493	0.0255541784865	-0.160541041015	-1.45442057681
-0.343244396536	-0.308644610569	1.67933466646	0.0522043478901	-1.98975446513	0.959620898432	-14.4084430548	-1.17169288519	0.487327290516	-2.43346378045	0.439024745369	5.76155145608
-0.318294473185	-0.308325352751	1.67949215236	0.053767406158	-1.9896445735	0.959321575086	-11.7170601236	-0.573878083084	1.59929060189	-0.258183565934	-0.190473333442	-1.49837623282
-0.302349845413	-0.308629253445	1.67926863077	0.0521995981994	-1.9897237338	0.95983705041	-16.0415441063	-1.37690328454	0.215645404764	-3.15189859897	0.733662237358	10.3024153547
-0.276209985953	-0.308240967296	1.67943729403	0.0538488345778	-1.98963511421	0.959401389554	-11.436659243	-0.542288877309	1.65510851851	0.0253255545892	-0.177532803314	-1.57300211537
-0.258008562484	-0.30839546871	1.6793292697	0.0528294231124	-1.98974721519	0.95945924237	-12.6508182036	-0.841987299285	1.05850314793	-1.5525899881	0.0782139990953	0.802176322039
-0.243820726247	-0.30879926038	1.67905014747	0.0514902122948	-1.98963352913	0.961488667013	-5.31653694966	-0.221623011013	1.48542751211	0.872145253189	0.0132197902741	-0.881116287742
-0.230855975283	-0.308908204642	1.67937946377	0.0520471293484	-1.98967674073	0.960497576828	-7.60447501416	-0.428476869415	1.42454633533	-0.339419921489	-0.160605666607	-0.985967029136
-0.218553000761	-0.309027715574	1.6795491862	0.0522088421287	-1.98972060408	0.959731045693	-10.3971066507	-0.805786094481	0.977577716564	-1.89063902044	0.0388755236477	1.01691688898
-0.196296702148	-0.308713874854	1.67949280113	0.0533891881447	-1.98955583921	0.96000248015	-8.22234865476	-0.415926487744	1.65446029628	0.571518093314	-0.0759923911019	-1.26980521886
-0.184492711977	-0.308942688895	1.67941621976	0.0521328955631	-1.9897180495	0.959848656398	-11.4969501743	-1.03342394383	0.648885934173	-1.98624441772	0.362654678901	4.65808445888
-0.168682687021	-0.308845063238	1.67953991241	0.0527560829031	-1.98970865318	0.959411502551	-11.3148723289	-0.917602105808	0.9379760368	-1.80380794722	0.151506233967	2.03662047985
-0.152594322094	-0.308786487696	1.67951913565	0.0529035647992	-1.98970087218	0.959396094089	-11.148852172	-0.897291849973	0.981688457683	-1.61342391237	0.158654933203	1.88378393983
-0.139993401244	-0.309007423724	1.67924668202	0.0519524682031	-1.98961029974	0.961070753081	-4.60035393934	-0.293720610004	1.48493078296	0.676929535241	0.0118150712506	-0.759273138814
-0.130226783305	-0.309089533283	1.67947849187	0.052176384902	-1.98968411011	0.960270311216	-6.58598417272	-0.505360769284	1.34728264417	-0.638248427783	-0.126928809988	-0.675634816636
-0.119312169374	-0.309103271567	1.67958463572	0.052497738817	-1.98968738313	0.959802690563	-7.91303184173	-0.668098700183	1.19715810947	-1.22266582753	-0.0405739269075	0.0294386246164
-0.104352431615	-0.30894158925	1.67957393299	0.0531419440521	-1.98961376334	0.959852228484	-7.00361258595	-0.497562290586	1.51963483668	-0.0964848837155	-0.106183977194	-0.957473356135
-0.0919458163198	-0.308935951263	1.67951980054	0.0528834892804	-1.98966003344	0.959856119281	-7.11300573631	-0.55899620081	1.3951908212	-0.482944512453	-0.078457827054	-0.669807298353
-0.0841389248809	-0.309216385436	1.67929866987	0.0517359375872	-1.98962547869	0.961115265547	-3.09962701971	-0.309356995228	1.41725829757	0.454230387169	0.0143255214695	-0.519699070569
-0.0774329463845	-0.309277982284	1.67953147746	0.0520877044853	-1.98967356131	0.960341983302	-4.89624229972	-0.493725168169	1.32604387109	-0.621283626401	-0.105751088846	-0.486113348516
-0.0666108824234	-0.3091754556	1.67955698262	0.0526877127048	-1.98960392625	0.960244882734	-4.68359834255	-0.434519622902	1.48082963409	0.0494679759992	-0.0646360586709	-0.699291294542
-0.0563139996611	-0.30912604365	1.67951272015	0.0527038183466	-1.98961025417	0.960273240278	-4.47615303525	-0.43143209517	1.47933473151	0.129417998872	-0.0472272144726	-0.67777729361
-0.0434422332193	-0.308897482894	1.67960347754	0.053377015297	-1.98964960808	0.959517041111	-6.72101643871	-0.58587791885	1.45665534929	-0.457097096191	-0.0990954793839	-0.727726670215
-0.0340572663361	-0.308978696158	1.67943790993	0.0526388638426	-1.9896778867	0.959996173896	-6.01747668674	-0.639200843338	1.20184879199	-0.646833909618	0.0915175521572	0.744496238183
-0.0252245712944	-0.309012248031	1.67943065593	0.0525521745944	-1.98967139254	0.960206718623	-4.60061707039	-0.484410395789	1.38967980458	-0.234686302362	-0.0461429190844	-0.492769528194
-0.0196114867057	-0.309182837631	1.67940747773	0.0520468496401	-1.98968671351	0.960404793323	-4.59926750123	-0.609503558132	1.11565742908	-0.692611044836	0.117593274666	1.43017781389
-0.0123957007107	-0.30920179441	1.67944823482	0.0522998805765	-1.98963770129	0.960526523638	-2.9592471472	-0.401648412762	1.41851764826	0.065749091431	-0.0309703275209	-0.459465434105
-0.00570954250912	-0.309213493023	1.67949328436	0.0524118514911	-1.98964368993	0.960359011806	-3.21116633032	-0.442462252227	1.39478715926	-0.118850409746	-0.0395528490778	-0.424103928757
-0.00180067855538	-0.309346442002	1.67948078588	0.0520722012694	-1.98964901012	0.960566375572	-2.34970385453	-0.433840383367	1.33277201218	-0.193108980129	-0.0159195543342	-0.219658312336
-5.3237974547e-05	-0.309514650459	1.67948276315	0.0517554160278	-1.98963240697	0.960862563664	-0.986733536177	-0.378645514696	1.33177884995	-0.0346607556001	-0.00572205237095	-0.166106905767
0.00261710572338	-0.309516525636	1.67959512304	0.0521092419317	-1.98962559038	0.960490049576	-1.65263141716	-0.453820651814	1.32270193946	-0.300422225584	-0.0209652484423	-0.087262442197
0.00401562348642	-0.309573366458	1.6795959805	0.0520552453435	-1.9896130033	0.960590777189	-0.889398705532	-0.428264396445	1.33860753726	-0.162632808992	-0.0122846504496	-0.132885915329
0.00441824193437	-0.309616595259	1.67961031836	0.0520224013179	-1.98961061252	0.960604030015	-0.4378519082	-0.433634880847	1.32916465988	-0.1846511099	-0.00778261981953	-0.0725732749688
0.00415705209086	-0.309632415004	1.67963376416	0.0520698324539	-1.98960973521	0.960542474468	-0.205585305663	-0.451918932055	1.32212289105	-0.245771163483	-0.00731522908959	-0.0179680154548
0.00358405954353	-0.309617669619	1.67964970549	0.0521688542741	-1.98960856612	0.960460134278	-0.0435177193069	-0.467985217477	1.32617295272	-0.273546501515	-0.00714095338568	-0.00707609868984
0.00293921056983	-0.309527086583	1.67969226801	0.0522928774029	-1.98960390323	0.960362572712	0.0206391648446	-0.520076200917	1.30056548414	-0.290391636583	-0.0185078126576	0.00364203353564
0.00236253850788	-0.309130485224	1.67992074379	0.0524100377912	-1.98956808808	0.96026304818	0.0229508331472	-0.758847849681	1.10088223692	-0.284313936359	-0.0887659665591	0.00626812616202
0.00193664099186	-0.307524282474	1.68067347909	0.0524591632058	-1.98933585242	0.960179996898	0.02563869522	-0.983591332194	1.15426720271	-0.257464934666	-0.140297279846	-0.0065587502811
0.00169387996741	-0.304139990303	1.68210010173	0.052466681977	-1.98905112519	0.960070989676	0.00549854976368	73.8891390262	1.0810939034	-0.227367508253	-0.220316153964	-0.0197305593916
0.00156937425663	-0.298154079354	1.68363656925	0.0523690236466	-1.98854855888	0.960020002695	0.0214966656386	100.407817663	1.46295377784	-0.236417833097	-0.0840755176634	-0.0245582507429
0.00145407043269	-0.290376583483	1.68451405377	0.0522545187677	-1.98805748771	0.960037868575	0.0268715303908	-2.46863493594	1.66039856838	-0.234444348983	-0.0528647870849	-0.0351746445698
0.00190423825283	-0.273511071472	1.69011148739	0.0519036094021	-1.98657280377	0.959929945512	-0.106832631042	-5.35956961569	0.657935876998	0.0203890335801	-0.824707115577	-0.125514513165
0.00188525414306	-0.258599918258	1.69058260401	0.0518436114096	-1.98661033875	0.959890967772	-0.223093067511	-7.31447728445	-0.588668261083	-0.0495320840416	-0.973021737363	-0.0909163202397
0.00194683095267	-0.23960640471	1.69192669281	0.0517109853841	-1.98614705262	0.959891312163	-0.13553721576	-8.06679962308	0.2498324308	-0.0163081207515	-0.959153434214	-0.136534823382
0.0019077816038	-0.219039603714	1.69224275674	0.0516739874853	-1.98612210372	0.959876490103	-0.148183061362	-9.41985503254	0.0120849447662	-0.0342197679794	-0.992984993577	-0.133359942087
0.00189873137062	-0.194856501895	1.69288707178	0.0515556552181	-1.9857580488	0.959909649581	-0.00476811674979	-9.65853370054	1.47114485454	-0.0637866046216	-0.671958158437	-0.158932255624
0.00177652317295	-0.169362351078	1.69241066387	0.0515404973342	-1.98582853189	0.959934428789	0.0781564197516	-10.1890772597	2.21720989285	-0.136030474835	-0.402823026576	-0.153693285207
0.00160677720758	-0.14103277156	1.69141869704	0.0514984409378	-1.98586167529	0.960004537625	0.246660214953	-9.91473867358	3.90259547743	-0.303309907157	0.353282078886	-0.119193597087
0.00136933686919	-0.11401081789	1.69011377053	0.0517564512274	-1.98680592586	0.959888247039	0.242286340814	201.270882062	3.55289130463	-0.311849929082	0.148283947513	-0.125191125977
0.000940499161339	-0.0872029706887	1.68690922302	0.0518899565869	-1.98719877625	0.960034966197	0.357623414929	-10.3431187519	4.69480663891	-0.442557472427	0.713227101545	-0.0923768195811
0.00052742932706	-0.0620492570241	1.68397053366	0.0521973784764	-1.98814256935	0.960031427025	0.370396993914	-10.4369912613	4.66878656982	-0.472547206637	0.697698601719	-0.0858018899096
0.00011318882214	-0.0393663726623	1.68105639314	0.0525339268489	-1.98909314969	0.960015993763	0.354747004015	-10.3981713038	4.42803835921	-0.467246437768	0.591531812836	-0.0846338603645
-0.000214551868194	-0.018839151763	1.67888588204	0.0528564680811	-1.99003709978	0.959942534238	0.324502722417	117.928585587	4.10284832394	-0.455357836448	0.474634394786	-0.081638537072
-0.000592415461524	-0.000770348960591	1.67574087258	0.0530910721811	-1.99061227347	0.960024695889	0.365055553462	-9.10031751888	4.64210090637	-0.530001751951	0.813664650751	-0.0539740815594
-0.000802416634738	0.0147097127178	1.67435595801	0.053376004421	-1.99140847635	0.959936030458	0.129117272742	-10.4552961865	2.03500126914	-0.367828304926	0.00656312916032	-0.036511158276
-0.00109025623333	0.026522880403	1.67164146449	0.0536024200276	-1.99199655235	0.959981606825	0.213291822245	-8.50923231605	3.06569616201	-0.468371143478	0.476048077217	-0.0144985091733
-0.00136198005044	0.0342859286753	1.6689645556	0.053871317767	-1.99273936429	0.959995947414	0.221068599403	-7.05476744652	3.17346458907	-0.500813883154	0.593434724279	0.00516486778617
-0.00154469863705	0.0389336361149	1.66714306968	0.0540769905125	-1.99324390146	0.960000515694	0.229188680447	-5.56698490912	3.3472940973	-0.494311878216	0.556543955931	-0.0104920148394
-0.00164907136715	0.0406458728405	1.66601777344	0.0542179585248	-1.99357615863	0.959995735966	0.193362688528	-4.43908172099	3.02783994799	-0.473422579445	0.496950867713	-0.00116792712213
-0.00165024638918	0.0403393783825	1.66587373241	0.0542705328946	-1.99363458854	0.959984227227	0.145570852851	-3.5452507322	2.60233902526	-0.433802147675	0.364952036331	0.00087833110296
-0.00156082036802	0.0387081509462	1.66662127243	0.0542437656837	-1.9934588935	0.959972502646	0.0979902404745	-2.83722226431	2.17143045978	-0.392423678677	0.225594980796	0.00155557280648
-0.00140695317635	0.0362973064341	1.66815305031	0.0541582781874	-1.99310855048	0.959963260672	0.0596137374807	-2.25525032509	1.82064293539	-0.355317455412	0.106919626696	0.00124724769313
-0.00121178075126	0.0334997452464	1.67026633049	0.0540442609412	-1.99269799603	0.959956575341	0.0283822283847	-1.83583442288	1.46906249697	-0.324420697875	-0.0150301620794	0.00134186293241
-0.00100051020576	0.0306416747535	1.67296838682	0.053915325766	-1.99224292477	0.959952470273	0.00918880367413	-1.50375071355	1.20053355765	-0.297548721854	-0.115383874424	0.00100044560343
-0.000792695701614	0.027919656958	1.67621312288	0.0537853807969	-1.99179155112	0.959950193307	-0.00063063968696	-1.25342781899	0.984320405966	-0.275267904213	-0.199694601745	0.000884948397228
-0.000597982523471	0.0254636572317	1.67993820221	0.0536691580888	-1.99140370143	0.959949020506	-0.00525515686967	-1.10857957183	0.745063805397	-0.256772847296	-0.293207862476	0.00145645442
-0.000416034274156	0.0232912448048	1.68384435901	0.0535892204252	-1.99123002867	0.959949933913	-0.0271757138485	-1.27898734399	0.0708432162003	-0.262250997773	-0.371256989039	0.0137967699272
-0.000256633469498	0.0216574214787	1.68856527706	0.0535232451346	-1.99103118129	0.959951679224	-0.0226004376326	-1.3120552935	-0.281270240774	-0.247668044148	-0.479505668005	0.0165993788686
-0.000158498428129	0.01983728488	1.69238621852	0.0534457866287	-1.99092318632	0.959973294509	-0.182614889933	-2.68626415909	-3.85730298303	-0.681974534902	2.26729670993	-0.0799781241153
-1.00233744922e-05	0.0195699958378	1.69952095276	0.0534758526889	-1.99100959466	0.959960630673	-0.034727278325	-1.79756547986	-1.67180158	-0.266438772756	-0.515367204668	0.0381944931528
4.19694552329e-05	0.0193616396376	1.70736603783	0.053423987641	-1.99063657093	0.959958351497	0.0496023347433	-1.17348185464	-0.750666001673	-0.171931762392	-0.883779028398	0.0107521800292
3.83807225974e-05	0.0190686855229	1.71580984918	0.0533707825205	-1.99034971249	0.959957381528	0.0835749665884	-0.851163059154	-0.493401922079	-0.155257615481	-0.861615075272	0.0074979312763
6.54699756719e-06	0.0188094267361	1.72520465533	0.0533216104437	-1.99009082912	0.95995433327	0.105787474541	-0.572192141806	-0.337092001128	-0.147387334759	-0.808665182276	0.00848344197992
3.01815625185e-05	0.0184786548635	1.7342610911	0.0533783996561	-1.99052909758	0.959949523699	0.0637303626345	-1.20092492778	-1.65460708041	-0.155009016457	-1.12994563433	0.0254673313377
5.85727710289e-05	0.01801024737	1.74290521428	0.0534501330939	-1.99120267966	0.959971007678	-0.118103696058	-2.97199892075	-5.60760773988	-0.455293126982	0.421029438401	0.0914809336615
-8.40017023709e-05	0.0161598416219	1.74807475689	0.0531110142001	-1.98929387496	0.959929007423	0.0827384296217	-0.201165322677	0.0759917095721	-0.169898397451	-0.577835182643	0.0115751460115
0.0002214219739	0.019165150781	1.76483102342	0.0536860455575	-1.9924464894	0.959997197696	-0.210119356854	-4.89198323093	-10.0224077329	-0.613985327341	1.05226653049	0.0791305313136
-4.89650376343e-05	0.0176662166021	1.77275159461	0.0531956981519	-1.98947937775	0.95994331325	0.152354987287	-0.0731443581536	-0.411619655157	-0.118358587116	-0.832252164287	0.0148242919817
-8.44517995091e-06	0.0181029707421	1.78532783237	0.0533279863638	-1.99026384209	0.959940076814	0.121145067287	-0.879924593024	-2.03010996788	-0.0881542012211	-1.50681132364	0.0189217068642
-5.24939222224e-05	0.0188635740921	1.80022184076	0.0533091569292	-1.9899494553	0.959945653395	0.178739412588	-0.309303652025	-1.40635290658	-0.0648791332433	-1.36077880976	0.0130841582294
-8.36110933644e-05	0.0189900191754	1.81443116736	0.0533376056014	-1.99016805714	0.959941795665	0.162422622769	-0.531618155304	-1.94737460917	-0.0646054243343	-1.54679391511	0.0184190560387
-8.983898101e-05	0.0190599845745	1.82898182291	0.0533708474136	-1.99042245021	0.959940273907	0.142836538444	-0.836491009611	-2.55615521762	-0.0660853881678	-1.69905390452	0.0257019515152
-7.47392156173e-05	0.0189750436524	1.84349607777	0.0534187894486	-1.99087125225	0.959943398963	0.084356691004	-1.55437333972	-3.88252037289	-0.114600901423	-1.64087911264	0.0541886752735
-8.57575207931e-05	0.0195682774946	1.86053306982	0.0533949759234	-1.99055669422	0.959945620304	0.160721143565	-0.889513598264	-2.68952698862	-0.0507801116715	-1.82348860243	0.0233451596227
-9.14533174612e-05	0.0192724168468	1.87615402364	0.0534330580549	-1.99106552866	0.959949173196	0.0656340185538	-1.85602743118	-4.47696301627	-0.148907078845	-1.47990922236	0.0678429651844
-0.000178603278071	0.0172966772497	1.88781271057	0.0533131047956	-1.99081444229	0.959986373147	-0.706782468	-7.62677928732	-18.8395566946	-2.05402756383	12.0216964091	-0.559032417907
-1.72718955547e-05	0.0191190018501	1.90837769046	0.0535104273485	-1.99192555939	0.959982381285	-0.179349122661	-4.46509530573	-9.82646478009	-0.590414995297	1.49395602275	0.0706215076757
-0.000251453773604	0.016877558255	1.920320668	0.0530702255705	-1.98911064675	0.959923008091	0.135569587164	0.273392775258	-0.537079940207	-0.131004698239	-0.841666732402	0.0217791383065
-0.000104002987112	0.0166868650677	1.93592417137	0.0532463889476	-1.99067969759	0.959928695433	0.0104819326267	-1.89400365575	-4.04062074731	-0.162693854103	-1.36202173644	0.0566999433778
-3.5071260541e-05	0.0181363193222	1.95589799694	0.0532733116657	-1.99061387672	0.959945986622	0.129181820953	-1.30493971898	-2.74524411668	-0.0717257386854	-1.85829103559	0.020817523688
-3.5864026156e-05	0.0177849344967	1.97263792499	0.0533453307395	-1.991525792	0.959976005158	-0.191644351386	-4.33956202694	-9.16527844326	-0.600749607948	1.8336744473	0.0695228311364
-0.000229889519557	0.0158501619152	1.98569307204	0.0529799291852	-1.98902125553	0.959920174932	0.114186603485	0.167158850662	-0.410899337492	-0.151340778987	-0.77376910586	0.0208083998273
-0.000130314338016	0.0167061274786	2.00508466596	0.0530932987282	-1.9898848246	0.959930849422	0.121761124037	-0.652060612065	-1.52205227851	-0.100040618945	-1.46748244581	0.0118092740352
-0.000135053722778	0.018019340803	2.02697336358	0.0531248920818	-1.98994092447	0.959946989305	0.166372238365	-0.506613758733	-1.26873529273	-0.108452374455	-1.38998313241	0.0140760596064
-0.000188075441276	0.0190229161566	2.04979991762	0.0531583392232	-1.99005771869	0.959952828417	0.185149568483	-0.4686688268	-1.26076316974	-0.115543904061	-1.38337267067	0.0176523184703
-0.000207733470091	0.0195865227433	2.07249936445	0.0532198477063	-1.99058528726	0.95995290892	0.173043222975	-0.967680641123	-2.08395807421	-0.0935266857936	-1.73519822042	0.0212704101995
-0.00010317290141	0.0248475047856	2.10899486913	0.0535602457237	-1.99257707541	0.960011848195	0.263868088411	-2.53499723166	-4.39183248908	-0.0437086328011	-2.72045343754	0.0350290663083
-0.000237981803194	0.0285506880713	2.14702447171	0.0538095252689	-1.99394688222	0.960073109705	-0.0552534311835	-6.60880983341	-13.5246346256	-0.728755514216	3.23794018096	-0.0047688008193
-0.000535194945523	0.0279340701024	2.17817636578	0.0537388030609	-1.99323720332	0.960037052334	-0.0952382022698	-5.83953724214	-12.9722928923	-0.733250679473	3.7604159063	0.00564436906112
-0.000885367952248	0.0237678101545	2.20203563205	0.0533116916077	-1.98991182108	0.959929901811	0.211493510872	0.710426936885	-1.01098365958	-0.157259381992	-0.984521667344	0.0422082249645
-0.000734034919931	0.021367966009	2.22839933247	0.0533018886023	-1.99131074259	0.959918012402	0.074801580404	-1.45194080912	-4.903815121	-0.0690549694202	-1.66523254076	0.0674647478337
-0.000465061975039	0.0235290533873	2.26543737725	0.0534431749152	-1.99352379807	0.960010009397	-0.3757286751	-8.56966761994	-19.8712969277	-0.973111704426	7.11873832303	-0.196925998439
-0.000518374157435	0.0237888895509	2.30037859965	0.053317277629	-1.9926154154	0.959997626128	-0.0065377570893	-4.16324711219	-10.3996301363	-0.334691627951	0.736155550579	0.0711633984744
-0.000600994334667	0.0234098163151	2.33523489892	0.053166743703	-1.99160701259	0.959967904125	0.221119845296	-1.12738102934	-4.40241580154	-0.0334646641669	-2.52572017909	0.0630487605394
-0.000631580949678	0.0217438815424	2.36784728506	0.0530631388371	-1.99141021364	0.959952403676	0.168319504378	-1.19499623177	-5.07239010382	-0.0255465198171	-2.23164845431	0.0783110534143
-0.000764831790195	0.0158904192683	2.3901480117	0.0526896795745	-1.98848748113	0.959878502112	0.0757077941961	1.72992665594	-1.25103902956	-0.114858087387	-0.869456662489	0.0392049035136
-0.000573874758942	0.0142933566388	2.4201984638	0.0525354459892	-1.98892932283	0.959884583055	0.0717791594223	1.20855790997	-2.00471387163	-0.0596712058985	-1.64685080885	0.0265103521684
-0.000479993252501	0.0133600999799	2.45180788085	0.0524012215389	-1.98855788339	0.959893054939	0.073918391287	1.49067844052	-1.67636134867	-0.10170180716	-1.31711785007	0.0314130355162
-0.000253719734495	0.0114760784322	2.4791745487	0.052323506045	-1.99017688239	0.959909082937	0.0187581954233	-0.970602717134	-5.91834122528	0.0599792792243	-1.86981109324	0.0901727269246
-0.000117584154547	0.0111925071643	2.50896260099	0.0521708618612	-1.99012883888	0.959923750502	0.076328246904	-0.59767880326	-4.88446335199	0.0554486565475	-2.54725128403	0.0774149507807
-3.79807036568e-05	0.00886419476607	2.53353759374	0.0521139780226	-1.99032953258	0.959967816907	-0.894408862363	-11.6467478993	-31.1947460252	-1.55221920907	18.5102218091	-0.722794278151
2.41007038948e-06	0.00791773335834	2.56012353719	0.0519659664567	-1.98966219271	0.959960522957	0.0159121998269	1.73560536715	141.12	-0.0919699029142	-1.05033419659	0.0277560795441
-4.53557490845e-05	0.00667720011206	2.58559069006	0.05176878271	-1.98784050697	0.959892340286	0.0344212430227	1.63779149351	-1.49458294809	-0.103931585839	-1.12156309471	0.0284787991648
0.000116443832715	0.00589289367753	2.61015049072	0.0517236559432	-1.9899877893	0.959923102775	-0.00735199091313	-1.60996255603	-7.18701620889	0.0850190137015	-1.34881190125	0.121741008238
0.000113412741436	0.00737625894943	2.63961428674	0.0516138617732	-1.9889493823	0.959922391472	0.0838925263802	0.708230474213	-2.46357324006	-0.0925170475894	-2.28356294967	0.0293593456927
0.000151106957714	0.00658561331644	2.66390679803	0.0516618581711	-1.99065748238	0.959969080533	-0.120807951704	-4.76981537532	-14.1540559553	-0.138606649878	3.25948515762	0.0421169752538
0.000155202876114	0.0067865422247	2.68972863159	0.051620219816	-1.99095012011	0.959991995523	-0.303581841393	-8.07126489373	-21.8864918945	-0.483129575248	9.04890654641	-0.225658049087
2.61649685722e-05	0.00431334620598	2.70921781388	0.0514489219878	-1.98770882962	0.959888475998	0.0283005381016	1.72232372675	-1.34505391225	-0.0992656228522	-0.922497625485	0.02786510066
0.00011175528477	0.00448551418311	2.73312462828	0.0513543339898	-1.98932775383	0.959904554531	0.038797327694	0.226856897978	-3.5225961437	0.027361685844	-2.67319274466	0.0774456348577
9.62033663789e-05	0.00567279047782	2.75967072095	0.0513267480318	-1.98873228238	0.959913201006	0.0614427738643	1.0382653766	-2.18711892406	-0.120414342134	-1.9975536905	0.0267152331105
2.53131690897e-05	0.00628349762095	2.78579301328	0.0513393298518	-1.9886358215	0.959913187942	0.0751135785119	1.24850008457	-2.02144517607	-0.13098647479	-1.76090249491	0.0283782561694
-6.31679554761e-05	0.00657194166245	2.81198115008	0.0513538927902	-1.98845682508	0.959907606187	0.0770327717747	1.53306113831	-1.85097430705	-0.131916422828	-1.47705001355	0.0290918041699
-0.000119000843913	0.0111438147181	2.84926361659	0.0514016492379	-1.99040225905	0.959947378652	0.141894457661	0.347803648051	-3.84109280489	-0.152429207537	-3.57569774353	0.0708300319182
-0.000236901076475	0.00989400888224	2.87464985174	0.0514213725595	-1.99079470583	0.959949845255	0.109947430436	-0.891657448824	-7.13048320108	0.0385229389222	-2.40045745182	0.206612506141
-0.000300412576541	0.00460703048532	2.89006756008	0.0513070397696	-1.98769219256	0.959866268362	0.0200741194379	2.51823506069	-1.6195629299	-0.0387607992927	-0.791776776197	0.0321836009007
-0.000205517316931	0.00357698414759	2.9137813603	0.0511477279225	-1.98794404833	0.959867953613	-0.0088018378186	2.38396300924	-2.07698933245	-0.0437565303618	-1.33502161366	0.0251044650141
-6.0588987842e-05	0.0025477268468	2.9357145578	0.0509387405756	-1.9889307658	0.959878991221	-0.0434633407358	1.56788844019	-3.49256566404	-0.00671308865092	-2.79984016131	0.0644543988138
2.99920017195e-05	0.00207247737826	2.95850659399	0.050834549794	-1.98826992069	0.959884003305	-0.0111973985569	2.21349767726	-2.71871233774	-0.058603342544	-2.06986987416	0.0279731197553
0.000119000610786	0.00457909153583	2.98757386017	0.0507298128316	-1.99222650853	0.960012489819	-0.0966370422927	-8.45592839214	-26.222361882	-0.0578951495254	7.30814776459	-0.212541860238
7.36558778875e-05	0.00445862636831	3.01154970775	0.0507090494256	-1.99033363103	0.959944167392	0.0373617992963	0.0239881430983	-7.76982572568	0.0229401215824	-3.15541597804	0.225043126497
2.23893340516e-05	-0.00134974102119	3.02203534999	0.0506384828719	-1.98703713637	0.959860212659	-0.009333965032	3.26193912118	-1.98657167819	0.028606271958	-0.81772760579	0.0312611806653
0.000117161728433	0.000679738665407	3.04865578011	0.0504777542565	-1.99002694911	0.959930861473	-0.0409184586749	-0.547564786035	-9.68580271708	0.0897401605786	-1.79814927065	0.203087746115
0.000168024320379	-0.00191515349208	3.06373707671	0.0503633352152	-1.98967664703	0.959951067561	-0.0674313558322	-4.93376239703	-20.3204919637	0.100389283921	7.05352845556	-0.174378667159
0.000259784873256	-0.00509230013574	3.07538918784	0.050211227316	-1.98848303432	0.959930751926	-0.0743918127987	3.26093148049	101.933262132	0.082465409993	-0.818771125616	0.022302051018
0.000373331722179	-0.00789990288587	3.08558385111	0.0500334042295	-1.98673036436	0.959851702869	-0.0874435147837	3.10596773471	-1.98472546798	0.0877599592871	-0.859136692297	0.0191783027431
0.000521338909616	-0.00907071819159	3.09666015008	0.0498323225121	-1.9872912672	0.959861245834	-0.121020651881	2.4955590431	-2.50199139726	0.0706700569206	-1.63742412584	0.0248345578863
0.000597373180999	-0.00991522857704	3.10714134955	0.0497416768753	-1.98680688773	0.959864601221	-0.0785911386499	2.7047901855	-1.79776459428	0.0786524596123	-0.818914725744	0.016047845402
0.000668464767244	-0.0106450323701	3.11551928669	0.0496183583369	-1.98715766085	0.959869902666	-0.0978406431665	2.25603869321	-1.97717496501	0.0688866037631	-1.18923151242	0.0172647467293
0.000717591142425	-0.0110239703159	3.12280227475	0.0495375408134	-1.98721516526	0.959875309799	-0.0870902761424	2.04496880958	-1.78377811709	0.063014915826	-1.06775937894	0.0154260894993
0.000737713898594	-0.0112009887576	3.12886734889	0.0494839852298	-1.98727858337	0.959879471015	-0.0770689018597	1.83979485221	-1.56780281791	0.0591363292884	-0.918933168126	0.0136151641413
0.000740207769333	-0.0111996475843	3.13370147696	0.0494442393319	-1.98746870147	0.959883984319	-0.074842905082	1.54253504133	-1.48415575782	0.0557741902115	-0.916924919408	0.016878857031
0.00072740809876	-0.0109858842231	3.13758062939	0.0494277936283	-1.98756515695	0.959887711563	-0.0645616355934	1.34327918811	-1.25907471938	0.0503480696094	-0.764202724814	0.0140263231746
0.000695125630635	-0.0106296988534	3.14063357371	0.0494360097049	-1.98755489375	0.959889907023	-0.0479757564241	1.24910888442	-0.898930632163	0.0469333278236	-0.447599711575	0.00690658859099
0.000658314971997	-0.00981754958201	3.14352967248	0.0494371161963	-1.98820925762	0.959904723035	-0.0518592141603	0.253952773474	-2.31623312423	0.0543888976769	-0.257738772488	0.0256494087012
0.000608362046762	-0.00962572002212	3.14416398533	0.0494716345487	-1.98780396109	0.95989550362	-0.0336546817053	0.888958169018	-0.507893346233	0.0413978502704	-0.174358903636	0.00403607812993
0.000561023803805	-0.00898664189056	3.14489812054	0.049495897027	-1.98801061244	0.959898743506	-0.0322498712411	0.67219999592	-0.409097031165	0.0352120279525	-0.160709278114	0.00261126599108
0.00051343641438	-0.00823435949034	3.14514291839	0.0495270508053	-1.98820407823	0.959902597108	-0.0271011182965	0.483734567197	-0.304709738129	0.028415841125	-0.127545983991	0.00187744799058
0.000461816271395	-0.00739589960188	3.14503029044	0.0495665126276	-1.98838028092	0.959906431339	-0.0198530336954	0.327313727653	-0.194475869037	0.0216047950967	-0.0754907123505	0.00110516694196
0.000406159114794	-0.00649227412348	3.1446801959	0.0496125978216	-1.98855411258	0.959910116283	-0.01243095437	0.191425756351	-0.0986749828056	0.0146581877364	-0.0314739736079	0.000388806943352
0.000347628662752	-0.00553567622871	3.1442214359	0.0496636365118	-1.98873137268	0.959913702206	-0.00533337620823	0.0712508692043	-0.0274108283818	0.00751339065097	-0.00688445079584	-1.26769358566e-05
-0.000966581207418	-0.00443178486063	3.14373241044	0.0463252240709	-1.98884977169	0.959729534559	0.242056924863	-0.0985700838606	0.0525929795608	0.866097203361	0.0182463775179	-0.189316407508
-0.00225075509991	-0.00324197259809	3.14318780183	0.0397314157223	-1.98897755816	0.959597448375	0.333525881346	-0.245265873855	0.126596229547	0.198027690458	0.0256708752806	-0.0706936336917
-0.00311279062339	-0.00205635033002	3.14262786586	0.0306178553333	-1.98912078697	0.959538705904	-0.0615148800406	-0.324532702854	0.183805552102	0.662068420936	0.0597386630615	-0.160797014984
-0.00198151358633	-0.00112800780938	3.14210873251	0.0244901713991	-1.98930497812	0.959716532121	-0.347597457535	-0.30607777808	0.169320256085	0.2993934533	0.0432777823737	-0.0452865509786
-0.00101335540702	-0.000400881076304	3.14169328897	0.0195585589015	-1.98926879248	0.959831636083	-0.326307895005	-0.297839185974	0.121151460648	0.26701094129	-0.00547090954504	-0.0414542042749
-0.000290110973983	0.000141806937547	3.14133756778	0.0155839877995	-1.98888374887	0.959915193263	-0.282228667036	-0.31863885379	0.0234981170743	0.222687902494	-0.167343128012	-0.0387700782485
0.000213258287829	0.000617982677989	3.14117443351	0.012411558857	-1.98778518229	0.959974995484	-0.219833370706	-0.235726456429	0.0458043627041	0.17411280272	-0.0559896974854	-0.0277341555098
0.000533061139029	0.000916727731227	3.14094435796	0.00987728000637	-1.98616984876	0.960010998694	-0.176581807958	-0.287940505568	-0.120649403568	0.128465652305	-0.269244448826	-0.0258765258713
0.000718839257915	0.00115022263601	3.1407681724	0.00786217915022	-1.98371794432	0.960031651418	-0.138039664435	-0.33852508758	-0.287773371286	0.0876416943343	-0.486997924902	-0.0245482041994
0.000803448264737	0.00130667824797	3.14063263418	0.00626340920034	-1.9806318042	0.960040341141	-0.107722753707	-0.390308737365	-0.448843039004	0.0548049280304	-0.710449728104	-0.0243889278059
0.000817176531695	0.00147582537075	3.14074405608	0.00501110035067	-1.97705992921	0.960043922372	-0.0632630853061	-0.225770291221	-0.290413680341	0.0324417381836	-0.42971227542	-0.0135101325774
0.000777246918161	0.00152849862493	3.14083199259	0.00402071903673	-1.97314301791	0.960039735559	-0.0340836362283	-0.111593993185	-0.180672944316	0.0209669548751	-0.258069309868	-0.0074821437587
0.000735014528877	0.00136340990719	3.14005853113	0.00316980625675	-1.96651864305	0.960022452265	-0.0757427978079	-0.606279822345	-0.654444536715	0.0261136038474	-2.05289265563	-0.0289646475432
0.000669510715782	0.00146919969859	3.14029223026	0.00254901073874	-1.96072041592	0.960018162776	-0.0436942696159	-0.452247037979	-0.590331593586	0.00233193727235	-1.14979017078	-0.0205424178951
0.000600530629012	0.00157891900974	3.14050597532	0.00205611977318	-1.95371545878	0.960013250216	-0.0134404576756	-0.241190023814	-0.343869212509	-0.0127550120285	-0.534146166707	-0.00849485774017
0.000518413614789	0.00147189915562	3.14041784175	0.00165003649589	-1.94649936671	0.960000898824	-0.02028527831	-0.309785532871	-0.422668390175	-0.0120677764509	-0.691870221425	-0.0117246178467
0.000456022964269	0.00147728012074	3.14043124409	0.00132519065383	-1.93787152189	0.959993019704	-0.0117286393899	-0.266949944055	-0.349041727139	-0.0167417582374	-0.576873787802	-0.00849556458515
0.000400343002068	0.00154711399037	3.14046039144	0.00106870998347	-1.92763891727	0.959986568109	0.00249845371085	-0.197088650764	-0.239598473686	-0.0201476978424	-0.426816277062	-0.00447618994439
0.000316199118598	0.00121960783034	3.14007828689	0.000851881296939	-1.91851426715	0.959968601955	-0.027777926188	-0.27622636892	0.0703547390848	0.0391135991401	-1.99452887426	-0.00722914365534
0.000276934886542	0.00117501777197	3.13997846528	0.000672596641276	-1.90748506205	0.959961973561	-0.0323645189903	-0.32014817514	0.0679870233443	0.0382882968412	-2.01897100416	-0.00740432842168
0.000267663957886	0.00142161095188	3.14007222834	0.000528398628581	-1.8936416988	0.959963543179	-0.0193250457785	-0.416822536981	-0.389390808353	-0.0206824046891	-0.767237298641	-0.0103136100715
0.000235362879049	0.00137055951483	3.13944940583	0.000397646473773	-1.87791194319	0.959952031274	-0.0126158305116	-0.414256797056	-0.352629445586	-0.0229843204196	31.36	-0.00902946428303
0.000215197652636	0.00188609264454	3.14003627409	0.000347410015392	-1.86060301384	0.959959277653	0.0171243288211	-0.286111068149	-0.197227773166	-0.0345842679761	-0.488214808882	-0.00272806379007
0.000171046197305	0.00201103229692	3.13994507835	0.00029077982645	-1.84217961057	0.959954552724	0.0156280577896	-0.311591752446	-0.232780546013	-0.0363504322614	-0.552730036662	-0.00330869435743
0.000137712955637	0.00218980694965	3.13990605252	0.00024899457692	-1.82171604756	0.959951572048	0.0227729960749	-0.28864924909	-0.218759260701	-0.039619586424	-0.538584398255	-0.00220751752895
9.36500784636e-05	0.00214256332298	3.13978897183	0.000211658303884	-1.80164154616	0.959946071816	0.00598725336491	-0.36289368171	-0.298748097515	-0.0336434989838	-0.684148238043	-0.0046426956148
7.70518596598e-05	0.00221139574461	3.13974844152	0.000177163554246	-1.77943121314	0.959943875425	0.00705989590424	-0.354963638994	-0.282196830138	-0.035144478003	-0.670926793571	-0.00374174065376
5.13625440641e-05	0.00214329272215	3.13965342312	0.000148331760872	-1.75689772891	0.959940228339	-0.00504031569859	-0.410606720345	-0.324955821402	-0.0267038214178	-0.787538339855	-0.00505185870701
5.13453170967e-05	0.00196776233178	3.13881106064	8.19086430681e-05	-1.73059025779	0.959933754027	-0.00309452894429	1.32961504491	5.20484449913	0.201628172946	-6.63622655091	0.0346394229743
5.93936620543e-05	0.00248867146994	3.13964977869	0.000104392483424	-1.70341141101	0.959939726139	0.0212254334366	-0.332899119868	-0.274357804194	-0.0441738717996	-0.691610764698	-0.00153105343097
5.76192362658e-05	0.00241389337607	3.13863709611	4.00037262462e-05	-1.6713442078	0.959934534381	-0.0234194946705	-0.491096481834	0.360695191157	0.0331846282458	-1.78239089356	-0.00114996345983
2.55252434158e-05	0.00278026350557	3.13970593849	0.00010668639591	-1.64248095986	0.959937064936	0.0377711362257	-0.269698815921	-0.316405106513	-0.0535468347902	-0.729503223168	-0.000309237682838
2.66322236051e-05	0.00255336149412	3.13867184539	3.15265485824e-05	-1.60828261847	0.959933793192	-0.0379482117991	-0.700436160441	-0.330158407339	-0.0147149963311	-1.08135862854	-0.0024055803121
1.14438571321e-05	0.00261872237611	3.13877861549	4.64480369828e-05	-1.5743679594	0.959933669817	-0.00896884453772	-0.37681338858	0.370795468605	0.0292140322117	-1.71533216377	-1.37495460351e-05
-2.83895675075e-05	0.00278275555398	3.13997823327	0.000120992329477	-1.54106646341	0.959932671814	0.0433530103646	-0.169584062335	-0.398710833284	-0.0561401686782	-0.801254441136	0.000478288689365
-5.21416401424e-05	0.00246705462981	3.13998601368	0.00011381747125	-1.50967001383	0.959932222158	0.0187411539598	-0.210427626375	-0.413999323027	-0.0419570300545	-0.854350868659	0.000912358428273
-5.78030639531e-05	0.00211835755541	3.14003628134	9.69159977426e-05	-1.47653525317	0.959932345841	-0.0002079930006	-0.239716214968	-0.418215881009	-0.0289484700085	-0.893332903871	0.00182655638392
-1.88567956148e-05	0.00186650428858	3.13928475761	3.26153920271e-05	-1.43791842751	0.959935000328	0.0106498182106	1.51676372628	5.10101029581	0.192915818466	-5.96216462152	-0.0275969929085
3.98617606363e-05	0.00210867522581	3.13909497701	-1.93040360204e-05	-1.39586019899	0.95993264428	-0.0337384006164	-0.58824842115	-0.343133081518	-0.0148482525763	-1.10450848371	0.00627875842429
3.4473116945e-05	0.00220385991035	3.1392344984	-5.56471607371e-06	-1.35471852463	0.959931798568	-0.0145728704308	-0.503596340017	-0.291249689228	-0.0131801576166	-1.16570415808	0.00654018769071
5.39473716836e-05	0.00255586195181	3.13940941231	1.89375764581e-06	-1.30942847474	0.959926132544	0.0136046006726	-0.448687326808	-0.447994142986	-0.0527013647796	-1.10459841357	0.00603655868794
1.91839754011e-05	0.0025720959314	3.13962618272	3.35063357646e-05	-1.2656088775	0.959925539453	0.0212839544239	-0.371019178166	-0.478386891798	-0.0537527950188	-1.10456510728	0.00641237380661
-1.03588332587e-05	0.00249315284694	3.13986214383	5.79811823727e-05	-1.22147341273	0.95992522426	0.023949640565	-0.300738375058	-0.512951959461	-0.054179849551	-1.109623365	0.00658041857537
-3.77633140998e-05	0.00195062811212	3.13912104994	2.41960355902e-05	-1.17642965338	0.959942580954	-0.0133710325181	0.43646789668	2.38802336027	0.123098925565	-3.67275180882	-0.033540861149
-8.46989509284e-06	0.00204933740926	3.13925886186	8.7800674784e-06	-1.12835553478	0.959936950482	-0.0245660760133	-0.43569200773	-0.0864068703041	0.0108948371483	-1.57083699791	0.0111011998547
-1.72341739075e-05	0.00199745922866	3.13957171504	2.59500466875e-05	-1.08120430613	0.959934934706	-0.0107306187107	-0.340796133115	-0.131310640578	0.00382169982673	-1.57186104949	0.0105794199423
-4.26016264692e-05	0.00176135104474	3.13991452779	4.78731335427e-05	-1.0352048705	0.959937051878	-0.00356884016997	-0.122039367601	0.189078658977	0.0234130493864	-1.88492862004	0.00228754463976
-7.67382499705e-05	0.00147098607395	3.1407655239	9.77124239085e-05	-0.991905718898	0.95993343483	0.0452820996629	0.0724539337964	-0.676385843748	-0.0582126803529	31.36	0.00385242977021
-4.612092137e-05	0.00111656174025	3.14048828688	3.91602069483e-05	-0.94461195683	0.959937335797	-0.0256646267135	-0.285805325218	-0.552962172622	-0.0139456779931	-1.30451612784	0.0212085619411
-3.05112913415e-05	0.000897742964168	3.14079547254	3.2535594193e-05	-0.89871384524	0.959933825361	-0.0164467562778	-0.223659770226	-0.585415357046	-0.018860266245	-1.30424242298	0.0208005090022
-2.1823054805e-05	0.000656533010051	3.1410966849	2.83320190757e-05	-0.853291131846	0.959931154753	-0.0115758845307	-0.175548209275	-0.636050088415	-0.024471901118	-1.27721235137	0.0203420062972
-2.93036646957e-05	0.000290400095357	3.14137789388	2.92153843979e-05	-0.809522548903	0.959934596403	-0.0141584918964	-0.117164794807	-0.590293938637	-0.0134754166223	-1.35040542349	0.0224208621497
-3.16054734073e-05	-9.9995424943e-05	3.1416319948	2.38495201108e-05	-0.766852028821	0.959938272535	-0.0195346898223	-0.0665090199413	-0.521340183716	-0.00261440520273	-1.45140697972	0.0238059520791
2.68018517069e-06	-0.000220486702838	3.1418937825	4.7286848579e-06	-0.722707781684	0.959927620063	-0.01001519049	-0.0728092728391	-0.700066797054	-0.0276461969259	-1.22797809442	0.0193628868664
4.5295391458e-05	-0.000406176441666	3.14114433065	-6.29060265629e-05	-0.674890326426	0.959943404614	-0.0411397992406	-0.161328272138	-0.030006768422	0.0272181399452	-2.23713170955	0.0255323473654
2.85199065821e-05	-0.000418125315103	3.14165739928	-2.71577266258e-05	-0.631218025752	0.959940302733	0.0348626510689	1.86032886804	4.86391024004	0.244364266403	-6.89703599276	-0.230818694422
4.31146677426e-05	-0.000365363867613	3.14178697005	-3.46142684435e-05	-0.5858592738	0.959924983956	-0.0118200885353	-0.216544635171	-0.752450957884	-0.0322035910959	-1.41308135337	0.0290935995301
1.87371475047e-06	-0.000642671797582	3.14206118454	-5.510058398e-06	-0.544728830195	0.959936788745	-0.0076441519604	0.0661954525413	-0.141336908363	0.00790870688201	-2.23833145945	0.0233780836044
1.64189745071e-05	-0.000582831804522	3.14246247325	1.59268919209e-06	-0.502068084227	0.95991826476	0.00958053526077	-0.0185273794376	-0.760218597584	-0.0413888002374	-1.23592775731	0.0170885307512
2.32284620481e-05	-0.000896658755321	3.14182329147	-4.49546210364e-05	-0.458974866759	0.959941953284	-0.0395272882819	-0.28907291792	-0.652659590329	-0.00943258050787	-2.18045062274	0.0521446005797
1.63267278719e-05	-0.000890158088986	3.14224270553	-2.11533302528e-05	-0.418273006112	0.959933074138	-0.0147918006256	-0.127730956536	-0.622383935516	-0.0186756646506	-2.04164969609	0.0430103041769
-4.30218950154e-06	-0.00104335926174	3.14262306305	1.2020947473e-06	-0.379934839468	0.959930505731	-0.00808495800451	-0.086622581308	-0.815134507367	-0.0287753643509	-1.76939748964	0.0404106671771
-3.9021055505e-05	-0.00144328269035	3.14290615531	1.92261797514e-05	-0.344982586431	0.959945986258	-0.00939432740452	0.400341550834	0.371675079083	0.0341015837807	-3.3051520713	0.0112052719074
-1.77410651201e-05	-0.00149350993099	3.14340162789	2.10018255578e-05	-0.309658277293	0.959923033406	0.00474114761051	0.103861404638	-0.872423157501	-0.0362090194066	-1.23952358909	0.0189136625115
-3.74982741853e-05	-0.00195608202354	3.14355824193	2.07956242795e-05	-0.27852898159	0.959936838794	-0.0136256168686	0.0763332552486	-0.886018900109	-0.0208944394108	-1.71718901877	0.0411563949843
-3.33740367955e-05	-0.00231545489106	3.14378424608	1.07530154549e-05	-0.249216331145	0.959939206496	-0.0207313628314	0.0817928922491	-0.918141739175	-0.0176047679791	-1.73500245152	0.0437060718981
-3.3807296286e-05	-0.00275456169659	3.14388290543	-4.00537973544e-06	-0.222581146525	0.959953736846	-0.0285340774659	0.48325154499	0.272726387754	0.0427124412016	-3.43116399875	0.0226798757091
-2.93436969159e-05	-0.00303265512471	3.14433062144	-3.74136760239e-06	-0.198732655058	0.959956429146	0.0148327858966	0.490545421651	-0.653378120727	-0.0159240862414	31.36	0.000474199341127
-7.97245678541e-06	-0.00311012228629	3.14493271469	5.50805404931e-06	-0.176473735531	0.959924097242	0.00904397595178	0.45310510088	-0.652447842019	-0.0138032762244	-0.707628131046	0.00245618117853
1.15622626469e-05	-0.00339213836903	3.14484245593	-2.55528273874e-05	-0.155850954838	0.959928690196	-0.00941245144821	0.299750924285	-0.787610000216	-0.0130916871546	-0.922184551115	0.0148399553455
3.9388795722e-05	-0.0033889106455	3.14492238951	-4.04346257623e-05	-0.135658638462	0.959920696951	0.00440994365771	0.365761066096	-0.633121838319	-0.0141091499132	-0.69783496034	0.00494417761843
5.17174017869e-05	-0.00342292542588	3.14485287396	-5.39868073863e-05	-0.117400453095	0.959920282795	0.00180127092033	0.301258701245	-0.658426097272	-0.0159768077626	-0.741860628042	0.00790434202376
5.57990284573e-05	-0.00350685948681	3.14462286997	-7.12847354594e-05	-0.101154980656	0.95992693301	-0.0160652204175	0.102496603515	-0.856560803577	-0.0177495029578	-1.10429512443	0.0269046869353
3.45352158124e-05	-0.00349549798598	3.14503475316	-3.86192373805e-05	-0.0890678154077	0.959922461009	0.0105382837097	0.417293083608	-0.426302420809	-0.00570998064386	-0.393038315473	-0.00238376657302
5.03828034892e-05	-0.00350171791684	3.14469670837	-6.58048122473e-05	-0.0761644208861	0.959926326383	-0.00989121015698	0.17579567407	-0.665126269523	-0.0128894608537	-0.76634927899	0.0146769222112
6.78467866901e-05	-0.00328704897693	3.14456498156	-7.35197565893e-05	-0.0637954040214	0.959920170293	-0.00035881821443	0.171401068274	-0.589065376581	-0.0172891818618	-0.666991269088	0.00969121989192
7.08207315254e-05	-0.00309284947553	3.14434852056	-7.64553439003e-05	-0.0526500562479	0.959919657147	-0.00127045261094	0.0860576922609	-0.640748040869	-0.0217945338329	-0.758963182095	0.0140663069544
4.95888002323e-05	-0.00316344094233	3.14373024901	-9.05819605403e-05	-0.0435044980627	0.959949123168	-0.0352352197803	0.193215564305	0.341426139496	0.0344408871615	-3.57555714809	0.0389734403807
5.29962832703e-05	-0.00291904981902	3.14350995681	-9.1694525878e-05	-0.0344945795802	0.959947138861	-0.0347025383125	0.120140892132	0.289493560088	0.0278041072081	-3.69574959379	0.0422279191736
4.8656393016e-05	-0.00264923267578	3.14336291731	-8.29811643195e-05	-0.0264566517713	0.959944567424	-0.0291548239206	0.095475525413	0.266513167967	0.0223921852553	-3.60412119397	0.0409458224546
3.51011237658e-05	-0.00236425051594	3.14341372876	-5.9168124622e-05	-0.0199451708001	0.959937637293	-0.013862777282	0.115290050943	0.129319188681	0.0109542257207	-2.63092296953	0.0278783455456
1.19793328803e-05	-0.00218846672306	3.14346344792	-3.4834580438e-05	-0.0152763323182	0.959940285775	0.0167516815813	0.971784667774	2.25824007464	0.141923659977	-4.19716590487	-0.157025096368
-1.38808678862e-06	-0.00198083934268	3.14365247268	-8.16216364541e-06	-0.0119039079985	0.95992701582	0.0118924990975	0.173521808336	-0.195303797885	-0.00746818987061	-0.163025960297	-0.00244615793319
-5.94219177685e-06	-0.00190788766933	3.14345856005	-1.03882158777e-05	-0.00903758176563	0.959931155743	0.00172846381901	0.109980019942	-0.219785030997	-0.00479858860807	-0.216622936903	0.00227235522683
-9.5796745434e-06	-0.00181858545407	3.14336192406	-7.67203313767e-06	-0.00731593611248	0.959932887418	0.00137857059457	0.141872117076	-0.103386956926	0.00175053690503	-0.0668326162955	-0.00132324342603
-3.06343994438e-06	-0.00168973367752	3.14318008399	-1.38106794632e-05	-0.00559935470419	0.959932820837	-0.00121300592815	0.103358164072	-0.094677136767	0.00191854543639	-0.0714449944419	-3.9507551719e-05
1.53519460078e-06	-0.00155158574802	3.14300686077	-1.77514654629e-05	-0.00442431037105	0.959932828276	-0.00263864350076	0.0738444450105	-0.0758422879874	0.00250699234696	-0.0626222811825	0.00077826270477
5.2410002791e-06	-0.00139208081646	3.14284618599	-1.95427488103e-05	-0.00355387955343	0.959932177625	-0.0021340497887	0.0579154363147	-0.043553908164	0.00270026002829	-0.0309055726839	0.000195264285274
-4.29160844906e-06	-0.00122282629093	3.14268032751	-8.88969924517e-06	-0.00286902460093	0.959802806468	0.00445728140379	0.0343342385981	-0.027850965968	0.0193241481249	-0.0223660518112	0.0126285479975
3.24346158198e-06	-0.00104397081158	3.14251966649	-1.71695344076e-05	-0.00231986920762	0.959798219459	-0.00375962409755	0.0155643031858	-0.0148212778392	0.00300784298854	-0.0148729874118	0.000958358551895
-5.71367287456e-05	-0.000868121268306	3.14237116045	1.70243670716e-05	-0.00187696393227	0.958912671056	-0.0222446883938	-0.0044615385745	-0.00507186715568	0.0259761012497	-0.0118458183464	0.0119386537627
-0.00017815067997	-0.000733553949719	3.14223476666	0.000580367364808	-0.00155059926663	0.95506985026	-0.0682430846426	-0.0244955146736	0.00355291783132	0.0734174399462	-0.0101082199492	-31.36
-0.000252941971863	-0.00056850103811	3.14211111086	0.000611107016411	-0.00126098874041	0.95173324864	-0.114717941914	-0.0369134476294	0.0129890913038	0.090935048686	-0.00441069925303	-31.36
-0.000347170472914	-0.000430599091047	3.1419964616	0.000770759898843	-0.00103658762656	0.947077424856	-0.121420159147	0.3093682977	0.0390087023418	-4.9699248633	0.331035460126	14.7571050388
-0.000674910110553	-0.000282900211856	3.14191017723	0.000525636265456	-0.000816937676315	0.940595609005	0.00967457134973	-0.0680460897756	0.00728459386545	0.282788711635	-0.024638710921	0.198692665564
-0.000599922408386	-0.000183384827359	3.14181461111	0.00078302987256	-0.000689934431305	0.934261131322	0.508183130373	-0.0516640206002	0.0118890115881	0.433470814806	-0.0498813683437	1.62146538523
-0.000709948491379	-9.6204699596e-05	3.14174495693	0.00091299128061	-0.000571702584487	0.926053133931	0.54000514884	-0.0484652496651	0.0107715682089	0.372300380088	-0.0488331401631	1.58602314333
-0.000799541531511	-2.88163655391e-05	3.14168808843	0.00110428359042	-0.00047925647685	0.916107724034	0.610271775858	-0.00481744248209	0.0219653028243	-0.135956995318	-0.0222431311095	2.97795012649
-0.000770582159253	7.72780783782e-05	3.14164757359	0.000610164102107	-0.000366391877074	0.907080673831	-0.0639908733605	-0.0509000695668	0.0201606690616	0.0929908582203	-0.00161263872913	0.113795058081
-0.000774700703434	9.80516297409e-05	3.14160153722	0.000872332504882	-0.000324099635408	0.895853224906	0.362674608515	-0.0536623780116	0.00160292108005	0.374812835356	-0.0379387954688	0.565180223209
-0.000629507193411	0.000163922827499	3.14157729771	0.000486216009023	-0.000250656455966	0.886061209738	-0.0822423230451	-0.0425342934536	0.017368664336	0.106272546468	-0.000669962857724	0.12586944366
-0.000876652033662	0.000113716151884	3.14156038734	0.0013627872952	-0.000248921607287	0.868738912265	-0.016244664055	0.314692323304	0.0316841416903	-4.9857850279	0.326381481658	12.7415704949
-0.0010667110563	0.000159931930251	3.14156113129	0.000902024777345	-0.000166133246013	0.852635281799	-0.0201717549658	-0.0401359412103	0.0102014599418	0.10477905353	-0.00803124503976	0.178981642963
-0.00111837313567	0.000145338012433	3.14154878766	0.00109643785538	-0.000149025844983	0.834575360955	0.206270842698	-0.0379235654464	-0.00323529006012	0.196500464569	-0.0244429739089	0.303519473267
-0.00115119053502	0.000124653363447	3.14154263226	0.00132766310571	-0.000136143997432	0.814748132406	0.506119783855	-0.0228013497429	-0.0041803336658	0.250021092193	-0.0391347933537	0.855051920016
-0.00101824304954	0.000163056028303	3.14154696305	0.000812182634482	-8.54066730041e-05	0.79609046399	-0.0974724989726	-0.0341698094982	0.00953407624324	0.164439246183	-0.00579294856591	0.225892544182
-0.00112197298555	0.000100353242503	3.14154771811	0.00148087686899	-0.000107388493761	0.771391013042	0.0025819698636	-0.0303966550091	0.00166716076473	0.146294706655	-0.0133331758151	-31.36
-0.00134943547824	0.000111954704215	3.14156277825	0.00115011118012	-5.27346235106e-05	0.745508325796	-0.0221439167623	-0.0326494929443	0.00262040892034	0.157562579026	-0.0134490723418	0.281517283188
-0.00146644263318	9.35358379959e-05	3.14156930519	0.00126270415427	-3.96160470792e-05	0.716447208346	-0.00552256774622	-0.0333354955139	0.00108979290792	0.173516303431	-0.0156323169531	0.31492496593
-0.0015264441863	7.85334680558e-05	3.14157332728	0.00133264384103	-3.04710463261e-05	0.68560295231	0.0174315268922	-0.0333504033438	-0.000826623522432	0.18773511419	-0.0179658129881	0.346982553418
-0.00130334732077	6.52924341109e-05	3.14156275094	0.00136100271336	-4.11598232981e-05	0.65584218788	0.33888955413	-0.0219178333341	-0.00653871665568	0.299775716166	-0.0323281311091	0.664784513048
-0.00151305508811	4.65586413094e-05	3.14157729405	0.00140481734939	-2.42848936924e-05	0.621272017595	0.126288465791	-0.0293591911342	-0.00869331698778	0.191159054304	-0.0257174830351	0.404402476585
-0.000981589987075	0.000102351491207	3.14157048601	0.000664523097914	8.92269484076e-07	0.592259507684	-0.266359261528	-0.0371950771282	0.0117780564108	0.325568865118	-0.00402273211275	0.375387255806
-0.00152247750689	2.11683786411e-05	3.14158686127	0.00140002085939	-1.37340276742e-05	0.550806943803	0.107927847911	-0.0306454108627	-0.0109582536269	0.197311731046	-0.0287654158935	0.432768950546
-0.00131471008806	2.13157536839e-05	3.14158177388	0.00133564082227	-1.63040253307e-05	0.5140221911	0.300953035683	-0.0269266761558	-0.00810621521774	0.378998116733	-0.0366269736664	0.760305778348
-0.00107653351139	2.12951687217e-05	3.14157585808	0.0012313997409	-2.21322193026e-05	0.47709134223	0.417732682517	-0.002770148485	0.00182328970491	0.241515222554	-0.0330479537775	1.60194592504
-0.000667641995877	7.99285227036e-05	3.14157587582	0.000372154707837	1.15844199664e-05	0.443443325619	-0.29713373584	-0.0363674437051	0.0097873148122	0.372100486422	-0.00622334546856	0.433195954882
-0.000401587465778	6.72529859944e-05	3.14156841601	0.000245402392847	-1.75901070598e-06	0.408938167579	-0.158176521945	-0.0289653903654	-0.00042472852817	0.353706414942	-0.0146793912304	0.44963495799
-0.00029951431739	4.96363894111e-05	3.14157325511	0.000175331703937	-3.05573525772e-06	0.373872240264	-0.125950449405	-0.0263495689614	-0.00414383324125	0.339097670745	-0.0177653744501	0.448950202716
-8.10821964237e-06	2.91846644238e-05	3.1415675209	0.000156934284275	-1.99054809285e-05	0.341152950608	0.251353600573	-0.0151992866145	-0.00773075495504	0.510204464606	-0.0392366318989	1.07495952188
0.000233580255128	9.43360392291e-06	3.14156996211	0.000166201918562	-3.27397058584e-05	0.309255816053	0.249316273289	0.129909414724	0.0220062316298	-1.36346774127	0.0745145981949	6.04839388919
0.000152751113008	-1.17571514924e-05	3.14158128324	8.9548628071e-05	-2.27667175601e-05	0.276489370799	0.378135068766	-0.00219337627598	-0.00781234039584	0.442436489534	-0.0457515087355	1.74455942322
0.000308523611624	-2.34055498867e-05	3.14158706062	7.33674014057e-05	-2.66872426486e-05	0.245324505257	0.263990604605	0.124543869779	0.0201359032453	-1.28004046806	0.0672282439361	6.33175631278
0.000460534180177	-2.69900343479e-05	3.14159165958	-3.98647389863e-05	-2.69316776311e-05	0.215453046961	-0.318144438893	0.33745942082	0.0253643068372	-4.76532698706	0.331745752921	13.8930276994
0.000317273770066	-2.90319969825e-05	3.14160122184	-0.000295973648116	-3.47818851498e-06	0.185211033236	0.114659935269	-0.0368858001146	-0.0161535239815	0.707869169162	-0.0495682978769	0.86539791296
0.000471958213053	-2.36147274659e-05	3.14160193853	-0.000481075819562	3.11228663286e-07	0.157553650157	0.0586732436918	-0.0400352775469	-0.0133511771224	0.759227954034	-0.0476712091428	0.870980108153
0.000666700136116	-1.73870980928e-05	3.14159963864	-0.000685438443794	7.68857727707e-07	0.132119044577	0.0217974765181	-0.0423781367036	-0.0126823056506	0.804339731146	-0.047806049583	0.87397034976
0.0011583926896	2.62751488851e-05	3.14159327141	-0.00130914367072	1.23756586916e-05	0.112425012045	-0.379902977771	-0.0141028076651	0.00756621933133	0.348190682679	0.00285775152413	0.29881335146
0.00129159750935	1.82146480725e-05	3.14159312291	-0.00141953074717	8.33650335164e-06	0.0922948855246	-0.359033169313	-0.0149841414957	0.00278237943796	0.357594484032	-0.00257015368996	0.289435364913
0.00141580888155	1.4080544557e-05	3.14159559428	-0.00153568208944	8.89426095618e-06	0.0743405989567	-0.365955432797	-0.0117513184501	0.00375875054459	0.333686303966	7.64655847973e-05	0.2561241427
0.00146597665521	-1.42026383356e-05	3.14159342749	-0.00143935058417	-6.00055184208e-06	0.0590426178184	-0.0573939213098	-0.0334348922467	-0.0167207793032	0.730982236506	-0.0406927890206	0.60394085904
0.00149543976289	-2.73681602279e-05	3.14159907785	-0.00144261268334	-6.02652792558e-06	0.0460743939998	0.000411202814732	-0.0329628719116	-0.0163882420896	0.767159117974	-0.0456690702437	0.727702189839
0.0016150298279	-1.8506933797e-05	3.14160451006	-0.00164919174535	3.10904389966e-06	0.0364495736885	-0.239128893967	-0.00940536968539	-0.004209178846	0.348235951979	-0.00832585850796	0.236785115004
0.00173791300697	-2.19117838016e-05	3.14160399727	-0.00171260233919	-3.88150728448e-07	0.029393766784	-0.210169803676	0.00536390377883	-0.00150932587326	0.188488959248	0.00113795218786	0.131441815944
0.00173445365941	-3.49310863834e-05	3.14160678266	-0.00165987163912	-3.91895237772e-06	0.0238996799909	-0.144466199224	0.0114491437466	-0.00369848050612	0.115335796424	0.00180985427543	0.106450508995
0.0016205641272	-5.05385255289e-05	3.14161301458	-0.00153833726865	-4.23647487757e-06	0.0194447860604	-0.0928406131932	0.0125345307311	-0.00546109347486	0.0828927566525	1.21869041081e-05	0.0694913413652
0.00144818580472	-6.37331003093e-05	3.14161978875	-0.00138751706384	-2.59895051613e-06	0.0158271440717	-0.0544487966054	0.01226134053	-0.0058692399775	0.0588208316229	-0.000667101932006	0.0544718084133
0.00123549328872	-7.32361979088e-05	3.14162532796	-0.00122883811383	-5.23704785316e-07	0.0128861299651	-0.0310156068554	0.010852260755	-0.00569226537426	0.0362894180416	-0.00122511568748	0.0397505097422
0.000952060382994	-7.95329886492e-05	3.14162894353	-0.00110221983258	7.4889433499e-07	0.0104858005197	0.0248360526098	0.0110857494179	-0.0050245023469	0.0326040512246	-0.000302757799187	0.0396305634069
0.000626581155085	-8.38609036728e-05	3.14163169209	-0.000949577284726	2.20795855821e-06	0.00854084284362	0.0193352488936	0.0079799724733	-0.00506457966525	-0.00113736739893	-0.00203045078617	0.0176136228885
0.000328266284878	-8.10211077207e-05	3.14163164171	-0.000830880945296	3.6540554591e-06	0.00695383623902	0.0597129038339	0.00739523250814	-0.00323924962125	0.00638418476786	-0.000158982492238	0.023855130999
-3.51867926742e-05	-7.85225585842e-05	3.14163019768	-0.000721650940147	3.41564986517e-06	0.00566000595901	0.0627625703011	0.00546730071829	-0.00323580157975	-0.0220679162903	-0.00124731097921	0.00636963207326
-0.000429262075848	-7.39595419397e-05	3.14162810934	-0.000626507638144	3.37334713496e-06	0.0046068637679	0.0817239435401	0.00424768448291	-0.00267979996185	-0.0327346954797	-0.00124481315726	0.000984465782583
-0.000835273009963	-6.6763375794e-05	3.14162484047	-0.00055898230016	3.08797719395e-06	0.00374510730623	0.127467827083	0.00480889450429	-0.00140632636683	-0.0241335185667	0.000524229708621	0.00990203196212
-0.00107559313875	-5.41283962905e-05	3.14162128096	-0.000389859373121	5.67515868788e-06	0.00307848048169	0.0545141937927	-0.00295692925096	-0.000400136078405	-0.0313909594211	-0.00194468464025	-0.00446639821137
-0.00151738769035	-4.66485000326e-05	3.14161627089	-0.000357720122127	3.4562701936e-06	0.00249833712079	0.0837831872643	-0.00184950487068	-0.000523582035861	-0.0470453717131	-0.00168982635529	-0.0104812737249
-0.0021344753235	-4.2175279237e-05	3.14161222776	-0.00043895679645	6.31375584703e-07	0.00201304807005	0.703647139366	-0.000399671503182	-0.000937311581595	0.580992825652	-0.001600149848	-0.0155106329939
-0.00283499211179	-4.3891030197e-05	3.14161161234	-0.000430821596409	-1.02416580372e-06	0.00162181483224	0.651135592825	0.00681338310589	-0.00164280482524	0.389244654038	0.00503479065754	0.0955758387355
-0.0036882013582	-5.00066948685e-05	3.14161210182	-0.000441458875372	-3.67612852692e-06	0.00128348098633	0.467144296838	0.0139496813263	-0.00156311009345	0.0565199921813	0.00589838070884	0.0772858033719
-0.00451454843022	-5.20328158773e-05	3.14161419572	-0.000401958070979	-2.0348579497e-06	0.00104138227675	0.590672372639	0.0139370395229	-0.0011854808692	0.158002135446	0.00747561995489	0.119967806814
-0.00543868822258	-5.49647070933e-05	3.14161550816	-0.000390681064609	-1.88575468574e-06	0.000832910992595	0.659924264989	0.015532797989	-0.00108742590328	0.176819237029	0.00860142119778	0.133543130096
-0.00653846702509	-6.29391669849e-05	3.14161701082	-0.000399977309357	-4.04796630882e-06	0.000644676126686	0.575273517989	0.0178841629091	-0.00228332457661	0.00183631498043	0.0063582909803	0.0669514239946
-0.00768959413533	-6.87773078996e-05	3.14161985208	-0.000387060036536	-3.48780572867e-06	0.000507145336401	0.629321417867	0.0188378108919	-0.0023511601607	0.00438685319439	0.0068061709821	0.0741123641061
-0.00910929386452	-8.47502636727e-05	3.14162407152	-0.0003535779678	-5.86838208871e-06	0.000387637263399	0.484070395279	0.0149491874835	-0.00709864274455	-0.199040322915	-0.00242464212166	-0.0473166902449
-0.0105463821782	-9.2929805386e-05	3.14162931696	-0.000312108244739	-3.4907556179e-06	0.000306474551199	0.510260464374	0.0137246236929	-0.0067432890309	-0.207005466848	-0.00263075728943	-0.0484667265663
-0.0122378939738	-0.000108462244691	3.14163715303	-0.000209530991069	-1.13103846466e-06	0.000259625855739	0.453041367749	0.00592697299329	-0.00980056397442	-0.264799574724	-0.00995850454251	-0.0878069752936
-0.0149405724513	-0.000144903217129	3.1416438117	-0.00060922035435	-1.28899384819e-05	6.30133915811e-05	0.887595209912	0.035474622451	-0.0123687469885	-0.282990238364	0.000578609097257	-0.0434998848602
-0.0170251758266	-0.000155768272853	3.14165588723	-0.000458608089779	-3.38982385895e-06	6.77924009889e-05	0.922924198155	0.0280269711306	-0.00926169338609	-0.212234316031	0.00136429375388	-0.00113821752832
-0.0190724638508	-0.000152710970887	3.14165922205	-0.000405036726377	2.03594616188e-06	5.04665359431e-05	1.03003749579	0.027063043369	-0.00460489498249	-0.120964458315	0.00717357071611	0.0586170071474
-0.0201681882352	-0.000119961421815	3.14165823411	0.00020793308755	1.97593090601e-05	0.000209679737284	0.402686668125	-0.0181317368275	-0.00218611910201	-0.256036556233	-0.0122642771392	-0.0890307928774
-0.0229888256976	-0.000120215573465	3.14164441137	-0.000549186661242	-4.96672798889e-07	-2.65532583965e-05	1.69698022638	0.0379425016955	0.00130775471563	0.410689747743	0.0256205991663	0.320153908602
-0.0254376901624	-0.000125774634187	3.14164525933	-0.000540406751558	-1.98923983241e-06	-4.48991920674e-05	1.78067651107	0.0361151644645	-0.00139690973597	0.430405768214	0.0224646258685	0.333944443566
-0.0286786487941	-0.000167332919242	3.14165280184	-0.000466806630108	-1.22726186742e-05	-0.000101599153439	0.989661390102	0.0228813409615	-0.016433161939	-0.498733595247	-0.0112435525524	-0.149150817872
-0.0317778224388	-0.000183807557296	3.14166711736	-0.000263197988191	-2.4581142446e-06	-4.89002393236e-05	0.922888936611	0.0100286992455	-0.0160299311768	-0.512016402224	-0.0166765109976	-0.16474831639
-0.0360242263263	-0.000206657745119	3.14167138683	-0.00098949712138	-1.24697786497e-05	-0.000239122323897	2.52197000761	0.0688104839774	-0.00821054712183	0.43229392731	0.0305556221321	0.395556024875
-0.0390684884005	-0.000202305373811	3.14168707014	-0.000449270021818	1.22650568111e-05	5.80877780632e-06	4.13416037797	-0.0159302083787	-0.0127457245315	3.1458538864	-0.0246675008452	-0.176645555852
-0.0417826815556	-0.000185409545968	3.14168594533	0.000217260292371	2.08460935012e-05	8.24464904605e-05	0.81037677301	-0.0200481800666	-0.00788142326815	-0.501932454796	-0.0210873998167	-0.172851134384
-0.0464505070715	-0.000189994014836	3.14167279162	-0.000806314830594	-2.22134582639e-06	-0.000193581006392	2.73802390479	0.0578438373322	-0.00048020789869	0.572162273405	0.0360496145103	0.473881860473
-0.0501529528712	-0.000183037198187	3.14167541712	-0.000639530355274	5.41995826708e-06	-0.000110636653075	3.22568483203	0.0407212476976	-0.00176479568159	1.218590687	0.0327245135779	0.596187661897
-0.0549951747702	-0.000223869425777	3.14167556657	-0.00068085887529	-1.42039825155e-05	-0.000243406486063	1.73488954752	0.0397826181119	-0.015630027252	-0.650482118859	-0.00351993823271	-0.138070623796
-0.0583834823774	-0.00017192294159	3.1416801947	-0.000444558617746	1.70650338367e-05	-4.17719190002e-05	3.40801364927	0.0300776954678	0.00454378287591	1.40274082964	0.03694355492	0.675664537061
-0.0610031331493	-0.000127852139068	3.14166739682	0.000511663377331	2.79668207739e-05	0.000153362315925	0.87199060652	-0.0410847581043	6.93580331834e-05	-0.54676967872	-0.0220244731598	-0.189188573121
-0.064986847112	-0.000106055334223	3.14164900627	0.000322265812455	1.60607060975e-05	8.26948073795e-05	1.00346895469	-0.0302994864282	-0.00160464143031	-0.603454120262	-0.0194177586137	-0.204065857282
-0.0687644497707	-7.18932816692e-05	3.14162447166	-6.72087883755e-05	1.55361278242e-06	-4.82237712065e-05	1.34980787311	-0.00106285607453	0.00303420941199	-0.573214663254	-0.000849656847723	-0.14339133173
-0.0734283115331	-9.53248131106e-05	3.14162368222	-0.000111050525124	-1.01687456064e-05	-7.64702414999e-05	1.3213169363	-0.00513135865408	-0.0116956279208	-0.745532599084	-0.0202603620377	-0.242535311885
-0.0790752841324	-0.000127156935888	3.14164094859	-0.000528736458449	-4.37231608696e-06	-3.15761666236e-05	-49.1738230095	-0.0146264383333	-0.0166254772026	-0.787602091757	-0.0302838775	-0.268135808345
-0.0837641760487	-0.000149984646239	3.14165781741	0.000171718654845	5.0081208407e-06	1.43063214626e-05	1.30214668631	-0.0213726564823	-0.015848174105	-0.79862055108	-0.0325756613095	-0.273794767811
-0.0880430401823	-0.000101750590718	3.141640256	-0.000258003916611	4.3252568469e-06	-0.000106397458336	1.95830276495	0.0221204360016	0.00675826048111	-0.465932679124	0.0150110147032	-0.00811405991961
-0.0928668382442	-9.55079784024e-05	3.14162633552	-0.000573184643624	-1.04164704871e-05	-0.0002075096475	2.32052484565	0.0425514412653	0.00365537078588	-0.399752940208	0.0218875542912	0.0700514059028
-0.0986082438488	-0.000139941002347	3.14163189002	-0.000636294576761	-2.47382502607e-05	-0.000261172807581	2.07826328115	0.0369173557864	-0.015108520705	-0.842554194512	-0.00561911679178	-0.19976781771
-0.104585233595	-0.000178867500261	3.14165062282	-0.00055385832995	-2.09254467087e-05	-0.000239864745115	2.06317455079	0.0308503974542	-0.0204359941804	-0.940274227067	-0.0150071009393	-0.255517895485
-0.110418570295	-0.000188462016514	3.14166195557	-0.000591108887222	-1.29302605067e-05	-0.000241603678806	2.32767726729	0.0403448223104	-0.012329640633	-0.804047558805	-0.000521057622471	-0.146780533961
-0.116828281551	-0.000221868713001	3.14167388443	-0.000524718418209	-1.43113655584e-05	-0.000234140320258	2.2141574344	0.0312446408341	-0.0207461733184	-1.01032921585	-0.0156340341485	-0.274880120918
-0.124891122444	-0.000263242728638	3.14169144611	-0.00153541955883	-1.57513081929e-05	-0.000297816497911	8.89812239365	0.0163230341785	-0.0255893861207	6.32176420826	-0.0284955933499	-0.345019695748
-0.134625191294	-0.000406094570703	3.14172801954	-0.00169259735206	-4.511583347e-05	-0.000616099198139	3.74392639287	0.114383880772	-0.0385001313582	-0.997235310317	0.00371050436119	-0.0810895191329
-0.1435200142	-0.000489254548455	3.14178492904	-0.000733288392991	-1.30386730799e-05	-0.000331330495338	2.77728700969	0.0401072844658	-0.051257859288	-1.51007941285	-0.0489091768869	-0.479309277134
-0.146861874432	-0.000308278531826	3.14179064254	0.00149963277099	8.98285014097e-05	0.000455411314481	1.39550793555	-0.0959133203742	0.00332374826693	-0.895087585507	-0.0453886663664	-0.312685883997
-0.153274609725	-0.000217779824811	3.14173036786	0.00100930729276	6.02735802095e-05	0.000281012066667	1.64303785544	-0.0691161419962	0.00750314340729	-0.987033911416	-0.0293213205074	-0.333076712376
-0.160263041363	-0.000172177648972	3.14169129643	0.000739307883422	3.55477664424e-05	0.000182388921358	1.79207456174	-0.0597137785372	-0.000169518861259	-1.07991182878	-0.0342335693001	-0.365552827453
-0.167430378798	-0.000137720624745	3.14166230697	0.000461407337903	1.69549857985e-05	8.32621598246e-05	1.98735256881	-0.0443430873192	-0.00375631089939	-1.15006381056	-0.0317817120218	-0.379696760189
-0.178293659487	-0.000196381973452	3.1416409833	-0.00199999472256	-4.91474673225e-05	-0.000628972160037	5.64157319436	0.142271650283	0.000168417975299	0.360084103533	0.0768575112485	0.744630990889
-0.186047199044	-0.000195901623095	3.14167725629	-0.00108082111183	7.68683912966e-07	-0.000130704827307	8.51412804739	0.0360250952526	-0.010139738103	4.6657871521	0.0413275752152	1.07175693638
-0.196837484882	-0.000306179071429	3.14168646377	-0.00142622855186	-4.4949951266e-05	-0.00054989088189	4.05877426772	0.0914236773458	-0.0270529066719	-1.28605472355	0.00358489521162	-0.194871012891
-0.201449463281	-0.000181754576321	3.14171308593	0.00139931990365	5.97119158483e-05	0.000400513472447	1.79980556841	-0.100572941229	-0.00267938533041	-1.14998187579	-0.0558722611721	-0.401607019858
-0.207778449379	-3.09227376354e-05	3.14163352425	0.000205887818647	3.1237195838e-05	3.42851522115e-05	3.05472953949	-6.90858144026e-06	0.0359505318342	-0.648038385581	0.0366803526816	0.0316113374141
-0.220404410128	-0.000153132872647	3.14158803558	-0.00295503214827	-9.55335731616e-05	-0.00101501297349	5.93353720144	0.210026050312	-0.000716520136468	-0.610174737739	0.0938863429911	0.390099652865
-0.228762001327	-0.000183706959748	3.14166467115	-0.00103594065049	-4.95578724813e-06	-4.11872498205e-05	11.8684014268	-0.0632687302688	-0.0302693386548	9.01385975746	-0.0718418734187	-0.513288741155
-0.23646945579	-0.000184820961211	3.1416876054	0.00083750136293	2.62238135234e-05	0.00019176099745	2.32519351707	-0.0664436702032	-0.0183121516588	-1.4408820727	-0.0598431641695	-0.496243686432
-0.245855118794	-0.000177717002694	3.14168526533	0.00077564638567	2.63895977382e-05	0.000168691702312	2.43172168432	-0.0601167709775	-0.0141652782749	-1.47012690271	-0.0525956202456	-0.499087971248
-0.255375596302	-0.0001715869648	3.14167825838	0.000661898025467	2.05853237638e-05	0.000126888276701	2.55707005106	-0.0530942566097	-0.014524153362	-1.51921280728	-0.0501670238781	-0.510387957203
-0.26839570284	-0.000219322324473	3.14166756807	-0.00205269267921	-2.82601414643e-05	-0.000492482613109	9.15700356709	0.143213712381	-0.00195462737667	3.15856787038	0.105503948284	1.59058723994
-0.278767835228	-0.000246269471993	3.14170155134	-0.00133828313758	4.14309851759e-06	-0.000160949403837	10.7684817317	0.0533675930231	-0.0141751512193	5.81906127146	0.0536668643183	1.33431044949
-0.290582394431	-0.000292509447159	3.14171066737	-0.0016730990804	-1.2084156908e-05	-0.000432871490196	7.99443253463	0.133968443254	0.000271989955358	1.66527258752	0.0916226633433	1.37538569132
-0.297557712019	-0.000218625376628	3.14172722995	0.00146272773256	5.90592802672e-05	0.000396313357343	2.43947424743	-0.103885266077	-0.0100351930634	-1.53999088821	-0.0681510849726	-0.535192561321
-0.313645013652	-0.000347541965172	3.14169395949	-0.00195024756999	-5.90647239713e-05	-0.000749956530607	5.4255934841	0.134856881318	-0.0262323235336	-1.68008634713	0.0216926740114	-0.239469334113
-0.325626628844	-0.000373490549334	3.14173145921	-0.00131126789154	-2.47893520164e-05	-0.000503767789966	5.50664943817	0.0978646545596	-0.01945352508	-1.27697289911	0.0166037437857	-0.0132840376422
-0.33521878008	-0.000246299395579	3.14173677326	-0.000747599182797	4.53330928796e-05	-8.91728583152e-06	9.55732112123	0.0653055484804	0.0217455085327	3.84655082026	0.104138564485	1.8604182813
-0.342422751245	-0.00013307648893	3.14170446376	0.00188185545374	7.4937952327e-05	0.000534580541656	2.45619486222	-0.131293907854	0.00791943879879	-1.54138489114	-0.0605577469563	-0.533218216891
-0.358772436398	-0.000224323783228	3.14164641118	-0.00210053031972	-5.73670341648e-05	-0.000745791454191	6.56279676155	0.15480247889	0.000135229414688	-0.917890550282	0.0688638061542	0.292971347008
-0.370724180957	-0.000225731826483	3.14167561352	-0.00156827955117	-2.12114348255e-05	-0.000453549620192	7.80034669324	0.127217835522	0.00756774918749	0.70623700175	0.0856795195149	1.12753943006
-0.384852907881	-0.000329468846193	3.14169283775	-0.00132672020389	-4.823498245e-05	-0.000563508272792	5.33410232356	0.0850966712441	-0.0330192414044	-1.99726437535	-0.0109491675305	-0.421933730652
-0.39654224559	-0.00025523699731	3.1417071322	-0.00107261668211	3.26876267209e-06	-0.000338015749849	7.00065516998	0.100958097412	0.0154075488671	-0.079619547457	0.071629056135	0.746501523219
-0.41225568851	-0.000419955261293	3.14174994219	-6.48182796628e-05	-1.71341882345e-05	-0.000178925115724	4.2328137224	-0.0178170320121	-0.0604397421518	-2.53867840748	-0.0920829659177	-0.860074517412
-0.422956024631	-0.000220665794314	3.14172730162	-0.000371344403579	4.58792342597e-05	-8.79054501803e-05	6.88209277169	0.0651469881977	0.0404362255953	0.133785311774	0.0850499422017	0.846904844685
-0.435068706849	-0.000147034693741	3.14166791754	-0.000926647849218	9.33954389826e-06	-0.000284148762593	7.18308402637	0.0942414811751	0.0357211875668	0.0297313149159	0.0923550074702	0.825035943367
-0.448206688821	-0.000142868277599	3.14163806525	-0.00122904146789	-2.42781998514e-05	-0.000443498115701	6.73613144376	0.101347813108	0.0160457785551	-0.776865697162	0.0640560841513	0.390682803975
-0.463939053785	-0.000291467562082	3.14167445499	-0.000475904530285	-4.59777344091e-05	-0.000325813791941	4.70548921297	0.00765663059363	-0.0537997163792	-2.61943973241	-0.0738067264202	-0.844599070786
-0.476809942943	-0.000209414147774	3.14167959095	-0.000538698024038	-3.74700681771e-06	-0.00027207044411	5.73884524433	0.050180479383	0.00345656083569	-1.61309912646	0.0173114789134	-0.159758470017
-0.489061223415	-0.000106525505025	3.14165005086	-0.00086239026381	8.15417444944e-06	-0.00025926375356	7.53693175142	0.0934371475635	0.0367708473009	0.0743079774978	0.0940553111909	0.888606863378
-0.495974152404	7.58597191233e-05	3.14162543971	0.00270225625295	8.65387027886e-05	0.000794989575514	2.65142176795	-0.185991269014	0.0233725719564	-1.68453458106	-0.0689982552749	-0.585593597453
-0.504503446539	0.000353241380964	3.14148888297	0.000333553677745	4.44847671233e-05	0.0001792532952	6.47462838122	0.0243136303519	0.10184807399	0.812758321021	0.140261658087	1.16064478841
-0.50974922076	0.000508658814046	3.14141809382	0.00277753618443	5.19786469173e-05	0.000832625260972	2.05431194215	-0.196574016079	0.0498623096002	-1.30258022494	-0.0418492631111	-0.451048804102
-0.527788713359	0.000316078211687	3.14135597496	-0.0030720438289	-0.000142539535054	-0.00102013462738	8.32638500055	0.224826325057	0.0215632930953	-0.000576361113591	0.136100174006	0.939023532643
-0.536183475411	0.000254021686725	3.14146166581	0.00132218829998	-2.38612387768e-05	0.000310487945363	2.99619845122	-0.108979885454	-0.0237804406041	-1.90119110557	-0.0882290085453	-0.66311899796
-0.542070411523	0.000520775344703	3.14143517629	0.000823413817136	7.37586290942e-05	0.000823717389543	16.5433369031	-0.218902422491	0.0588428455723	15.4756752119	-0.0399414905869	-0.343024986879
-0.550912475455	0.000454080427504	3.14139588028	0.0016109234325	-4.50518635642e-06	0.000425905361778	2.50771175935	-0.109911973546	0.0134968059436	-1.53136757142	-0.044836219466	-0.522066238957
-0.563890108251	0.00029080500891	3.14142286023	0.000424120625806	-5.59497545805e-05	5.58755143221e-06	3.27307532001	-0.0357333229783	-0.0242337192319	-1.91542374623	-0.0559381551436	-0.638239764831
-0.575214020791	0.000253699404517	3.14143794544	-0.00130192411139	-6.73426543392e-05	-0.000479066783204	5.81513712241	0.125203086064	0.0172312720936	-0.723356240383	0.074074452911	0.32766076831
-0.588021705524	0.00011407090507	3.14148392013	-0.00230786820174	-8.53458153847e-05	-0.000732030228321	7.82971405701	0.203523978862	0.00593069090336	0.363437375866	0.112170148674	1.0715930412
-0.610430069283	-0.000342710939366	3.14159216974	-0.00611563105916	-0.00019277969404	-0.00177260205659	15.2895372624	0.431469850076	-0.0729984451143	4.5584834628	0.177315287058	2.43966260716
-0.629448883218	-0.000695721990581	3.14181680351	-0.0041250806453	-8.8889009854e-05	-0.00109617642615	14.4278092941	0.299193730531	-0.0943304223391	4.53715364333	0.094363755087	2.29772148027
-0.650136788061	-0.000995288893231	3.14195743279	-0.00334444461052	-6.69675253269e-05	-0.0012291066016	8.51197332682	0.267821779305	-0.0989391678369	-2.21635052946	-0.00037290218442	-0.156476892566
-0.668511916047	-0.00108699705635	3.14205450826	-0.00200773946992	8.19637380189e-06	-0.000795747326648	7.62736019407	0.180408851076	-0.0762843754519	-2.44171123456	-0.0177991032771	-0.379604332525
-0.688164345245	-0.00118935421656	3.14212698349	-0.000254205414014	5.40715274111e-05	-0.000275229506274	5.79123867836	0.0288471108442	-0.10001145029	-3.35022743738	-0.120422338293	-1.10974015015
-0.704872874332	-0.00103101242869	3.14210184334	0.000169933908273	9.99539067452e-05	-9.59388514294e-05	6.03113780805	0.017709818417	-0.0352320823117	-2.7908388111	-0.0495101266299	-0.768128409437
-0.721155637294	-0.000846383033172	3.14201891939	0.000123855029463	9.03848018243e-05	-9.99819909362e-05	6.24401271647	0.0141594722799	-0.00776548731505	-2.56540596915	-0.0188103902664	-0.616168779301
-0.732215229092	-0.000406179811357	3.14191049747	0.000564437585737	0.000178911595401	0.000704004042793	16.2151845845	-0.0704011779325	0.0686827577475	10.117665726	0.122870988176	2.40197523493
-0.742557267108	-0.000156452237134	3.14176357288	0.00318114091451	0.000137847455773	0.000933359822859	3.38150869787	-0.227565858561	0.0434661594674	-2.10402953579	-0.0681045376588	-0.723159956475
-0.756983555323	1.54816117153e-05	3.14162228809	0.00167669347047	4.81323674242e-05	0.000407645167956	4.19896882113	-0.139238686841	0.0323242633879	-2.33148983494	-0.0420444332018	-0.746715453243
-0.764475816161	0.000468150080782	3.14149830551	0.00144610992822	0.000124601704424	0.00111702899016	19.5958544492	-0.320609607399	0.09755879215	17.9022181013	-0.0448665840049	-0.460578422456
-0.774949816611	0.000545481853202	3.14137863311	0.00249297458573	2.19350052379e-05	0.000697147681599	3.06191005046	-0.203089361342	0.0498459750455	-1.87571405391	-0.0486052045091	-0.638859532394
-0.790006008894	0.00048865257933	3.14134278887	0.0011097269292	-5.2652449356e-05	0.000207311321045	3.87236441516	-0.116367634378	0.00810110586222	-2.27167339283	-0.058625645649	-0.756182527089
-0.81482108312	0.000129607087415	3.14138714461	-0.00425299516115	-0.00020049672865	-0.00143735195031	10.6579185705	0.289798051411	-0.0210216415738	-0.459327557433	0.117398625651	0.95664567662
-0.830652112255	3.84142242309e-05	3.14153746321	-0.00230258403456	-5.36965050468e-05	-0.00028206265225	18.0563236714	0.0876696297129	-0.0263502550679	10.1154438507	0.0887970044536	2.3360426168
-0.847188156094	-4.12211460032e-05	3.14160982779	-0.00146953444342	4.65455813448e-07	0.000101708205428	22.4345321541	-0.125688794137	-0.0320728658292	17.5272834546	-0.1087623263	-0.886943519186
-0.86139489305	-0.000105809347007	3.14165717241	0.001739424909	3.3388854602e-05	0.000412521658546	4.26717464969	-0.118184995142	-0.0322242506433	-2.64022165698	-0.106678765532	-0.908639036307
-0.875933195301	1.3808223982e-05	3.14159677736	4.53792877053e-07	8.48852177526e-06	-0.000117850660413	6.18203853373	0.0358892508518	0.0259679791799	-1.90888718247	0.0332537821391	-0.262673893474
-0.889024811232	0.000161872735124	3.14155418063	-0.00104974977179	2.37808788484e-05	-8.56967328939e-05	12.0895464368	0.134220581581	0.0715955690386	3.82286074835	0.19943830334	2.68848813847
-0.909750520439	-0.00015052342413	3.14156229276	-0.00184889424053	-0.000116180559819	-0.000821065064629	6.75975280656	0.117041616151	-0.0599254233921	-3.09348354674	-0.0344210970472	-0.845369970544
-0.923684213134	-2.39236553146e-05	3.14162893459	-0.00138806174436	2.32611644426e-05	-6.80850910477e-05	14.938668716	0.128121436699	0.0319394142593	6.49864005941	0.176555426993	3.10214143238
-0.934814565486	1.94544757797e-05	3.14163227079	0.00250956870304	6.76303118174e-05	0.000687667860023	3.7185749939	-0.16353829913	-0.00398551247986	-2.32940578752	-0.0936155660008	-0.805918543411
-0.945988794838	0.000314555280617	3.14151780657	-0.000190951386394	5.68000597987e-05	0.000118983188785	9.89063729169	0.0947457670348	0.111803326742	2.42529796608	0.20646579895	2.20621017527
-0.953769891863	0.00042876631017	3.14145978	0.00306658617343	6.43958775459e-05	0.000897836571524	2.85354263256	-0.203885227342	0.0366195178829	-1.80068251828	-0.063211411766	-0.623661521704
-0.968522711075	0.000387058227983	3.1413949297	0.00062739025653	-4.27771614859e-05	4.89226401914e-05	4.33719716571	-0.0452750536645	0.00734007543848	-2.25254882886	-0.0274271051422	-0.687788129803
-0.980161895603	0.000507004436438	3.14137370544	-0.00137092714005	-2.26659331908e-05	-0.000166681669173	11.8679023888	0.152075343488	0.0826915974367	4.38453866542	0.224763849816	2.93429828635
-0.991433754348	0.000454177792366	3.14139598167	-6.53681306053e-05	-1.47773596915e-06	0.000543412848122	-186.787415122	-0.141687449713	0.00177119887788	-1.9431203073	-0.074914724259	-0.67294558569
-1.00637456682	0.00023111773305	3.1414526927	0.000817936507006	-4.71493078749e-05	0.000106667812187	3.9509875793	-0.0620915811781	-0.0378407923899	-2.39858963208	-0.0861438339329	-0.817505048532
-1.02266911522	8.40118793075e-05	3.14149175922	-0.000802462371293	-8.09259189785e-05	-0.000437288275465	5.35973053351	0.065570937368	-0.0370287506842	-2.49226472455	-0.0283439343895	-0.691116735931
-1.04223715026	-0.000235374290705	3.14161865054	-0.000718092701612	-8.325687328e-05	-0.000441303836593	5.28858838644	0.0432450623656	-0.093334067075	-3.07139299054	-0.104853131797	-1.0207289455
-1.06067777624	-0.000396929126896	3.14171226756	-0.00111964125979	-5.48634959143e-05	-0.000559931742065	6.08377973965	0.0942013282695	-0.0726299187913	-2.94246880966	-0.0579485839158	-0.847642247292
-1.08034417816	-0.000586001797743	3.14180262143	-0.000998501167728	-3.89781363941e-05	-0.000532930878292	6.1515064744	0.081918047687	-0.0869335256489	-3.21024366828	-0.0811861327982	-0.987172494105
-1.10308937558	-0.000756058598939	3.14190017777	-0.00256012983157	-3.19357443157e-06	-0.000330945189926	-190.761770908	0.0352202237946	-0.09534278648	-3.38343639399	-0.112690325496	-1.10909841842
-1.1263505702	-0.00092036759041	3.14200493941	-0.00273641670115	3.65242718745e-05	-0.00027485495103	25.704761232	-0.0475122533878	-0.0914970200986	18.8227155532	-0.145457049336	-1.15694804636
-1.14568109854	-0.000922505832246	3.14206191693	-0.00047036094122	0.0001151475307	0.000394446956332	-193.503137923	-0.103874103214	-0.0653707171426	-3.22998708652	-0.140871460048	-1.11450517828
-1.17207068993	-0.00103991412093	3.14204034993	-0.0034783222214	4.38142136971e-06	-0.00105944526623	13.757832565	0.301106117873	-0.0206828992726	0.736690006278	0.142819545452	1.73331820293
-1.18910274935	-0.000834239080155	3.14206021544	-0.000512987372568	0.000150918813064	0.000507745896099	25.2608646463	-0.203341215755	-0.0243820790518	19.5057404383	-0.13835873219	-1.04604167452
-1.21626093539	-0.00100853456465	3.14199405787	-0.00235378072085	-2.76484651804e-05	-0.000992003653015	9.31697879257	0.164583475154	-0.0586200819791	-3.56729958402	-0.0135290569994	-0.781481499464
-1.23825885584	-0.000794356553916	3.14198259364	-0.00367031701718	6.29812805277e-05	-0.000443205287831	-191.440927248	0.144230616702	0.0252337874206	-0.340629527752	0.1063247637	1.13511808186
-1.26214590816	-0.000958713597935	3.14202094927	0.000838002419481	4.56346800686e-05	2.99371898684e-05	6.78464390748	-0.0945604288035	-0.0863829225246	-4.17642730831	-0.166254072859	-1.43588179882
-1.29107342286	-0.000885053637343	3.1419451078	-0.00452467875361	-4.02810517555e-05	-0.0014276218617	15.8730538835	0.356595134464	0.0151418991683	0.478410796538	0.206587525411	1.85078084735
-1.30645914946	-0.00065033755614	3.14197444283	0.00336677919874	0.000149465485549	0.000916178063362	5.57255313746	-0.253384876452	-0.0197250131795	-3.53458531437	-0.159397144019	-1.23130375407
-1.33509540336	-0.000551603827651	3.14184044401	-0.00249179701744	7.03633070565e-06	-0.000743101429999	14.4952344762	0.206247703648	0.0445093360876	0.66981574019	0.172880713684	1.77972807507
-1.34848283029	-0.00021376358451	3.14180101693	0.00427646621092	0.000159378408428	0.001234391583	4.99457860928	-0.315324212715	0.0267641359615	-3.16949211754	-0.133242090689	-1.10202824513
-1.37748935625	-0.000202837391779	3.14160767709	-0.00293508589139	-9.91883825003e-05	-0.00117571966146	11.0183825671	0.197938171249	0.0249474734442	-3.16958844053	0.0981919366837	-0.34925776956
-1.39967969	-0.000143619275478	3.14161991165	-0.00147000126232	-4.86284299646e-05	-0.00057864504482	11.3308802693	0.103438710529	0.0220722568255	-1.74589305812	0.0685186056006	0.421644736606
-1.42448189867	-0.00023418956328	3.14164491238	0.000139997963112	-5.11414468702e-05	-0.000228460271095	7.9106745398	-0.0530549790311	-0.0503350092083	-4.27220814294	-0.108294086043	-1.34489587031
-1.43319850013	0.000344167917138	3.14160351712	0.00605170575778	0.000203474410528	0.00186041496281	3.91797050254	-0.411156162987	0.0828933537001	-2.51779623572	-0.109780566033	-0.87670680062
-1.46084263896	0.000330330992977	3.14140099619	-0.00185350199845	-8.05130855355e-05	-0.000703981703126	11.3508206845	0.150711905945	0.0697719086588	-1.48178587706	0.144438553308	0.567050377057
-1.47442479646	0.000580512127689	3.14140704631	0.0021513039531	8.15769601612e-05	0.0013031483715	-205.109200451	-0.326277565719	0.0438995829816	-2.8193396207	-0.116975875186	-0.981423113834
-1.49131831188	0.000651051562941	3.14134220207	0.00352327781131	3.51288529954e-05	0.000969171016242	4.84667342035	-0.257787454748	0.0374960090786	-2.96445745743	-0.0942964071696	-1.00996218034
-1.51070546634	0.000658859850621	3.14130307832	0.00263827554973	-1.04825340372e-05	0.000660379165329	5.26914866877	-0.197584189206	0.0189109008627	-3.12347805646	-0.0889581884615	-1.04547790249
-1.54011747103	0.000372644108709	3.14129268254	-0.00393126226256	-0.000194209942872	-0.001350687578	13.2992400474	0.299717329332	0.00794721687924	-0.762833007978	0.15451591571	1.09834622023
-1.55769175021	0.000375487149378	3.14143443929	-0.000488524704911	1.6632239408e-06	0.000515116147349	26.5257362788	-0.231338555287	-0.0188324238611	20.4864917608	-0.146350056843	-1.10111799625
-1.58297321399	0.000160343276018	3.14145974799	-0.00269195877862	-9.45944598785e-05	-0.000810645580716	14.1621068766	0.247639553919	0.015370715411	0.975915381323	0.161527233069	1.89487234371
-1.60483571284	5.86982774253e-05	3.14153181696	-0.00207988518614	-5.60568055716e-05	-0.000594830879346	13.8923375155	0.213807557361	0.0158087407311	1.08036340564	0.147536959104	1.91911827921
-1.63172816828	-0.000176280047544	3.14159520227	-0.0038383503341	-8.92196058979e-05	-0.000724256405329	-201.840489027	0.129742080724	-0.0541880242288	-3.5559430923	-0.024420275702	-0.768105847835
-1.66113181446	-0.000509701108791	3.14176499202	-0.00342149244271	-5.3932185077e-05	-0.000636962789777	23.6862161111	0.17825824331	-0.0880012615311	10.7504051327	0.0673362627936	2.35050625949
-1.68164404692	-0.000466331301018	3.1418728249	0.000903515237375	0.000120391197876	0.000854066943648	-205.178595884	-0.194664807589	-0.0518293777195	-3.77813792017	-0.17048120921	-1.30935139683
-1.70508240187	-0.000360882107717	3.14184453281	-5.46709503109e-05	0.000128533047843	0.000658724277425	27.3174394237	-0.222056842361	-0.00956904924356	20.1785105676	-0.134014072156	-1.20457979729
-1.72789243213	-0.000264494864886	3.14178696309	-0.000678873415565	9.90971319084e-05	0.000338066571711	22.1755827876	0.0156417861965	0.0224611145939	11.6451487347	0.122926053678	2.66138034112
-1.74339580158	-6.95586196029e-05	3.1417333071	0.00428073144349	0.000150823417092	0.0012233913248	5.19550064512	-0.274186111619	0.0175092893888	-3.24939230802	-0.125706298821	-1.12188942412
-1.76120122396	0.000215849927902	3.14156647105	0.00254562524296	8.2322866751e-05	0.000651042075225	6.29611194437	-0.147643364671	0.0577535154091	-3.00163385558	-0.0223712230778	-0.846671660871
-1.77910086297	0.000406655780296	3.14143078236	0.00096536253653	6.97672674832e-06	0.000154736887865	7.64300189126	-0.0397605524326	0.0656956959642	-2.50035247039	0.0395347025613	-0.400248728028
-1.80134086881	0.000271739007812	3.14143594133	0.00137941745934	-4.51750900723e-05	0.00020704469905	6.3103397785	-0.119316239332	-0.0279074188211	-3.69574878333	-0.10952331861	-1.23050917737
-1.82541678045	0.000206931237105	3.14148852791	-0.00036136443844	-1.19172860664e-05	0.000414352846006	-203.852823027	-0.149467692357	-0.0294945382017	-3.60717695312	-0.124259180066	-1.21639010331
-1.84727045132	0.000152793289837	3.14154189089	0.000328532434831	2.76424238628e-05	0.00065444469411	-203.841493279	-0.185836569467	-0.024785767205	-3.49401461001	-0.134599203676	-1.19752392378
-1.86618235849	0.000145940107462	3.14156502669	0.00299431481541	5.25737597883e-05	0.000775687594559	5.50694559394	-0.199393911735	-0.0133497941733	-3.3847962073	-0.127303023155	-1.15894594378
-1.88378522962	0.000339620389851	3.14147122351	0.00139264369218	2.48718362164e-05	0.000284102301092	7.0254768099	-0.0567834545652	0.0476348386772	-2.70671426701	0.00970110830192	-0.591673881797
-1.8906127212	0.00076496537825	3.14139391499	0.0057937465812	0.000160548835816	0.00179047151825	3.15745956491	-0.365973937104	0.0913251236621	-2.02620848966	-0.0769625085984	-0.704255310854
-1.90986587224	0.000817072868769	3.14127068166	0.00108457119069	3.12227972099e-05	0.000947618111639	-203.92753621	-0.22416201661	0.0518635858568	-2.53494053103	-0.0604355026732	-0.850601264856
-1.94401269705	0.000204524250949	3.14131236148	-0.00626742941816	-0.000249359225566	-0.00150871820361	29.5393630239	0.145235078725	-0.091596954504	19.0577559655	-0.0643271098533	-1.2425938281
-1.97508601791	-0.000403090601762	3.14158252927	-0.00519302991689	-0.00022907797885	-0.00181696799647	14.1641150544	0.381017785887	-0.11500568777	-1.67980668819	0.0481995945007	0.704467102887
-2.0038590701	-0.000835120418048	3.14185672625	-0.00133989621543	-9.4095855018e-05	-0.000760570122942	8.75219214844	0.0888592983716	-0.171048476486	-4.99461321053	-0.18346420826	-1.63999049733
-2.02822766643	-0.000864046005993	3.14200072631	0.0013139217373	7.05252245368e-05	0.000176206253521	7.47887676848	-0.0566719178095	-0.0968783308371	-4.35157252802	-0.162262328671	-1.44384652641
-2.05023557522	-0.000711860946231	3.14199412702	0.00253563568267	0.000139772441572	0.000611517681953	6.79059001564	-0.129594351365	-0.0377409547292	-3.9156073948	-0.126471854213	-1.28950489779
-2.07162801157	-0.000528254933223	3.14193298731	0.00336653245539	0.000159976357012	0.000899878898741	6.13990833743	-0.197707803885	-0.0114159644257	-3.68721284189	-0.126332036475	-1.24513846384
-2.0942414587	-0.000301350740894	3.14183326911	0.00139056536637	0.000153026821559	0.000995885294576	-195.938337051	-0.226408524328	0.0123954384557	-3.48588081556	-0.11145371522	-1.1740448306
-2.11244491492	-0.000111212859924	3.14174439286	0.00397399919567	0.000142136017417	0.00111445371463	5.43540493069	-0.263119688462	0.0207584768717	-3.34577583677	-0.117735780008	-1.1449540214
-2.13200878162	9.3284185124e-05	3.14163938183	0.00383463410717	0.000116587916891	0.00106877897089	5.33941904056	-0.260910334497	0.0321943794956	-3.24058591392	-0.10336438778	-1.099312566
-2.15687367447	0.000224000683589	3.14147449041	-0.00284429876035	-4.96748987606e-05	-0.000738342254372	16.4444585901	0.249950568102	0.0899065757658	3.08252091037	0.269941894222	2.74474688479
-2.17504763187	0.000298084049031	3.14149419863	8.92689884182e-05	3.59302473338e-05	0.00065017925728	25.3201317327	-0.269233907254	0.00982287973379	18.9771792553	-0.131839727402	-1.11662786854
-2.20195788361	5.26123748328e-05	3.14147784281	-0.00145958556457	-0.000116876273776	-0.000727709510265	9.34156442955	0.0923403570934	-0.0300262738261	-3.64212945597	-0.0150394023467	-0.817538982967
-2.21860570766	0.000306634647651	3.14151355443	0.000126253831745	5.35624261495e-05	0.000417817086547	16.6646965724	0.0215890301493	0.0676477895002	6.33052559304	0.169467576055	3.09356319677
-2.24230427037	0.000146090289086	3.14147109875	-0.000366732304387	-7.47371565541e-05	-0.000361882967648	8.29717386007	0.0275693824167	-0.0163889822366	-3.58614152301	-0.0293410878317	-0.91762281123
-2.26002871897	0.00032332128639	3.14146880655	-3.29015218004e-06	5.92614178352e-06	6.14278583999e-06	10.9338657491	0.0610572585331	0.0671590551867	-0.201820989387	0.115416581914	1.12754077187
-2.28108838288	0.000247232781772	3.14144385891	0.000162401807541	-5.5625818896e-05	-0.000169254892331	7.79906683684	-0.000120864405861	-0.00438754313699	-3.32385427417	-0.026745351617	-0.835521202163
-2.29440437864	0.000577903684258	3.14143144824	0.00121746445479	9.58290077611e-05	0.000945688324644	18.7296735117	-0.11003377156	0.081136823343	11.2227164179	0.127201543688	2.63798962756
-2.30632255602	0.000723368821128	3.14134964571	0.00436329776474	8.29860576266e-05	0.00127848948868	4.00706047247	-0.282365773283	0.0551361870556	-2.49807112345	-0.0827113323285	-0.859029449046
-2.3340725621	0.000400519632027	3.14129567575	-0.00174750202001	-0.000163495384098	-0.000829950966871	8.36038720595	0.12009082078	-0.0282996262406	-3.51056921032	-0.000560811622741	-0.870933423627
-2.35197637039	0.000397170992471	3.14138246542	-0.000933973178006	-6.21755575425e-05	-0.000317666751544	10.711977479	0.120127816836	0.0300034190703	-0.30106499965	0.0994742015757	1.04846403125
-2.37087022341	0.000328834028279	3.14141033886	-0.000896365321839	-6.20315683477e-05	-0.000375498053895	9.69151289886	0.117129861293	0.0217198340003	-1.29929114203	0.0760117436911	0.464864846492
-2.38387997541	0.000503195890921	3.14144264702	0.0010924026174	7.82409871052e-05	0.000973186445048	22.4954931917	-0.269664568575	0.0303142876749	18.1345489837	-0.104042587557	-0.836806671958
-2.40688769129	0.000240496438454	3.14141219212	-0.00139176036375	-0.000103155124692	-0.000642192046087	8.56119873108	0.131293375466	-0.0126299352903	-2.655723176	0.0293188629399	-0.37815098763
-2.43010199861	0.000116788172606	3.14147365358	-0.00477483489174	-0.000104942107799	-0.00106421754652	22.8455595026	0.328366349277	0.0112726765222	10.6798952526	0.246843801646	3.22217276294
-2.45529123076	-0.000284030745143	3.14162111364	-0.00327646597597	-0.000118626874591	-0.00107598848842	13.2928280148	0.275443551338	-0.060245233473	-0.11977989159	0.0783969316449	1.25161785494
-2.47014630418	-0.000168417638491	3.14174412782	0.00158146636152	0.000114453239781	0.000984186346812	-169.722287545	-0.20579917053	-0.0301947838163	-3.04496203322	-0.146607224583	-1.0614193648
-2.48556177664	-4.2161472396e-05	3.1417074126	0.0036494659133	0.00013135033199	0.00103699087006	4.61664659908	-0.2080743922	0.00738955853903	-2.84026249741	-0.104540163067	-0.971911434309
-2.50013653913	0.000203847290417	3.14157419945	0.00230369606368	8.50744859751e-05	0.000608018409455	5.54487408293	-0.107488408409	0.0517720683571	-2.43400887338	-0.0070783822701	-0.63001931864
-2.51636700423	0.000267463102826	3.14149467215	0.00178002656339	2.18986569225e-05	0.000402608584891	5.35915188029	-0.102644345487	0.0166021204728	-2.79664812691	-0.0465792629551	-0.855420633748
