corentinberge/project_M2/hc10_ros/scripts/trajectoire.txt
q1	q2	q3	q4	q5	q6
-0.959931	-0.314159	1.69297	0.05	-1.98968	0.959931
-0.959930980806387	-0.314159	1.69297	0.05	-1.98968	0.959931
-0.9599308467415522	-0.314159	1.69297	0.05	-1.98968	0.959931
-0.9599304837320403	-0.314159	1.69297	0.05	-1.98968	0.959931
-0.9599297785726854	-0.314159	1.69297	0.05	-1.98968	0.959931
-0.9599286189244118	-0.314159	1.69297	0.05	-1.98968	0.959931
-0.9599268933120334	-0.314159	1.69297	0.05	-1.98968	0.959931
-0.9599244911220529	-0.314159	1.69297	0.05	-1.98968	0.959931
-0.9599213026004626	-0.314159	1.69297	0.05	-1.98968	0.959931
-0.959917218850543	-0.314159	1.69297	0.05	-1.98968	0.959931
-0.9599121318306642	-0.314159	1.69297	0.05	-1.98968	0.959931
-0.9599059343520834	-0.314159	1.69297	0.05	-1.98968	0.959931
-0.9598985200767467	-0.314159	1.69297	0.05	-1.98968	0.959931
-0.9598897835150879	-0.314159	1.69297	0.05	-1.98968	0.959931
-0.9598796200238284	-0.314159	1.69297	0.05	-1.98968	0.959931
-0.9598679258037771	-0.314159	1.69297	0.05	-1.98968	0.959931
-0.95985459789763	-0.314159	1.69297	0.05	-1.98968	0.959931
-0.9598395341877696	-0.314159	1.69297	0.05	-1.98968	0.959931
-0.9598226333940656	-0.314159	1.69297	0.05	-1.98968	0.959931
-0.9598037950716741	-0.314159	1.69297	0.05	-1.98968	0.959931
-0.9597829196088373	-0.314159	1.69297	0.05	-1.98968	0.959931
-0.9597599082246833	-0.314159	1.69297	0.05	-1.98968	0.959931
-0.9597346629670257	-0.314159	1.69297	0.05	-1.98968	0.959931
-0.9597070867101642	-0.314159	1.69297	0.05	-1.98968	0.959931
-0.9596770831526833	-0.314159	1.69297	0.05	-1.98968	0.959931
-0.9596445568152526	-0.314159	1.69297	0.05	-1.98968	0.959931
-0.9596094130384265	-0.314159	1.69297	0.05	-1.98968	0.959931
-0.9595715579804438	-0.314159	1.69297	0.05	-1.98968	0.959931
-0.9595308986150278	-0.314159	1.69297	0.05	-1.98968	0.959931
-0.9594873427291859	-0.314159	1.69297	0.05	-1.98968	0.959931
-0.9594407989210091	-0.314159	1.69297	0.05	-1.98968	0.959931
-0.959391176597472	-0.314159	1.69297	0.05	-1.98968	0.959931
-0.9593383859722328	-0.314159	1.69297	0.05	-1.98968	0.959931
-0.9592823380634323	-0.314159	1.69297	0.05	-1.98968	0.959931
-0.9592229446914949	-0.314159	1.69297	0.05	-1.98968	0.959931
-0.9591601184769271	-0.314159	1.69297	0.05	-1.98968	0.959931
-0.9590937728381177	-0.314159	1.69297	0.05	-1.98968	0.959931
-0.9590238219891382	-0.314159	1.69297	0.05	-1.98968	0.959931
-0.9589501809375415	-0.314159	1.69297	0.05	-1.98968	0.959931
-0.9588727654821624	-0.314159	1.69297	0.05	-1.98968	0.959931
-0.958791492210917	-0.314159	1.69297	0.05	-1.98968	0.959931
-0.958706278498603	-0.314159	1.69297	0.05	-1.98968	0.959931
-0.9586170425046985	-0.314159	1.69297	0.05	-1.98968	0.959931
-0.9585237031711628	-0.314159	1.69297	0.05	-1.98968	0.959931
-0.9584261802202355	-0.314159	1.69297	0.05	-1.98968	0.959931
-0.9583243941522362	-0.314159	1.69297	0.05	-1.98968	0.959931
-0.9582182662433649	-0.314159	1.69297	0.05	-1.98968	0.959931
-0.9581077185435013	-0.314159	1.69297	0.05	-1.98968	0.959931
-0.9579926738740044	-0.314159	1.69297	0.05	-1.98968	0.959931
-0.9578730558255129	-0.314159	1.69297	0.05	-1.98968	0.959931
-0.9577487887557441	-0.314159	1.69297	0.05	-1.98968	0.959931
-0.9576197977872944	-0.314159	1.69297	0.05	-1.98968	0.959931
-0.9574860088054387	-0.314159	1.69297	0.05	-1.98968	0.959931
-0.9573473484559304	-0.314159	1.69297	0.05	-1.98968	0.959931
-0.9572037441428007	-0.314159	1.69297	0.05	-1.98968	0.959931
-0.957055124026159	-0.314159	1.69297	0.05	-1.98968	0.959931
-0.9569014170199922	-0.314159	1.69297	0.05	-1.98968	0.959931
-0.9567425527899643	-0.314159	1.69297	0.05	-1.98968	0.959931
-0.9565784617512173	-0.314159	1.69297	0.05	-1.98968	0.959931
-0.9564090750661689	-0.314159	1.69297	0.05	-1.98968	0.959931
-0.9562343246423144	-0.314159	1.69297	0.05	-1.98968	0.959931
-0.9560541431300253	-0.314159	1.69297	0.05	-1.98968	0.959931
-0.9558684639203494	-0.314159	1.69297	0.05	-1.98968	0.959931
-0.9556772211428102	-0.314159	1.69297	0.05	-1.98968	0.959931
-0.9554803496632068	-0.314159	1.69297	0.05	-1.98968	0.959931
-0.9552777850814146	-0.314159	1.69297	0.05	-1.98968	0.959931
-0.9550694637291832	-0.314159	1.69297	0.05	-1.98968	0.959931
-0.954855322667938	-0.314159	1.69297	0.05	-1.98968	0.959931
-0.954635299686579	-0.314159	1.69297	0.05	-1.98968	0.959931
-0.9544093332992805	-0.314159	1.69297	0.05	-1.98968	0.959931
-0.954177362743291	-0.314159	1.69297	0.05	-1.98968	0.959931
-0.9539393279767334	-0.314159	1.69297	0.05	-1.98968	0.959931
-0.9536951696764048	-0.314159	1.69297	0.05	-1.98968	0.959931
-0.9534448292355747	-0.314159	1.69297	0.05	-1.98968	0.959931
-0.953188248761787	-0.314159	1.69297	0.05	-1.98968	0.959931
-0.9529253710746584	-0.314159	1.69297	0.05	-1.98968	0.959931
-0.9526561397036784	-0.314159	1.69297	0.05	-1.98968	0.959931
-0.9523804988860091	-0.314159	1.69297	0.05	-1.98968	0.959931
-0.9520983935642849	-0.314159	1.69297	0.05	-1.98968	0.959931
-0.9518097693844129	-0.314159	1.69297	0.05	-1.98968	0.959931
-0.9515145726933714	-0.314159	1.69297	0.05	-1.98968	0.959931
-0.9512127505370108	-0.314159	1.69297	0.05	-1.98968	0.959931
-0.950904250657853	-0.314159	1.69297	0.05	-1.98968	0.959931
-0.9505890214928907	-0.314159	1.69297	0.05	-1.98968	0.959931
-0.9502670121713881	-0.314159	1.69297	0.05	-1.98968	0.959931
-0.9499381725126798	-0.314159	1.69297	0.05	-1.98968	0.959931
-0.9496024530239707	-0.314159	1.69297	0.05	-1.98968	0.959931
-0.9492598048981364	-0.314159	1.69297	0.05	-1.98968	0.959931
-0.9489101800115225	-0.314159	1.69297	0.05	-1.98968	0.959931
-0.9485535309217437	-0.314159	1.69297	0.05	-1.98968	0.959931
-0.9481898108654851	-0.314159	1.69297	0.05	-1.98968	0.959931
-0.9478189737563008	-0.314159	1.69297	0.05	-1.98968	0.959931
-0.9474409741824136	-0.314159	1.69297	0.05	-1.98968	0.959931
-0.9470557674045157	-0.314159	1.69297	0.05	-1.98968	0.959931
-0.9466633093535672	-0.314159	1.69297	0.05	-1.98968	0.959931
-0.9462635566285975	-0.314159	1.69297	0.05	-1.98968	0.959931
-0.9458564664945031	-0.314159	1.69297	0.05	-1.98968	0.959931
-0.9454419968798491	-0.314159	1.69297	0.05	-1.98968	0.959931
-0.9450201063746679	-0.314159	1.69297	0.05	-1.98968	0.959931
-0.9445907542282593	-0.314159	1.69297	0.05	-1.98968	0.959931
-0.9441539003469903	-0.314159	1.69297	0.05	-1.98968	0.959931
-0.9437095052920951	-0.314159	1.69297	0.05	-1.98968	0.959931
-0.9432575302774739	-0.314159	1.69297	0.05	-1.98968	0.959931
-0.9427979371674942	-0.314159	1.69297	0.05	-1.98968	0.959931
-0.9423306884747888	-0.314159	1.69297	0.05	-1.98968	0.959931
-0.9418557473580575	-0.314159	1.69297	0.05	-1.98968	0.959931
-0.941373077619865	-0.314159	1.69297	0.05	-1.98968	0.959931
-0.9408826437044419	-0.314159	1.69297	0.05	-1.98968	0.959931
-0.9403844106954835	-0.314159	1.69297	0.05	-1.98968	0.959931
-0.9398783443139509	-0.314159	1.69297	0.05	-1.98968	0.959931
-0.9393644109158698	-0.314159	1.69297	0.05	-1.98968	0.959931
-0.9388425774901297	-0.314159	1.69297	0.05	-1.98968	0.959931
-0.9383128116562853	-0.314159	1.69297	0.05	-1.98968	0.959931
-0.9377750816623551	-0.314159	1.69297	0.05	-1.98968	0.959931
-0.9372293563826211	-0.314159	1.69297	0.05	-1.98968	0.959931
-0.9366756053154293	-0.314159	1.69297	0.05	-1.98968	0.959931
-0.9361137985809889	-0.314159	1.69297	0.05	-1.98968	0.959931
-0.9355439069191721	-0.314159	1.69297	0.05	-1.98968	0.959931
-0.9349659016873141	-0.314159	1.69297	0.05	-1.98968	0.959931
-0.9343797548580126	-0.314159	1.69297	0.05	-1.98968	0.959931
-0.933785439016928	-0.314159	1.69297	0.05	-1.98968	0.959931
-0.9331829273605827	-0.314159	1.69297	0.05	-1.98968	0.959931
-0.9325721936941607	-0.314159	1.69297	0.05	-1.98968	0.959931
-0.9319532124293081	-0.314159	1.69297	0.05	-1.98968	0.959931
-0.9313259585819323	-0.314159	1.69297	0.05	-1.98968	0.959931
-0.9306904077700021	-0.314159	1.69297	0.05	-1.98968	0.959931
-0.9300465362113468	-0.314159	1.69297	0.05	-1.98968	0.959931
-0.9293943207214571	-0.314159	1.69297	0.05	-1.98968	0.959931
-0.9287337387112833	-0.314159	1.69297	0.05	-1.98968	0.959931
-0.9280647681850369	-0.314159	1.69297	0.05	-1.98968	0.959931
-0.9273873877379887	-0.314159	1.69297	0.05	-1.98968	0.959931
-0.9267015765542698	-0.314159	1.69297	0.05	-1.98968	0.959931
-0.9260073144046704	-0.314159	1.69297	0.05	-1.98968	0.959931
-0.9253045816444403	-0.314159	1.69297	0.05	-1.98968	0.959931
-0.9245933592110884	-0.314159	1.69297	0.05	-1.98968	0.959931
-0.9238736286221819	-0.314159	1.69297	0.05	-1.98968	0.959931
-0.9231453719731476	-0.314159	1.69297	0.05	-1.98968	0.959931
-0.9224085719350698	-0.314159	1.69297	0.05	-1.98968	0.959931
-0.9216632117524907	-0.314159	1.69297	0.05	-1.98968	0.959931
-0.9209092752412114	-0.314159	1.69297	0.05	-1.98968	0.959931
-0.9201467467860899	-0.314159	1.69297	0.05	-1.98968	0.959931
-0.9193756113388415	-0.314159	1.69297	0.05	-1.98968	0.959931
-0.9185958544158394	-0.314159	1.69297	0.05	-1.98968	0.959931
-0.9178074620959129	-0.314159	1.69297	0.05	-1.98968	0.959931
-0.9170104210181486	-0.314159	1.69297	0.05	-1.98968	0.959931
-0.9162047183796889	-0.314159	1.69297	0.05	-1.98968	0.959931
-0.915390341933533	-0.314159	1.69297	0.05	-1.98968	0.959931
-0.914567279986336	-0.314159	1.69297	0.05	-1.98968	0.959931
-0.9137355213962085	-0.314159	1.69297	0.05	-1.98968	0.959931
-0.9128950555705164	-0.314159	1.69297	0.05	-1.98968	0.959931
-0.9120458724636815	-0.314159	1.69297	0.05	-1.98968	0.959931
-0.9111879625749802	-0.314159	1.69297	0.05	-1.98968	0.959931
-0.9103213169463439	-0.314159	1.69297	0.05	-1.98968	0.959931
-0.9094459271601579	-0.314159	1.69297	0.05	-1.98968	0.959931
-0.9085617853370627	-0.314159	1.69297	0.05	-1.98968	0.959931
-0.9076688841337522	-0.314159	1.69297	0.05	-1.98968	0.959931
-0.9067672167407748	-0.314159	1.69297	0.05	-1.98968	0.959931
-0.9058567768803314	-0.314159	1.69297	0.05	-1.98968	0.959931
-0.9049375588040774	-0.314159	1.69297	0.05	-1.98968	0.959931
-0.904009557290921	-0.314159	1.69297	0.05	-1.98968	0.959931
-0.9030727676448227	-0.314159	1.69297	0.05	-1.98968	0.959931
-0.9021271856925963	-0.314159	1.69297	0.05	-1.98968	0.959931
-0.9011728077817076	-0.314159	1.69297	0.05	-1.98968	0.959931
-0.9002096307780749	-0.314159	1.69297	0.05	-1.98968	0.959931
-0.8992376520638681	-0.314159	1.69297	0.05	-1.98968	0.959931
-0.8982568695353089	-0.314159	1.69297	0.05	-1.98968	0.959931
-0.8972672816004706	-0.314159	1.69297	0.05	-1.98968	0.959931
-0.8962688871770776	-0.314159	1.69297	0.05	-1.98968	0.959931
-0.8952616856903053	-0.314159	1.69297	0.05	-1.98968	0.959931
-0.8942456770705794	-0.314159	1.69297	0.05	-1.98968	0.959931
-0.893220861751377	-0.314159	1.69297	0.05	-1.98968	0.959931
-0.8921872406670247	-0.314159	1.69297	0.05	-1.98968	0.959931
-0.8911448152504994	-0.314159	1.69297	0.05	-1.98968	0.959931
-0.8900935874312277	-0.314159	1.69297	0.05	-1.98968	0.959931
-0.8890335596328858	-0.314159	1.69297	0.05	-1.98968	0.959931
-0.8879647347711992	-0.314159	1.69297	0.05	-1.98968	0.959931
-0.8868871162517424	-0.314159	1.69297	0.05	-1.98968	0.959931
-0.8858007079677391	-0.314159	1.69297	0.05	-1.98968	0.959931
-0.884705514297861	-0.314159	1.69297	0.05	-1.98968	0.959931
-0.8836015401040286	-0.314159	1.69297	0.05	-1.98968	0.959931
-0.8824887907292103	-0.314159	1.69297	0.05	-1.98968	0.959931
-0.8813672719952221	-0.314159	1.69297	0.05	-1.98968	0.959931
-0.8802369902005286	-0.314159	1.69297	0.05	-1.98968	0.959931
-0.8790979521180408	-0.314159	1.69297	0.05	-1.98968	0.959931
-0.8779501649929171	-0.314159	1.69297	0.05	-1.98968	0.959931
-0.8767936365403632	-0.314159	1.69297	0.05	-1.98968	0.959931
-0.8756283749434314	-0.314159	1.69297	0.05	-1.98968	0.959931
-0.8744543888508199	-0.314159	1.69297	0.05	-1.98968	0.959931
-0.873271687374674	-0.314159	1.69297	0.05	-1.98968	0.959931
-0.872080280088384	-0.314159	1.69297	0.05	-1.98968	0.959931
-0.8708801770243866	-0.314159	1.69297	0.05	-1.98968	0.959931
-0.8696713886719639	-0.314159	1.69297	0.05	-1.98968	0.959931
-0.868453925975043	-0.314159	1.69297	0.05	-1.98968	0.959931
-0.8672278003299964	-0.314159	1.69297	0.05	-1.98968	0.959931
-0.865993023583441	-0.314159	1.69297	0.05	-1.98968	0.959931
-0.8647496080300386	-0.314159	1.69297	0.05	-1.98968	0.959931
-0.8634975664102951	-0.314159	1.69297	0.05	-1.98968	0.959931
-0.8622369119083603	-0.314159	1.69297	0.05	-1.98968	0.959931
-0.8609676581498283	-0.314159	1.69297	0.05	-1.98968	0.959931
-0.8596898191995366	-0.314159	1.69297	0.05	-1.98968	0.959931
-0.8584034095593654	-0.314159	1.69297	0.05	-1.98968	0.959931
-0.8571084441660393	-0.314159	1.69297	0.05	-1.98968	0.959931
-0.8558049383889247	-0.314159	1.69297	0.05	-1.98968	0.959931
-0.854492908027831	-0.314159	1.69297	0.05	-1.98968	0.959931
-0.8531723693108101	-0.314159	1.69297	0.05	-1.98968	0.959931
-0.8518433388919561	-0.314159	1.69297	0.05	-1.98968	0.959931
-0.8505058338492046	-0.314159	1.69297	0.05	-1.98968	0.959931
-0.8491598716821336	-0.314159	1.69297	0.05	-1.98968	0.959931
-0.8478054703097619	-0.314159	1.69297	0.05	-1.98968	0.959931
-0.8464426480683498	-0.314159	1.69297	0.05	-1.98968	0.959931
-0.8450714237091985	-0.314159	1.69297	0.05	-1.98968	0.959931
-0.8436918163964501	-0.314159	1.69297	0.05	-1.98968	0.959931
-0.8423038457048869	-0.314159	1.69297	0.05	-1.98968	0.959931
-0.8409075316177319	-0.314159	1.69297	0.05	-1.98968	0.959931
-0.8395028945244476	-0.314159	1.69297	0.05	-1.98968	0.959931
-0.8380899552185367	-0.314159	1.69297	0.05	-1.98968	0.959931
-0.836668734895341	-0.314159	1.69297	0.05	-1.98968	0.959931
-0.8352392551498423	-0.314159	1.69297	0.05	-1.98968	0.959931
-0.8338015379744609	-0.314159	1.69297	0.05	-1.98968	0.959931
-0.8323556057568561	-0.314159	1.69297	0.05	-1.98968	0.959931
-0.8309014812777257	-0.314159	1.69297	0.05	-1.98968	0.959931
-0.8294391877086059	-0.314159	1.69297	0.05	-1.98968	0.959931
-0.8279687486096714	-0.314159	1.69297	0.05	-1.98968	0.959931
-0.8264901879275341	-0.314159	1.69297	0.05	-1.98968	0.959931
-0.825003529993044	-0.314159	1.69297	0.05	-1.98968	0.959931
-0.8235087995190885	-0.314159	1.69297	0.05	-1.98968	0.959931
-0.822006021598392	-0.314159	1.69297	0.05	-1.98968	0.959931
-0.8204952217013157	-0.314159	1.69297	0.05	-1.98968	0.959931
-0.818976425673658	-0.314159	1.69297	0.05	-1.98968	0.959931
-0.8174496597344532	-0.314159	1.69297	0.05	-1.98968	0.959931
-0.815914950473772	-0.314159	1.69297	0.05	-1.98968	0.959931
-0.8143723248505216	-0.314159	1.69297	0.05	-1.98968	0.959931
-0.8128218101902438	-0.314159	1.69297	0.05	-1.98968	0.959931
-0.8112634341829168	-0.314159	1.69297	0.05	-1.98968	0.959931
-0.8096972248807539	-0.314159	1.69297	0.05	-1.98968	0.959931
-0.8081232106960036	-0.314159	1.69297	0.05	-1.98968	0.959931
-0.8065414203987482	-0.314159	1.69297	0.05	-1.98968	0.959931
-0.804951883114706	-0.314159	1.69297	0.05	-1.98968	0.959931
-0.8033546283230283	-0.314159	1.69297	0.05	-1.98968	0.959931
-0.8017496858541016	-0.314159	1.69297	0.05	-1.98968	0.959931
-0.8001370858873453	-0.314159	1.69297	0.05	-1.98968	0.959931
-0.798516858949013	-0.314159	1.69297	0.05	-1.98968	0.959931
-0.7968890359099914	-0.314159	1.69297	0.05	-1.98968	0.959931
-0.7952536479836004	-0.314159	1.69297	0.05	-1.98968	0.959931
-0.7936107267233925	-0.314159	1.69297	0.05	-1.98968	0.959931
-0.7919603040209534	-0.314159	1.69297	0.05	-1.98968	0.959931
-0.7903024121037007	-0.314159	1.69297	0.05	-1.98968	0.959931
-0.7886370835326845	-0.314159	1.69297	0.05	-1.98968	0.959931
-0.7869643512003864	-0.314159	1.69297	0.05	-1.98968	0.959931
-0.7852842483285203	-0.314159	1.69297	0.05	-1.98968	0.959931
-0.7835968084658314	-0.314159	1.69297	0.05	-1.98968	0.959931
-0.7819020654858952	-0.314159	1.69297	0.05	-1.98968	0.959931
-0.7802000535849197	-0.314159	1.69297	0.05	-1.98968	0.959931
-0.7784908072795426	-0.314159	1.69297	0.05	-1.98968	0.959931
-0.7767743614046322	-0.314159	1.69297	0.05	-1.98968	0.959931
-0.7750507511110875	-0.314159	1.69297	0.05	-1.98968	0.959931
-0.773320011863637	-0.314159	1.69297	0.05	-1.98968	0.959931
-0.7715821794386393	-0.314159	1.69297	0.05	-1.98968	0.959931
-0.7698372899218828	-0.314159	1.69297	0.05	-1.98968	0.959931
-0.7680853797063845	-0.314159	1.69297	0.05	-1.98968	0.959931
-0.7663264854901911	-0.314159	1.69297	0.05	-1.98968	0.959931
-0.7645606442741777	-0.314159	1.69297	0.05	-1.98968	0.959931
-0.7627878933598486	-0.314159	1.69297	0.05	-1.98968	0.959931
-0.7610082703471357	-0.314159	1.69297	0.05	-1.98968	0.959931
-0.7592218131321996	-0.314159	1.69297	0.05	-1.98968	0.959931
-0.7574285599052283	-0.314159	1.69297	0.05	-1.98968	0.959931
-0.755628549148238	-0.314159	1.69297	0.05	-1.98968	0.959931
-0.7538218196328719	-0.314159	1.69297	0.05	-1.98968	0.959931
-0.7520084104182004	-0.314159	1.69297	0.05	-1.98968	0.959931
-0.7501883608485211	-0.314159	1.69297	0.05	-1.98968	0.959931
-0.7483617105511582	-0.314159	1.69297	0.05	-1.98968	0.959931
-0.7465284994342618	-0.314159	1.69297	0.05	-1.98968	0.959931
-0.7446887676846092	-0.314159	1.69297	0.05	-1.98968	0.959931
-0.7428425557654031	-0.314159	1.69297	0.05	-1.98968	0.959931
-0.7409899044140715	-0.314159	1.69297	0.05	-1.98968	0.959931
-0.7391308546400688	-0.314159	1.69297	0.05	-1.98968	0.959931
-0.7372654477226745	-0.314159	1.69297	0.05	-1.98968	0.959931
-0.7353937252087924	-0.314159	1.69297	0.05	-1.98968	0.959931
-0.733515728910752	-0.314159	1.69297	0.05	-1.98968	0.959931
-0.7316315009041067	-0.314159	1.69297	0.05	-1.98968	0.959931
-0.7297410835254344	-0.314159	1.69297	0.05	-1.98968	0.959931
-0.7278445193701373	-0.314159	1.69297	0.05	-1.98968	0.959931
-0.725941851290241	-0.314159	1.69297	0.05	-1.98968	0.959931
-0.7240331223921953	-0.314159	1.69297	0.05	-1.98968	0.959931
-0.7221183760346729	-0.314159	1.69297	0.05	-1.98968	0.959931
-0.7201976558263696	-0.314159	1.69297	0.05	-1.98968	0.959931
-0.7182710056238044	-0.314159	1.69297	0.05	-1.98968	0.959931
-0.7163384695291186	-0.314159	1.69297	0.05	-1.98968	0.959931
-0.7144000918878761	-0.314159	1.69297	0.05	-1.98968	0.959931
-0.712455917286863	-0.314159	1.69297	0.05	-1.98968	0.959931
-0.7105059905518873	-0.314159	1.69297	0.05	-1.98968	0.959931
-0.7085503567455786	-0.314159	1.69297	0.05	-1.98968	0.959931
-0.7065890611651882	-0.314159	1.69297	0.05	-1.98968	0.959931
-0.7046221493403884	-0.314159	1.69297	0.05	-1.98968	0.959931
-0.7026496670310723	-0.314159	1.69297	0.05	-1.98968	0.959931
-0.7006716602251541	-0.314159	1.69297	0.05	-1.98968	0.959931
-0.6986881751363685	-0.314159	1.69297	0.05	-1.98968	0.959931
-0.6966992582020701	-0.314159	1.69297	0.05	-1.98968	0.959931
-0.6947049560810339	-0.314159	1.69297	0.05	-1.98968	0.959931
-0.6927053156512546	-0.314159	1.69297	0.05	-1.98968	0.959931
-0.6907003840077464	-0.314159	1.69297	0.05	-1.98968	0.959931
-0.6886902084603428	-0.314159	1.69297	0.05	-1.98968	0.959931
-0.6866748365314961	-0.314159	1.69297	0.05	-1.98968	0.959931
-0.6846543159540783	-0.314159	1.69297	0.05	-1.98968	0.959931
-0.6826286946691792	-0.314159	1.69297	0.05	-1.98968	0.959931
-0.6805980208239066	-0.314159	1.69297	0.05	-1.98968	0.959931
-0.678562342769188	-0.314159	1.69297	0.05	-1.98968	0.959931
-0.6765217090575673	-0.314159	1.69297	0.05	-1.98968	0.959931
-0.6744761684410064	-0.314159	1.69297	0.05	-1.98968	0.959931
-0.6724257698686852	-0.314159	1.69297	0.05	-1.98968	0.959931
-0.6703705624847999	-0.314159	1.69297	0.05	-1.98968	0.959931
-0.6683105956263643	-0.314159	1.69297	0.05	-1.98968	0.959931
-0.6662459188210086	-0.314159	1.69297	0.05	-1.98968	0.959931
-0.6641765817847793	-0.314159	1.69297	0.05	-1.98968	0.959931
-0.66210263441994	-0.314159	1.69297	0.05	-1.98968	0.959931
-0.660024126812769	-0.314159	1.69297	0.05	-1.98968	0.959931
-0.6579411092313608	-0.314159	1.69297	0.05	-1.98968	0.959931
-0.6558536321234263	-0.314159	1.69297	0.05	-1.98968	0.959931
-0.6537617461140904	-0.314159	1.69297	0.05	-1.98968	0.959931
-0.6516655020036937	-0.314159	1.69297	0.05	-1.98968	0.959931
-0.6495649507655915	-0.314159	1.69297	0.05	-1.98968	0.959931
-0.6474601435439533	-0.314159	1.69297	0.05	-1.98968	0.959931
-0.6453511316515637	-0.314159	1.69297	0.05	-1.98968	0.959931
-0.6432379665676206	-0.314159	1.69297	0.05	-1.98968	0.959931
-0.6411206999355361	-0.314159	1.69297	0.05	-1.98968	0.959931
-0.6389993835607356	-0.314159	1.69297	0.05	-1.98968	0.959931
-0.6368740694084586	-0.314159	1.69297	0.05	-1.98968	0.959931
-0.6347448096015569	-0.314159	1.69297	0.05	-1.98968	0.959931
-0.6326116564182955	-0.314159	1.69297	0.05	-1.98968	0.959931
-0.6304746622901521	-0.314159	1.69297	0.05	-1.98968	0.959931
-0.6283338797996169	-0.314159	1.69297	0.05	-1.98968	0.959931
-0.6261893616779918	-0.314159	1.69297	0.05	-1.98968	0.959931
-0.6240411608031915	-0.314159	1.69297	0.05	-1.98968	0.959931
-0.6218893301975412	-0.314159	1.69297	0.05	-1.98968	0.959931
-0.619733923025579	-0.314159	1.69297	0.05	-1.98968	0.959931
-0.6175749925918528	-0.314159	1.69297	0.05	-1.98968	0.959931
-0.6154125923387224	-0.314159	1.69297	0.05	-1.98968	0.959931
-0.6132467758441581	-0.314159	1.69297	0.05	-1.98968	0.959931
-0.6110775968195408	-0.314159	1.69297	0.05	-1.98968	0.959931
-0.6089051091074612	-0.314159	1.69297	0.05	-1.98968	0.959931
-0.6067293666795207	-0.314159	1.69297	0.05	-1.98968	0.959931
-0.6045504236341299	-0.314159	1.69297	0.05	-1.98968	0.959931
-0.6023683341943098	-0.314159	1.69297	0.05	-1.98968	0.959931
-0.6001831527054893	-0.314159	1.69297	0.05	-1.98968	0.959931
-0.5979949336333079	-0.314159	1.69297	0.05	-1.98968	0.959931
-0.5958037315614129	-0.314159	1.69297	0.05	-1.98968	0.959931
-0.5936096011892609	-0.314159	1.69297	0.05	-1.98968	0.959931
-0.5914125973299161	-0.314159	1.69297	0.05	-1.98968	0.959931
-0.5892127749078515	-0.314159	1.69297	0.05	-1.98968	0.959931
-0.5870101889567478	-0.314159	1.69297	0.05	-1.98968	0.959931
-0.5848048946172932	-0.314159	1.69297	0.05	-1.98968	0.959931
-0.5825969471349834	-0.314159	1.69297	0.05	-1.98968	0.959931
-0.5803864018579215	-0.314159	1.69297	0.05	-1.98968	0.959931
-0.5781733142346168	-0.314159	1.69297	0.05	-1.98968	0.959931
-0.5759577398117862	-0.314159	1.69297	0.05	-1.98968	0.959931
-0.5737397342321527	-0.314159	1.69297	0.05	-1.98968	0.959931
-0.5715193532322455	-0.314159	1.69297	0.05	-1.98968	0.959931
-0.5692966526401995	-0.314159	1.69297	0.05	-1.98968	0.959931
-0.567071688373556	-0.314159	1.69297	0.05	-1.98968	0.959931
-0.5648445164370612	-0.314159	1.69297	0.05	-1.98968	0.959931
-0.5626151929204667	-0.314159	1.69297	0.05	-1.98968	0.959931
-0.5603837739963294	-0.314159	1.69297	0.05	-1.98968	0.959931
-0.558150315917811	-0.314159	1.69297	0.05	-1.98968	0.959931
-0.5559148750164772	-0.314159	1.69297	0.05	-1.98968	0.959931
-0.5536775077000984	-0.314159	1.69297	0.05	-1.98968	0.959931
-0.5514382704504496	-0.314159	1.69297	0.05	-1.98968	0.959931
-0.5491972198211087	-0.314159	1.69297	0.05	-1.98968	0.959931
-0.5469544124352574	-0.314159	1.69297	0.05	-1.98968	0.959931
-0.5447099049834816	-0.314159	1.69297	0.05	-1.98968	0.959931
-0.5424637542215693	-0.314159	1.69297	0.05	-1.98968	0.959931
-0.5402160169683121	-0.314159	1.69297	0.05	-1.98968	0.959931
-0.5379667501033036	-0.314159	1.69297	0.05	-1.98968	0.959931
-0.5357160105647407	-0.314159	1.69297	0.05	-1.98968	0.959931
-0.5334638553472212	-0.314159	1.69297	0.05	-1.98968	0.959931
-0.531210341499546	-0.314159	1.69297	0.05	-1.98968	0.959931
-0.5289555261225174	-0.314159	1.69297	0.05	-1.98968	0.959931
-0.5266994663667387	-0.314159	1.69297	0.05	-1.98968	0.959931
-0.5244422194304152	-0.314159	1.69297	0.05	-1.98968	0.959931
-0.5221838425571524	-0.314159	1.69297	0.05	-1.98968	0.959931
-0.5199243930337573	-0.314159	1.69297	0.05	-1.98968	0.959931
-0.5176639281880364	-0.314159	1.69297	0.05	-1.98968	0.959931
-0.5154025053865975	-0.314159	1.69297	0.05	-1.98968	0.959931
-0.5131401820326481	-0.314159	1.69297	0.05	-1.98968	0.959931
-0.5108770155637948	-0.314159	1.69297	0.05	-1.98968	0.959931
-0.508613063449845	-0.314159	1.69297	0.05	-1.98968	0.959931
-0.5063483831906048	-0.314159	1.69297	0.05	-1.98968	0.959931
-0.5040830323136788	-0.314159	1.69297	0.05	-1.98968	0.959931
-0.5018170683722715	-0.314159	1.69297	0.05	-1.98968	0.959931
-0.49955054894298523	-0.314159	1.69297	0.05	-1.98968	0.959931
-0.49728353162362104	-0.314159	1.69297	0.05	-1.98968	0.959931
-0.49501607403097847	-0.314159	1.69297	0.05	-1.98968	0.959931
-0.49274823379865373	-0.314159	1.69297	0.05	-1.98968	0.959931
-0.49048006857484194	-0.314159	1.69297	0.05	-1.98968	0.959931
-0.4882116360201352	-0.314159	1.69297	0.05	-1.98968	0.959931
-0.48594299380532247	-0.314159	1.69297	0.05	-1.98968	0.959931
-0.48367419960919006	-0.314159	1.69297	0.05	-1.98968	0.959931
-0.4814053111163211	-0.314159	1.69297	0.05	-1.98968	0.959931
-0.47913638601489467	-0.314159	1.69297	0.05	-1.98968	0.959931
-0.47686748199448625	-0.314159	1.69297	0.05	-1.98968	0.959931
-0.4745986567438676	-0.314159	1.69297	0.05	-1.98968	0.959931
-0.4723299679488058	-0.314159	1.69297	0.05	-1.98968	0.959931
-0.47006147328986386	-0.314159	1.69297	0.05	-1.98968	0.959931
-0.46779323044019977	-0.314159	1.69297	0.05	-1.98968	0.959931
-0.46552529706336687	-0.314159	1.69297	0.05	-1.98968	0.959931
-0.4632577308111126	-0.314159	1.69297	0.05	-1.98968	0.959931
-0.46099058932117987	-0.314159	1.69297	0.05	-1.98968	0.959931
-0.45872393021510527	-0.314159	1.69297	0.05	-1.98968	0.959931
-0.4564578110960198	-0.314159	1.69297	0.05	-1.98968	0.959931
-0.45419228954644764	-0.314159	1.69297	0.05	-1.98968	0.959931
-0.4519274231261082	-0.314159	1.69297	0.05	-1.98968	0.959931
-0.4496632693697123	-0.314159	1.69297	0.05	-1.98968	0.959931
-0.44739988578476475	-0.314159	1.69297	0.05	-1.98968	0.959931
-0.4451373298493636	-0.314159	1.69297	0.05	-1.98968	0.959931
-0.44287565900999937	-0.314159	1.69297	0.05	-1.98968	0.959931
-0.4406149306793543	-0.314159	1.69297	0.05	-1.98968	0.959931
-0.4383552022341039	-0.314159	1.69297	0.05	-1.98968	0.959931
-0.4360965310127145	-0.314159	1.69297	0.05	-1.98968	0.959931
-0.43383897431324525	-0.314159	1.69297	0.05	-1.98968	0.959931
-0.4315825893911459	-0.314159	1.69297	0.05	-1.98968	0.959931
-0.4293274334570578	-0.314159	1.69297	0.05	-1.98968	0.959931
-0.42707356367461324	-0.314159	1.69297	0.05	-1.98968	0.959931
-0.4248210371582355	-0.314159	1.69297	0.05	-1.98968	0.959931
-0.42256991097093743	-0.314159	1.69297	0.05	-1.98968	0.959931
-0.42032024212212366	-0.314159	1.69297	0.05	-1.98968	0.959931
-0.41807208756538744	-0.314159	1.69297	0.05	-1.98968	0.959931
-0.4158255041963126	-0.314159	1.69297	0.05	-1.98968	0.959931
-0.4135805488502726	-0.314159	1.69297	0.05	-1.98968	0.959931
-0.41133727830022937	-0.314159	1.69297	0.05	-1.98968	0.959931
-0.4090957492545355	-0.314159	1.69297	0.05	-1.98968	0.959931
-0.40685601835473034	-0.314159	1.69297	0.05	-1.98968	0.959931
-0.4046181421733439	-0.314159	1.69297	0.05	-1.98968	0.959931
-0.4023821772116928	-0.314159	1.69297	0.05	-1.98968	0.959931
-0.400148179897683	-0.314159	1.69297	0.05	-1.98968	0.959931
-0.3979162065836079	-0.314159	1.69297	0.05	-1.98968	0.959931
-0.3956863135439488	-0.314159	1.69297	0.05	-1.98968	0.959931
-0.39345855697317417	-0.314159	1.69297	0.05	-1.98968	0.959931
-0.39123299298353953	-0.314159	1.69297	0.05	-1.98968	0.959931
-0.3890096776028879	-0.314159	1.69297	0.05	-1.98968	0.959931
-0.3867886667724479	-0.314159	1.69297	0.05	-1.98968	0.959931
-0.38457001634463567	-0.314159	1.69297	0.05	-1.98968	0.959931
-0.3823537820808539	-0.314159	1.69297	0.05	-1.98968	0.959931
-0.38014001964928995	-0.314159	1.69297	0.05	-1.98968	0.959931
-0.37792878462271756	-0.314159	1.69297	0.05	-1.98968	0.959931
-0.3757201324762963	-0.314159	1.69297	0.05	-1.98968	0.959931
-0.373514118585371	-0.314159	1.69297	0.05	-1.98968	0.959931
-0.37131079822327057	-0.314159	1.69297	0.05	-1.98968	0.959931
-0.36911022655910986	-0.314159	1.69297	0.05	-1.98968	0.959931
-0.3669124586555878	-0.314159	1.69297	0.05	-1.98968	0.959931
-0.36471754946678764	-0.314159	1.69297	0.05	-1.98968	0.959931
-0.36252555383597684	-0.314159	1.69297	0.05	-1.98968	0.959931
-0.3603365264934065	-0.314159	1.69297	0.05	-1.98968	0.959931
-0.3581505220541111	-0.314159	1.69297	0.05	-1.98968	0.959931
-0.35596759501570985	-0.314159	1.69297	0.05	-1.98968	0.959931
-0.35378779975620317	-0.314159	1.69297	0.05	-1.98968	0.959931
-0.3516111905317757	-0.314159	1.69297	0.05	-1.98968	0.959931
-0.349437821474594	-0.314159	1.69297	0.05	-1.98968	0.959931
-0.34726774659060755	-0.314159	1.69297	0.05	-1.98968	0.959931
-0.3451010197573484	-0.314159	1.69297	0.05	-1.98968	0.959931
-0.342937694721729	-0.314159	1.69297	0.05	-1.98968	0.959931
-0.3407778250978448	-0.314159	1.69297	0.05	-1.98968	0.959931
-0.3386214643647728	-0.314159	1.69297	0.05	-1.98968	0.959931
-0.33646866586437063	-0.314159	1.69297	0.05	-1.98968	0.959931
-0.33431948279907653	-0.314159	1.69297	0.05	-1.98968	0.959931
-0.33217396822971107	-0.314159	1.69297	0.05	-1.98968	0.959931
-0.3300321750732735	-0.314159	1.69297	0.05	-1.98968	0.959931
-0.32789415610074485	-0.314159	1.69297	0.05	-1.98968	0.959931
-0.325759963934885	-0.314159	1.69297	0.05	-1.98968	0.959931
-0.3236296510480341	-0.314159	1.69297	0.05	-1.98968	0.959931
-0.32150326975991234	-0.314159	1.69297	0.05	-1.98968	0.959931
-0.3193808722354182	-0.314159	1.69297	0.05	-1.98968	0.959931
-0.31726251048243087	-0.314159	1.69297	0.05	-1.98968	0.959931
-0.3151482363496061	-0.314159	1.69297	0.05	-1.98968	0.959931
-0.31303810152418055	-0.314159	1.69297	0.05	-1.98968	0.959931
-0.3109321575297673	-0.314159	1.69297	0.05	-1.98968	0.959931
-0.30883045572415996	-0.314159	1.69297	0.05	-1.98968	0.959931
-0.30673304729712686	-0.314159	1.69297	0.05	-1.98968	0.959931
-0.3046399832682164	-0.314159	1.69297	0.05	-1.98968	0.959931
-0.3025513144845537	-0.314159	1.69297	0.05	-1.98968	0.959931
-0.30046709161864116	-0.314159	1.69297	0.05	-1.98968	0.959931
-0.29838736516615816	-0.314159	1.69297	0.05	-1.98968	0.959931
-0.2963121854437596	-0.314159	1.69297	0.05	-1.98968	0.959931
-0.29424160258687926	-0.314159	1.69297	0.05	-1.98968	0.959931
-0.292175666547525	-0.314159	1.69297	0.05	-1.98968	0.959931
-0.29011442709208185	-0.314159	1.69297	0.05	-1.98968	0.959931
-0.28805793379910927	-0.314159	1.69297	0.05	-1.98968	0.959931
-0.2860062360571446	-0.314159	1.69297	0.05	-1.98968	0.959931
-0.2839593830624976	-0.314159	1.69297	0.05	-1.98968	0.959931
-0.28191742381705576	-0.314159	1.69297	0.05	-1.98968	0.959931
-0.2798804071260791	-0.314159	1.69297	0.05	-1.98968	0.959931
-0.27784838159600345	-0.314159	1.69297	0.05	-1.98968	0.959931
-0.27582139563223906	-0.314159	1.69297	0.05	-1.98968	0.959931
-0.2737994974369693	-0.314159	1.69297	0.05	-1.98968	0.959931
-0.2717827350069525	-0.314159	1.69297	0.05	-1.98968	0.959931
-0.26977115613131986	-0.314159	1.69297	0.05	-1.98968	0.959931
-0.2677648083893768	-0.314159	1.69297	0.05	-1.98968	0.959931
-0.2657637391484001	-0.314159	1.69297	0.05	-1.98968	0.959931
-0.2637679955614416	-0.314159	1.69297	0.05	-1.98968	0.959931
-0.26177762456512466	-0.314159	1.69297	0.05	-1.98968	0.959931
-0.25979267287744534	-0.314159	1.69297	0.05	-1.98968	0.959931
-0.2578131869955709	-0.314159	1.69297	0.05	-1.98968	0.959931
-0.25583921319364256	-0.314159	1.69297	0.05	-1.98968	0.959931
-0.25387079752057073	-0.314159	1.69297	0.05	-1.98968	0.959931
-0.25190798579784035	-0.314159	1.69297	0.05	-1.98968	0.959931
-0.24995082361730392	-0.314159	1.69297	0.05	-1.98968	0.959931
-0.24799935633898906	-0.314159	1.69297	0.05	-1.98968	0.959931
-0.24605362908889017	-0.314159	1.69297	0.05	-1.98968	0.959931
-0.24411368675677547	-0.314159	1.69297	0.05	-1.98968	0.959931
-0.24217957399398005	-0.314159	1.69297	0.05	-1.98968	0.959931
-0.2402513352112129	-0.314159	1.69297	0.05	-1.98968	0.959931
-0.23832901457635025	-0.314159	1.69297	0.05	-1.98968	0.959931
-0.23641265601223738	-0.314159	1.69297	0.05	-1.98968	0.959931
-0.23450230319449128	-0.314159	1.69297	0.05	-1.98968	0.959931
-0.23259799954929716	-0.314159	1.69297	0.05	-1.98968	0.959931
-0.23069978825120796	-0.314159	1.69297	0.05	-1.98968	0.959931
-0.22880771222094554	-0.314159	1.69297	0.05	-1.98968	0.959931
-0.22692181412320156	-0.314159	1.69297	0.05	-1.98968	0.959931
-0.22504213636443438	-0.314159	1.69297	0.05	-1.98968	0.959931
-0.22316872109066976	-0.314159	1.69297	0.05	-1.98968	0.959931
-0.22130161018530436	-0.314159	1.69297	0.05	-1.98968	0.959931
-0.21944084526689756	-0.314159	1.69297	0.05	-1.98968	0.959931
-0.2175864676869801	-0.314159	1.69297	0.05	-1.98968	0.959931
-0.21573851852784742	-0.314159	1.69297	0.05	-1.98968	0.959931
-0.2138970386003607	-0.314159	1.69297	0.05	-1.98968	0.959931
-0.21206206844175124	-0.314159	1.69297	0.05	-1.98968	0.959931
-0.2102336483134134	-0.314159	1.69297	0.05	-1.98968	0.959931
-0.20841181819870802	-0.314159	1.69297	0.05	-1.98968	0.959931
-0.20659661780076277	-0.314159	1.69297	0.05	-1.98968	0.959931
-0.2047880865402706	-0.314159	1.69297	0.05	-1.98968	0.959931
-0.20298626355328864	-0.314159	1.69297	0.05	-1.98968	0.959931
-0.20119118768903943	-0.314159	1.69297	0.05	-1.98968	0.959931
-0.19940289750771234	-0.314159	1.69297	0.05	-1.98968	0.959931
-0.19762143127825804	-0.314159	1.69297	0.05	-1.98968	0.959931
-0.1958468269761947	-0.314159	1.69297	0.05	-1.98968	0.959931
-0.19407912228140156	-0.314159	1.69297	0.05	-1.98968	0.959931
-0.1923183545759236	-0.314159	1.69297	0.05	-1.98968	0.959931
-0.19056456094176888	-0.314159	1.69297	0.05	-1.98968	0.959931
-0.18881777815871004	-0.314159	1.69297	0.05	-1.98968	0.959931
-0.18707804270207973	-0.314159	1.69297	0.05	-1.98968	0.959931
-0.18534539074057732	-0.314159	1.69297	0.05	-1.98968	0.959931
-0.18361985813406267	-0.314159	1.69297	0.05	-1.98968	0.959931
-0.18190148043135856	-0.314159	1.69297	0.05	-1.98968	0.959931
-0.18019029286804922	-0.314159	1.69297	0.05	-1.98968	0.959931
-0.17848633036428174	-0.314159	1.69297	0.05	-1.98968	0.959931
-0.17678962752256466	-0.314159	1.69297	0.05	-1.98968	0.959931
-0.17510021862556813	-0.314159	1.69297	0.05	-1.98968	0.959931
-0.17341813763392344	-0.314159	1.69297	0.05	-1.98968	0.959931
-0.17174341818402294	-0.314159	1.69297	0.05	-1.98968	0.959931
-0.17007609358581832	-0.314159	1.69297	0.05	-1.98968	0.959931
-0.16841619682062425	-0.314159	1.69297	0.05	-1.98968	0.959931
-0.1667637605389144	-0.314159	1.69297	0.05	-1.98968	0.959931
-0.16511881705812193	-0.314159	1.69297	0.05	-1.98968	0.959931
-0.16348139836044184	-0.314159	1.69297	0.05	-1.98968	0.959931
-0.16185153609062652	-0.314159	1.69297	0.05	-1.98968	0.959931
-0.16022926155378803	-0.314159	1.69297	0.05	-1.98968	0.959931
-0.1586146057131982	-0.314159	1.69297	0.05	-1.98968	0.959931
-0.15700759918808815	-0.314159	1.69297	0.05	-1.98968	0.959931
-0.15540827225144682	-0.314159	1.69297	0.05	-1.98968	0.959931
-0.1538166548278208	-0.314159	1.69297	0.05	-1.98968	0.959931
-0.15223277649111633	-0.314159	1.69297	0.05	-1.98968	0.959931
-0.15065666646239673	-0.314159	1.69297	0.05	-1.98968	0.959931
-0.1490883536076839	-0.314159	1.69297	0.05	-1.98968	0.959931
-0.14752786643575466	-0.314159	1.69297	0.05	-1.98968	0.959931
-0.1459752330959463	-0.314159	1.69297	0.05	-1.98968	0.959931
-0.14443048137595138	-0.314159	1.69297	0.05	-1.98968	0.959931
-0.14289363869961846	-0.314159	1.69297	0.05	-1.98968	0.959931
-0.1413647321247551	-0.314159	1.69297	0.05	-1.98968	0.959931
-0.1398437883409216	-0.314159	1.69297	0.05	-1.98968	0.959931
-0.13833083366723686	-0.314159	1.69297	0.05	-1.98968	0.959931
-0.13682589405017564	-0.314159	1.69297	0.05	-1.98968	0.959931
-0.13532899506136586	-0.314159	1.69297	0.05	-1.98968	0.959931
-0.13384016189539283	-0.314159	1.69297	0.05	-1.98968	0.959931
-0.132359419367597	-0.314159	1.69297	0.05	-1.98968	0.959931
-0.13088679191187214	-0.314159	1.69297	0.05	-1.98968	0.959931
-0.12942230357846696	-0.314159	1.69297	0.05	-1.98968	0.959931
-0.12796597803178544	-0.314159	1.69297	0.05	-1.98968	0.959931
-0.1265178385481851	-0.314159	1.69297	0.05	-1.98968	0.959931
-0.12507790801377805	-0.314159	1.69297	0.05	-1.98968	0.959931
-0.12364620892222766	-0.314159	1.69297	0.05	-1.98968	0.959931
-0.12222276337255433	-0.314159	1.69297	0.05	-1.98968	0.959931
-0.12080759306692768	-0.314159	1.69297	0.05	-1.98968	0.959931
-0.11940071930847318	-0.314159	1.69297	0.05	-1.98968	0.959931
-0.11800216299906774	-0.314159	1.69297	0.05	-1.98968	0.959931
-0.11661194463714031	-0.314159	1.69297	0.05	-1.98968	0.959931
-0.1152300843154741	-0.314159	1.69297	0.05	-1.98968	0.959931
-0.11385660171900147	-0.314159	1.69297	0.05	-1.98968	0.959931
-0.11249151612260921	-0.314159	1.69297	0.05	-1.98968	0.959931
-0.11113484638893101	-0.314159	1.69297	0.05	-1.98968	0.959931
-0.1097866109661585	-0.314159	1.69297	0.05	-1.98968	0.959931
-0.10844682788582971	-0.314159	1.69297	0.05	-1.98968	0.959931
-0.10711551476063241	-0.314159	1.69297	0.05	-1.98968	0.959931
-0.1057926887822096	-0.314159	1.69297	0.05	-1.98968	0.959931
-0.1044783667189515	-0.314159	1.69297	0.05	-1.98968	0.959931
-0.103172564913798	-0.314159	1.69297	0.05	-1.98968	0.959931
-0.10187529928203931	-0.314159	1.69297	0.05	-1.98968	0.959931
-0.1005865853091168	-0.314159	1.69297	0.05	-1.98968	0.959931
-0.09930643804841832	-0.314159	1.69297	0.05	-1.98968	0.959931
-0.09803487211908424	-0.314159	1.69297	0.05	-1.98968	0.959931
-0.09677190170380068	-0.314159	1.69297	0.05	-1.98968	0.959931
-0.09551754054660244	-0.314159	1.69297	0.05	-1.98968	0.959931
-0.0942718019506763	-0.314159	1.69297	0.05	-1.98968	0.959931
-0.09303469877615367	-0.314159	1.69297	0.05	-1.98968	0.959931
-0.09180624343791566	-0.314159	1.69297	0.05	-1.98968	0.959931
-0.0905864479033891	-0.314159	1.69297	0.05	-1.98968	0.959931
-0.08937532369034806	-0.314159	1.69297	0.05	-1.98968	0.959931
-0.08817288186472005	-0.314159	1.69297	0.05	-1.98968	0.959931
-0.0869791330383709	-0.314159	1.69297	0.05	-1.98968	0.959931
-0.08579408736691718	-0.314159	1.69297	0.05	-1.98968	0.959931
-0.08461775454752307	-0.314159	1.69297	0.05	-1.98968	0.959931
-0.08345014381669769	-0.314159	1.69297	0.05	-1.98968	0.959931
-0.0822912639480935	-0.314159	1.69297	0.05	-1.98968	0.959931
-0.08114112325031386	-0.314159	1.69297	0.05	-1.98968	0.959931
-0.07999972956470458	-0.314159	1.69297	0.05	-1.98968	0.959931
-0.07886709026315786	-0.314159	1.69297	0.05	-1.98968	0.959931
-0.0777432122459083	-0.314159	1.69297	0.05	-1.98968	0.959931
-0.07662810193934022	-0.314159	1.69297	0.05	-1.98968	0.959931
-0.07552176529377608	-0.314159	1.69297	0.05	-1.98968	0.959931
-0.07442420778129022	-0.314159	1.69297	0.05	-1.98968	0.959931
-0.07333543439349466	-0.314159	1.69297	0.05	-1.98968	0.959931
-0.07225544963934771	-0.314159	1.69297	0.05	-1.98968	0.959931
-0.07118425754295354	-0.314159	1.69297	0.05	-1.98968	0.959931
-0.07012186164135481	-0.314159	1.69297	0.05	-1.98968	0.959931
-0.06906826498234153	-0.314159	1.69297	0.05	-1.98968	0.959931
-0.06802347012224419	-0.314159	1.69297	0.05	-1.98968	0.959931
-0.0669874791237377	-0.314159	1.69297	0.05	-1.98968	0.959931
-0.06596029355363808	-0.314159	1.69297	0.05	-1.98968	0.959931
-0.06494191448070441	-0.314159	1.69297	0.05	-1.98968	0.959931
-0.06393234247343416	-0.314159	1.69297	0.05	-1.98968	0.959931
-0.06293157759787626	-0.314159	1.69297	0.05	-1.98968	0.959931
-0.06193961941540915	-0.314159	1.69297	0.05	-1.98968	0.959931
-0.06095646698055979	-0.314159	1.69297	0.05	-1.98968	0.959931
-0.059982118838793896	-0.314159	1.69297	0.05	-1.98968	0.959931
-0.05901657302431773	-0.314159	1.69297	0.05	-1.98968	0.959931
-0.058059827057878266	-0.314159	1.69297	0.05	-1.98968	0.959931
-0.0571118779445674	-0.314159	1.69297	0.05	-1.98968	0.959931
-0.05617272217160685	-0.314159	1.69297	0.05	-1.98968	0.959931
-0.055242355706168755	-0.314159	1.69297	0.05	-1.98968	0.959931
-0.0543207739931566	-0.314159	1.69297	0.05	-1.98968	0.959931
-0.053407971953018274	-0.314159	1.69297	0.05	-1.98968	0.959931
-0.0525039439795405	-0.314159	1.69297	0.05	-1.98968	0.959931
-0.05160868393764506	-0.314159	1.69297	0.05	-1.98968	0.959931
-0.05072218516119831	-0.314159	1.69297	0.05	-1.98968	0.959931
-0.04984444045079717	-0.314159	1.69297	0.05	-1.98968	0.959931
-0.048975442071585995	-0.314159	1.69297	0.05	-1.98968	0.959931
-0.048115181751038794	-0.314159	1.69297	0.05	-1.98968	0.959931
-0.04726365067677207	-0.314159	1.69297	0.05	-1.98968	0.959931
-0.046420839494336175	-0.314159	1.69297	0.05	-1.98968	0.959931
-0.045586738305023466	-0.314159	1.69297	0.05	-1.98968	0.959931
-0.04476133666366122	-0.314159	1.69297	0.05	-1.98968	0.959931
-0.04394462357641027	-0.314159	1.69297	0.05	-1.98968	0.959931
-0.04313658749857119	-0.314159	1.69297	0.05	-1.98968	0.959931
-0.042337216332378524	-0.314159	1.69297	0.05	-1.98968	0.959931
-0.04154649742480876	-0.314159	1.69297	0.05	-1.98968	0.959931
-0.040764417565366085	-0.314159	1.69297	0.05	-1.98968	0.959931
-0.03999096298389526	-0.314159	1.69297	0.05	-1.98968	0.959931
-0.039226119348374944	-0.314159	1.69297	0.05	-1.98968	0.959931
-0.038469871762718544	-0.314159	1.69297	0.05	-1.98968	0.959931
-0.037722204764573775	-0.314159	1.69297	0.05	-1.98968	0.959931
-0.03698310232312396	-0.314159	1.69297	0.05	-1.98968	0.959931
-0.03625254783688936	-0.314159	1.69297	0.05	-1.98968	0.959931
-0.03553052413151736	-0.314159	1.69297	0.05	-1.98968	0.959931
-0.034817013457594914	-0.314159	1.69297	0.05	-1.98968	0.959931
-0.034111997488443624	-0.314159	1.69297	0.05	-1.98968	0.959931
-0.033415457317910846	-0.314159	1.69297	0.05	-1.98968	0.959931
-0.03272737345818566	-0.314159	1.69297	0.05	-1.98968	0.959931
-0.03204772583758686	-0.314159	1.69297	0.05	-1.98968	0.959931
-0.031376493798363825	-0.314159	1.69297	0.05	-1.98968	0.959931
-0.030713656094499164	-0.314159	1.69297	0.05	-1.98968	0.959931
-0.030059190889513143	-0.314159	1.69297	0.05	-1.98968	0.959931
-0.029413075754247675	-0.314159	1.69297	0.05	-1.98968	0.959931
-0.028775287664687177	-0.314159	1.69297	0.05	-1.98968	0.959931
-0.028145802999738567	-0.314159	1.69297	0.05	-1.98968	0.959931
-0.027524597539048123	-0.314159	1.69297	0.05	-1.98968	0.959931
-0.026911646460784144	-0.314159	1.69297	0.05	-1.98968	0.959931
-0.026306924339454696	-0.314159	1.69297	0.05	-1.98968	0.959931
-0.025710405143691606	-0.314159	1.69297	0.05	-1.98968	0.959931
-0.025122062234061104	-0.314159	1.69297	0.05	-1.98968	0.959931
-0.024541868360856256	-0.314159	1.69297	0.05	-1.98968	0.959931
-0.023969795661904936	-0.314159	1.69297	0.05	-1.98968	0.959931
-0.02340581566035782	-0.314159	1.69297	0.05	-1.98968	0.959931
-0.022849899262498585	-0.314159	1.69297	0.05	-1.98968	0.959931
-0.022302016755542553	-0.314159	1.69297	0.05	-1.98968	0.959931
-0.021762137805428683	-0.314159	1.69297	0.05	-1.98968	0.959931
-0.021230231454628434	-0.314159	1.69297	0.05	-1.98968	0.959931
-0.020706266119941308	-0.314159	1.69297	0.05	-1.98968	0.959931
-0.020190209590292607	-0.314159	1.69297	0.05	-1.98968	0.959931
-0.019682029024532977	-0.314159	1.69297	0.05	-1.98968	0.959931
-0.01918169094924993	-0.314159	1.69297	0.05	-1.98968	0.959931
-0.018689161256553177	-0.314159	1.69297	0.05	-1.98968	0.959931
-0.018204405201876384	-0.314159	1.69297	0.05	-1.98968	0.959931
-0.017727387401785144	-0.314159	1.69297	0.05	-1.98968	0.959931
-0.01725807183176853	-0.314159	1.69297	0.05	-1.98968	0.959931
-0.016796421824047503	-0.314159	1.69297	0.05	-1.98968	0.959931
-0.016342400065360696	-0.314159	1.69297	0.05	-1.98968	0.959931
-0.015895968594778154	-0.314159	1.69297	0.05	-1.98968	0.959931
-0.015457088801496877	-0.314159	1.69297	0.05	-1.98968	0.959931
-0.015025721422635474	-0.314159	1.69297	0.05	-1.98968	0.959931
-0.014601826541039475	-0.314159	1.69297	0.05	-1.98968	0.959931
-0.014185363583081756	-0.314159	1.69297	0.05	-1.98968	0.959931
-0.013776291316457634	-0.314159	1.69297	0.05	-1.98968	0.959931
-0.01337456784798663	-0.314159	1.69297	0.05	-1.98968	0.959931
-0.012980150621413333	-0.314159	1.69297	0.05	-1.98968	0.959931
-0.01259299641520606	-0.314159	1.69297	0.05	-1.98968	0.959931
-0.012213061340357267	-0.314159	1.69297	0.05	-1.98968	0.959931
-0.011840300838184437	-0.314159	1.69297	0.05	-1.98968	0.959931
-0.011474669678127825	-0.314159	1.69297	0.05	-1.98968	0.959931
-0.011116121955546454	-0.314159	1.69297	0.05	-1.98968	0.959931
-0.010764611089528753	-0.314159	1.69297	0.05	-1.98968	0.959931
-0.010420089820682321	-0.314159	1.69297	0.05	-1.98968	0.959931
-0.010082510208937467	-0.314159	1.69297	0.05	-1.98968	0.959931
-0.009751823631348078	-0.314159	1.69297	0.05	-1.98968	0.959931
-0.009427980779891154	-0.314159	1.69297	0.05	-1.98968	0.959931
-0.00911093165926058	-0.314159	1.69297	0.05	-1.98968	0.959931
-0.008800625584670652	-0.314159	1.69297	0.05	-1.98968	0.959931
-0.008497011179669833	-0.314159	1.69297	0.05	-1.98968	0.959931
-0.008200036373907427	-0.314159	1.69297	0.05	-1.98968	0.959931
-0.0079096484009753	-0.314159	1.69297	0.05	-1.98968	0.959931
-0.0076257937961692335	-0.314159	1.69297	0.05	-1.98968	0.959931
-0.0073484183943084425	-0.314159	1.69297	0.05	-1.98968	0.959931
-0.007077467327543552	-0.314159	1.69297	0.05	-1.98968	0.959931
-0.006812885023128157	-0.314159	1.69297	0.05	-1.98968	0.959931
-0.006554615201248559	-0.314159	1.69297	0.05	-1.98968	0.959931
-0.006302600872803765	-0.314159	1.69297	0.05	-1.98968	0.959931
-0.006056784337212129	-0.314159	1.69297	0.05	-1.98968	0.959931
-0.00581710718021311	-0.314159	1.69297	0.05	-1.98968	0.959931
-0.00558351027166859	-0.314159	1.69297	0.05	-1.98968	0.959931
-0.005355933763347309	-0.314159	1.69297	0.05	-1.98968	0.959931
-0.005134317086747497	-0.314159	1.69297	0.05	-1.98968	0.959931
-0.004918598950875541	-0.314159	1.69297	0.05	-1.98968	0.959931
-0.004708717340068613	-0.314159	1.69297	0.05	-1.98968	0.959931
-0.00450460951177023	-0.314159	1.69297	0.05	-1.98968	0.959931
-0.004306211994344444	-0.314159	1.69297	0.05	-1.98968	0.959931
-0.00411346058486961	-0.314159	1.69297	0.05	-1.98968	0.959931
-0.003926290346949024	-0.314159	1.69297	0.05	-1.98968	0.959931
-0.0037446356084904764	-0.314159	1.69297	0.05	-1.98968	0.959931
-0.003568429959525332	-0.314159	1.69297	0.05	-1.98968	0.959931
-0.0033976062500089554	-0.314159	1.69297	0.05	-1.98968	0.959931
-0.003232096587591382	-0.314159	1.69297	0.05	-1.98968	0.959931
-0.003071832335458158	-0.314159	1.69297	0.05	-1.98968	0.959931
-0.00291674411009879	-0.314159	1.69297	0.05	-1.98968	0.959931
-0.0027667617791244936	-0.314159	1.69297	0.05	-1.98968	0.959931
-0.002621814459056182	-0.314159	1.69297	0.05	-1.98968	0.959931
-0.0024818305131315554	-0.314159	1.69297	0.05	-1.98968	0.959931
-0.0023467375491019737	-0.314159	1.69297	0.05	-1.98968	0.959931
-0.002216462417033327	-0.314159	1.69297	0.05	-1.98968	0.959931
-0.00209093120710957	-0.314159	1.69297	0.05	-1.98968	0.959931
-0.001970069247417605	-0.314159	1.69297	0.05	-1.98968	0.959931
-0.0018538011017668055	-0.314159	1.69297	0.05	-1.98968	0.959931
-0.0017420505674810016	-0.314159	1.69297	0.05	-1.98968	0.959931
-0.001634740673184254	-0.314159	1.69297	0.05	-1.98968	0.959931
-0.0015317936766301443	-0.314159	1.69297	0.05	-1.98968	0.959931
-0.0014331310624760007	-0.314159	1.69297	0.05	-1.98968	0.959931
-0.001338673540089097	-0.314159	1.69297	0.05	-1.98968	0.959931
-0.0012483410413519636	-0.314159	1.69297	0.05	-1.98968	0.959931
-0.0011620527184632579	-0.314159	1.69297	0.05	-1.98968	0.959931
-0.001079726941720871	-0.314159	1.69297	0.05	-1.98968	0.959931
-0.0010012812973441143	-0.314159	1.69297	0.05	-1.98968	0.959931
-0.0009266325852621549	-0.314159	1.69297	0.05	-1.98968	0.959931
-0.0008556968169139978	-0.314159	1.69297	0.05	-1.98968	0.959931
-0.00078838921304758	-0.314159	1.69297	0.05	-1.98968	0.959931
-0.0007246242015215287	-0.314159	1.69297	0.05	-1.98968	0.959931
-0.000664315415103367	-0.314159	1.69297	0.05	-1.98968	0.959931
-0.0006073756892757132	-0.314159	1.69297	0.05	-1.98968	0.959931
-0.0005537170600256047	-0.314159	1.69297	0.05	-1.98968	0.959931
-0.0005032507616533621	-0.314159	1.69297	0.05	-1.98968	0.959931
-0.0004558872245645773	-0.314159	1.69297	0.05	-1.98968	0.959931
-0.000411536073071872	-0.314159	1.69297	0.05	-1.98968	0.959931
-0.00037010612320109715	-0.314159	1.69297	0.05	-1.98968	0.959931
-0.00033150538049042666	-0.314159	1.69297	0.05	-1.98968	0.959931
-0.00029564103777524053	-0.314159	1.69297	0.05	-1.98968	0.959931
-0.00026241947300853496	-0.314159	1.69297	0.05	-1.98968	0.959931
-0.00023174624704669355	-0.314159	1.69297	0.05	-1.98968	0.959931
-0.00020352610144680483	-0.314159	1.69297	0.05	-1.98968	0.959931
-0.00017766295629328965	-0.314159	1.69297	0.05	-1.98968	0.959931
-0.00015405990795347435	-0.314159	1.69297	0.05	-1.98968	0.959931
-0.00013261922691842898	-0.314159	1.69297	0.05	-1.98968	0.959931
-0.00011324235557630402	-0.314159	1.69297	0.05	-1.98968	0.959931
-9.582990602474695e-05	-0.314159	1.69297	0.05	-1.98968	0.959931
-8.028165787177244e-05	-0.314159	1.69297	0.05	-1.98968	0.959931
-6.649655602242177e-05	-0.314159	1.69297	0.05	-1.98968	0.959931
-5.437270849473208e-05	-0.314159	1.69297	0.05	-1.98968	0.959931
-4.380738421083663e-05	-0.314159	1.69297	0.05	-1.98968	0.959931
-3.4697010788065086e-05	-0.314159	1.69297	0.05	-1.98968	0.959931
-2.6937172365570916e-05	-0.314159	1.69297	0.05	-1.98968	0.959931
-2.042260737233903e-05	-0.314159	1.69297	0.05	-1.98968	0.959931
-1.5047206352925002e-05	-0.314159	1.69297	0.05	-1.98968	0.959931
-1.0704009745232668e-05	-0.314159	1.69297	0.05	-1.98968	0.959931
-7.285205701812458e-06	-0.314159	1.69297	0.05	-1.98968	0.959931
-4.682127869415353e-06	-0.314159	1.69297	0.05	-1.98968	0.959931
-2.7852532040739675e-06	-0.314159	1.69297	0.05	-1.98968	0.959931
-1.4841997622028202e-06	-0.314159	1.69297	0.05	-1.98968	0.959931
-6.677245032449264e-07	-0.314159	1.69297	0.05	-1.98968	0.959931
-2.237210958710989e-07	-0.314159	1.69297	0.05	-1.98968	0.959931
-3.921769753389981e-08	-0.314159	1.69297	0.05	-1.98968	0.959931
-3.7477754233350424e-10	-0.314159	1.69297	0.05	-1.98968	0.959931
0.0	-0.314159	1.69297	0.05	-1.98968	0.959931
0.0	-0.3141588214965213	1.69297	0.05	-1.98968	0.959931
0.0	-0.31415758023252033	1.69297	0.05	-1.98968	0.959931
0.0	-0.3141542360771313	1.69297	0.05	-1.98968	0.959931
0.0	-0.3141477734120293	1.69297	0.05	-1.98968	0.959931
0.0	-0.3141372009396378	1.69297	0.05	-1.98968	0.959931
0.0	-0.3141215514913365	1.69297	0.05	-1.98968	0.959931
0.0	-0.3140998818356681	1.69297	0.05	-1.98968	0.959931
0.0	-0.3140712724865463	1.69297	0.05	-1.98968	0.959931
0.0	-0.314034827511463	1.69297	0.05	-1.98968	0.959931
0.0	-0.31398967433969605	1.69297	0.05	-1.98968	0.959931
0.0	-0.3139349635705162	1.69297	0.05	-1.98968	0.959931
0.0	-0.3138698687813951	1.69297	0.05	-1.98968	0.959931
0.0	-0.3137935863362125	1.69297	0.05	-1.98968	0.959931
0.0	-0.31370533519346366	1.69297	0.05	-1.98968	0.959931
0.0	-0.31360435671446674	1.69297	0.05	-1.98968	0.959931
0.0	-0.3134899144715707	1.69297	0.05	-1.98968	0.959931
0.0	-0.31336129405636237	1.69297	0.05	-1.98968	0.959931
0.0	-0.31321780288787393	1.69297	0.05	-1.98968	0.959931
0.0	-0.3130587700207903	1.69297	0.05	-1.98968	0.959931
0.0	-0.31288354595365714	1.69297	0.05	-1.98968	0.959931
0.0	-0.31269150243708754	1.69297	0.05	-1.98968	0.959931
0.0	-0.3124820322819701	1.69297	0.05	-1.98968	0.959931
0.0	-0.3122545491676758	1.69297	0.05	-1.98968	0.959931
0.0	-0.3120084874502662	1.69297	0.05	-1.98968	0.959931
0.0	-0.31174330197070027	1.69297	0.05	-1.98968	0.959931
0.0	-0.3114584678630421	1.69297	0.05	-1.98968	0.959931
0.0	-0.3111534803626684	1.69297	0.05	-1.98968	0.959931
0.0	-0.3108278546144757	1.69297	0.05	-1.98968	0.959931
0.0	-0.31048112548108836	1.69297	0.05	-1.98968	0.959931
0.0	-0.31011284735106526	1.69297	0.05	-1.98968	0.959931
0.0	-0.3097225939471081	1.69297	0.05	-1.98968	0.959931
0.0	-0.30930995813426804	1.69297	0.05	-1.98968	0.959931
0.0	-0.3088745517281537	1.69297	0.05	-1.98968	0.959931
0.0	-0.3084160053031386	1.69297	0.05	-1.98968	0.959931
0.0	-0.3079339680005683	1.69297	0.05	-1.98968	0.959931
0.0	-0.30742810733696824	1.69297	0.05	-1.98968	0.959931
0.0	-0.3068981090122508	1.69297	0.05	-1.98968	0.959931
0.0	-0.30634367671792306	1.69297	0.05	-1.98968	0.959931
0.0	-0.30576453194529424	1.69297	0.05	-1.98968	0.959931
0.0	-0.3051604137936829	1.69297	0.05	-1.98968	0.959931
0.0	-0.30453107877862484	1.69297	0.05	-1.98968	0.959931
0.0	-0.30387630064008014	1.69297	0.05	-1.98968	0.959931
0.0	-0.3031958701506408	1.69297	0.05	-1.98968	0.959931
0.0	-0.3024895949237382	1.69297	0.05	-1.98968	0.959931
0.0	-0.3017572992218506	1.69297	0.05	-1.98968	0.959931
0.0	-0.3009988237647103	1.69297	0.05	-1.98968	0.959931
0.0	-0.3002140255375118	1.69297	0.05	-1.98968	0.959931
0.0	-0.29940277759911843	1.69297	0.05	-1.98968	0.959931
0.0	-0.29856496889027023	1.69297	0.05	-1.98968	0.959931
0.0	-0.2977005040417914	1.69297	0.05	-1.98968	0.959931
0.0	-0.2968093031827978	1.69297	0.05	-1.98968	0.959931
0.0	-0.29589130174890427	1.69297	0.05	-1.98968	0.959931
0.0	-0.2949464502904321	1.69297	0.05	-1.98968	0.959931
0.0	-0.29397471428061667	1.69297	0.05	-1.98968	0.959931
0.0	-0.29297607392381464	1.69297	0.05	-1.98968	0.959931
0.0	-0.2919505239637115	1.69297	0.05	-1.98968	0.959931
0.0	-0.29089807349152935	1.69297	0.05	-1.98968	0.959931
0.0	-0.28981874575423383	1.69297	0.05	-1.98968	0.959931
0.0	-0.28871257796274186	1.69297	0.05	-1.98968	0.959931
0.0	-0.28757962110012925	1.69297	0.05	-1.98968	0.959931
0.0	-0.28641993972983776	1.69297	0.05	-1.98968	0.959931
0.0	-0.28523361180388296	1.69297	0.05	-1.98968	0.959931
0.0	-0.2840207284710614	1.69297	0.05	-1.98968	0.959931
0.0	-0.28278139388515816	1.69297	0.05	-1.98968	0.959931
0.0	-0.2815157250131545	1.69297	0.05	-1.98968	0.959931
0.0	-0.28022385144343503	1.69297	0.05	-1.98968	0.959931
0.0	-0.2789059151939954	1.69297	0.05	-1.98968	0.959931
0.0	-0.27756207052064924	1.69297	0.05	-1.98968	0.959931
0.0	-0.27619248372523664	1.69297	0.05	-1.98968	0.959931
0.0	-0.27479733296383063	1.69297	0.05	-1.98968	0.959931
0.0	-0.273376808054945	1.69297	0.05	-1.98968	0.959931
0.0	-0.271931110287742	1.69297	0.05	-1.98968	0.959931
0.0	-0.27046045223023923	1.69297	0.05	-1.98968	0.959931
0.0	-0.2689650575375178	1.69297	0.05	-1.98968	0.959931
0.0	-0.26744516075992913	1.69297	0.05	-1.98968	0.959931
0.0	-0.2659010071513028	1.69297	0.05	-1.98968	0.959931
0.0	-0.26433285247715405	1.69297	0.05	-1.98968	0.959931
0.0	-0.2627409628228909	1.69297	0.05	-1.98968	0.959931
0.0	-0.2611256144020219	1.69297	0.05	-1.98968	0.959931
0.0	-0.2594870933643636	1.69297	0.05	-1.98968	0.959931
0.0	-0.25782569560424773	1.69297	0.05	-1.98968	0.959931
0.0	-0.2561417265687289	1.69297	0.05	-1.98968	0.959931
0.0	-0.2544355010657921	1.69297	0.05	-1.98968	0.959931
0.0	-0.25270734307255993	1.69297	0.05	-1.98968	0.959931
0.0	-0.25095758554350023	1.69297	0.05	-1.98968	0.959931
0.0	-0.24918657021863364	1.69297	0.05	-1.98968	0.959931
0.0	-0.2473946474317406	1.69297	0.05	-1.98968	0.959931
0.0	-0.24558217591856954	1.69297	0.05	-1.98968	0.959931
0.0	-0.2437495226250435	1.69297	0.05	-1.98968	0.959931
0.0	-0.24189706251546847	1.69297	0.05	-1.98968	0.959931
0.0	-0.24002517838073986	1.69297	0.05	-1.98968	0.959931
0.0	-0.23813426064655097	1.69297	0.05	-1.98968	0.959931
0.0	-0.23622470718159974	1.69297	0.05	-1.98968	0.959931
0.0	-0.23429692310579645	1.69297	0.05	-1.98968	0.959931
0.0	-0.23235132059847127	1.69297	0.05	-1.98968	0.959931
0.0	-0.23038831870658155	1.69297	0.05	-1.98968	0.959931
0.0	-0.22840834315291936	1.69297	0.05	-1.98968	0.959931
0.0	-0.22641182614431896	1.69297	0.05	-1.98968	0.959931
0.0	-0.22439920617986422	1.69297	0.05	-1.98968	0.959931
0.0	-0.22237092785909618	1.69297	0.05	-1.98968	0.959931
0.0	-0.2203274416902202	1.69297	0.05	-1.98968	0.959931
0.0	-0.21826920389831392	1.69297	0.05	-1.98968	0.959931
0.0	-0.21619667623353434	1.69297	0.05	-1.98968	0.959931
0.0	-0.21411032577932537	1.69297	0.05	-1.98968	0.959931
0.0	-0.2120106247606253	1.69297	0.05	-1.98968	0.959931
0.0	-0.20989805035207432	1.69297	0.05	-1.98968	0.959931
0.0	-0.2077730844862219	1.69297	0.05	-1.98968	0.959931
0.0	-0.20563621366173418	1.69297	0.05	-1.98968	0.959931
0.0	-0.2034879287516017	1.69297	0.05	-1.98968	0.959931
0.0	-0.20132872481134656	1.69297	0.05	-1.98968	0.959931
0.0	-0.1991591008872301	1.69297	0.05	-1.98968	0.959931
0.0	-0.19697955982446008	1.69297	0.05	-1.98968	0.959931
0.0	-0.19479060807539852	1.69297	0.05	-1.98968	0.959931
0.0	-0.19259275550776891	1.69297	0.05	-1.98968	0.959931
0.0	-0.19038651521286362	1.69297	0.05	-1.98968	0.959931
0.0	-0.18817240331375168	1.69297	0.05	-1.98968	0.959931
0.0	-0.18595093877348567	1.69297	0.05	-1.98968	0.959931
0.0	-0.1837226432033099	1.69297	0.05	-1.98968	0.959931
0.0	-0.18148804067086727	1.69297	0.05	-1.98968	0.959931
0.0	-0.179247657508407	1.69297	0.05	-1.98968	0.959931
0.0	-0.17700202212099203	1.69297	0.05	-1.98968	0.959931
0.0	-0.17475166479470675	1.69297	0.05	-1.98968	0.959931
0.0	-0.1724971175048637	1.69297	0.05	-1.98968	0.959931
0.0	-0.17023891372421193	1.69297	0.05	-1.98968	0.959931
0.0	-0.1679775882311441	1.69297	0.05	-1.98968	0.959931
0.0	-0.1657136769179036	1.69297	0.05	-1.98968	0.959931
0.0	-0.16344771659879245	1.69297	0.05	-1.98968	0.959931
0.0	-0.1611802448183789	1.69297	0.05	-1.98968	0.959931
0.0	-0.15891179965970403	1.69297	0.05	-1.98968	0.959931
0.0	-0.15664291955249027	1.69297	0.05	-1.98968	0.959931
0.0	-0.1543741430813483	1.69297	0.05	-1.98968	0.959931
0.0	-0.15210600879398448	1.69297	0.05	-1.98968	0.959931
0.0	-0.14983905500940842	1.69297	0.05	-1.98968	0.959931
0.0	-0.14757381962614044	1.69297	0.05	-1.98968	0.959931
0.0	-0.14531083993041918	1.69297	0.05	-1.98968	0.959931
0.0	-0.14305065240440867	1.69297	0.05	-1.98968	0.959931
0.0	-0.1407937925344065	1.69297	0.05	-1.98968	0.959931
0.0	-0.13854079461905	1.69297	0.05	-1.98968	0.959931
0.0	-0.13629219157752517	1.69297	0.05	-1.98968	0.959931
0.0	-0.13404851475777335	1.69297	0.05	-1.98968	0.959931
0.0	-0.13181029374469855	1.69297	0.05	-1.98968	0.959931
0.0	-0.1295780561683756	1.69297	0.05	-1.98968	0.959931
0.0	-0.1273523275122566	1.69297	0.05	-1.98968	0.959931
0.0	-0.1251336309213795	1.69297	0.05	-1.98968	0.959931
0.0	-0.12292248701057475	1.69297	0.05	-1.98968	0.959931
0.0	-0.1207194136726729	1.69297	0.05	-1.98968	0.959931
0.0	-0.1185249258867125	1.69297	0.05	-1.98968	0.959931
0.0	-0.11633953552614705	1.69297	0.05	-1.98968	0.959931
0.0	-0.1141637511670526	1.69297	0.05	-1.98968	0.959931
0.0	-0.11199807789633533	1.69297	0.05	-1.98968	0.959931
0.0	-0.10984301711993907	1.69297	0.05	-1.98968	0.959931
0.0	-0.10769906637105237	1.69297	0.05	-1.98968	0.959931
0.0	-0.10556671911831653	1.69297	0.05	-1.98968	0.959931
0.0	-0.10344646457403223	1.69297	0.05	-1.98968	0.959931
0.0	-0.10133878750236802	1.69297	0.05	-1.98968	0.959931
0.0	-0.09924416802756708	1.69297	0.05	-1.98968	0.959931
0.0	-0.09716308144215499	1.69297	0.05	-1.98968	0.959931
0.0	-0.09509599801514662	1.69297	0.05	-1.98968	0.959931
0.0	-0.09304338280025484	1.69297	0.05	-1.98968	0.959931
0.0	-0.09100569544409648	1.69297	0.05	-1.98968	0.959931
0.0	-0.0889833899944005	1.69297	0.05	-1.98968	0.959931
0.0	-0.08697691470821575	1.69297	0.05	-1.98968	0.959931
0.0	-0.08498671186011797	1.69297	0.05	-1.98968	0.959931
0.0	-0.0830132175504174	1.69297	0.05	-1.98968	0.959931
0.0	-0.08105686151336639	1.69297	0.05	-1.98968	0.959931
0.0	-0.07911806692536627	1.69297	0.05	-1.98968	0.959931
0.0	-0.07719725021317578	1.69297	0.05	-1.98968	0.959931
0.0	-0.07529482086211739	1.69297	0.05	-1.98968	0.959931
0.0	-0.073411181224286	1.69297	0.05	-1.98968	0.959931
0.0	-0.07154672632675554	1.69297	0.05	-1.98968	0.959931
0.0	-0.06970184367978646	1.69297	0.05	-1.98968	0.959931
0.0	-0.06787691308503302	1.69297	0.05	-1.98968	0.959931
0.0	-0.066072306443752	1.69297	0.05	-1.98968	0.959931
0.0	-0.06428838756500854	1.69297	0.05	-1.98968	0.959931
0.0	-0.06252551197388512	1.69297	0.05	-1.98968	0.959931
0.0	-0.06078402671968708	1.69297	0.05	-1.98968	0.959931
0.0	-0.05906427018415217	1.69297	0.05	-1.98968	0.959931
0.0	-0.057366571889656715	1.69297	0.05	-1.98968	0.959931
0.0	-0.05569125230742383	1.69297	0.05	-1.98968	0.959931
0.0	-0.05403862266572934	1.69297	0.05	-1.98968	0.959931
0.0	-0.05240898475811151	1.69297	0.05	-1.98968	0.959931
0.0	-0.05080263075157665	1.69297	0.05	-1.98968	0.959931
0.0	-0.04921984299480825	1.69297	0.05	-1.98968	0.959931
0.0	-0.04766089382637201	1.69297	0.05	-1.98968	0.959931
0.0	-0.04612604538292614	1.69297	0.05	-1.98968	0.959931
0.0	-0.044615549407427346	1.69297	0.05	-1.98968	0.959931
0.0	-0.043129647057336795	1.69297	0.05	-1.98968	0.959931
0.0	-0.04166856871283109	1.69297	0.05	-1.98968	0.959931
0.0	-0.04023253378500713	1.69297	0.05	-1.98968	0.959931
0.0	-0.03882175052408959	1.69297	0.05	-1.98968	0.959931
0.0	-0.037436415827640235	1.69297	0.05	-1.98968	0.959931
0.0	-0.03607671504876281	1.69297	0.05	-1.98968	0.959931
0.0	-0.03474282180431332	1.69297	0.05	-1.98968	0.959931
0.0	-0.03343489778310471	1.69297	0.05	-1.98968	0.959931
0.0	-0.03215309255411708	1.69297	0.05	-1.98968	0.959931
0.0	-0.030897543374702408	1.69297	0.05	-1.98968	0.959931
0.0	-0.02966837499879399	1.69297	0.05	-1.98968	0.959931
0.0	-0.02846569948511274	1.69297	0.05	-1.98968	0.959931
0.0	-0.027289616005375827	1.69297	0.05	-1.98968	0.959931
0.0	-0.02614021065250316	1.69297	0.05	-1.98968	0.959931
0.0	-0.025017556248824513	1.69297	0.05	-1.98968	0.959931
0.0	-0.023921712154289065	1.69297	0.05	-1.98968	0.959931
0.0	-0.022852724074669983	1.69297	0.05	-1.98968	0.959931
0.0	-0.021810623869773726	1.69297	0.05	-1.98968	0.959931
0.0	-0.020795429361647577	1.69297	0.05	-1.98968	0.959931
0.0	-0.019807144142785837	1.69297	0.05	-1.98968	0.959931
0.0	-0.01884575738433858	1.69297	0.05	-1.98968	0.959931
0.0	-0.01791124364431851	1.69297	0.05	-1.98968	0.959931
0.0	-0.01700356267580816	1.69297	0.05	-1.98968	0.959931
0.0	-0.01612265923516787	1.69297	0.05	-1.98968	0.959931
0.0	-0.015268462890243528	1.69297	0.05	-1.98968	0.959931
0.0	-0.014440887828573223	1.69297	0.05	-1.98968	0.959931
0.0	-0.013639832665594764	1.69297	0.05	-1.98968	0.959931
0.0	-0.012865180252853547	1.69297	0.05	-1.98968	0.959931
0.0	-0.012116797486209752	1.69297	0.05	-1.98968	0.959931
0.0	-0.0113945351140462	1.69297	0.05	-1.98968	0.959931
0.0	-0.010698227545475891	1.69297	0.05	-1.98968	0.959931
0.0	-0.01002769265854897	1.69297	0.05	-1.98968	0.959931
0.0	-0.009382731608459594	1.69297	0.05	-1.98968	0.959931
0.0	-0.00876312863575468	1.69297	0.05	-1.98968	0.959931
0.0	-0.008168650874540995	1.69297	0.05	-1.98968	0.959931
0.0	-0.007599048160692234	1.69297	0.05	-1.98968	0.959931
0.0	-0.007054052840056446	1.69297	0.05	-1.98968	0.959931
0.0	-0.006533379576664111	1.69297	0.05	-1.98968	0.959931
0.0	-0.006036725160935452	1.69297	0.05	-1.98968	0.959931
0.0	-0.005563768317886186	1.69297	0.05	-1.98968	0.959931
0.0	-0.005114169515339384	1.69297	0.05	-1.98968	0.959931
0.0	-0.004687570772126226	1.69297	0.05	-1.98968	0.959931
0.0	-0.004283595466301193	1.69297	0.05	-1.98968	0.959931
0.0	-0.003901848143341047	1.69297	0.05	-1.98968	0.959931
0.0	-0.0035419143243620166	1.69297	0.05	-1.98968	0.959931
0.0	-0.0032033603143188927	1.69297	0.05	-1.98968	0.959931
0.0	-0.002885733010214553	1.69297	0.05	-1.98968	0.959931
0.0	-0.0025885597093109336	1.69297	0.05	-1.98968	0.959931
0.0	-0.0023113479173342277	1.69297	0.05	-1.98968	0.959931
0.0	-0.0020535851566805263	1.69297	0.05	-1.98968	0.959931
0.0	-0.0018147387746261234	1.69297	0.05	-1.98968	0.959931
0.0	-0.0015942557515320477	1.69297	0.05	-1.98968	0.959931
0.0	-0.0013915625090556993	1.69297	0.05	-1.98968	0.959931
0.0	-0.0012060647183544937	1.69297	0.05	-1.98968	0.959931
0.0	-0.0010371471082954997	1.69297	0.05	-1.98968	0.959931
0.0	-0.0008841732736599717	1.69297	0.05	-1.98968	0.959931
0.0	-0.0007464854833572065	1.69297	0.05	-1.98968	0.959931
0.0	-0.0006234044886233026	1.69297	0.05	-1.98968	0.959931
0.0	-0.0005142293312341284	1.69297	0.05	-1.98968	0.959931
0.0	-0.00041823715171429576	1.69297	0.05	-1.98968	0.959931
0.0	-0.00033468299753858233	1.69297	0.05	-1.98968	0.959931
0.0	-0.0002627996313453451	1.69297	0.05	-1.98968	0.959931
0.0	-0.00020179733914105213	1.69297	0.05	-1.98968	0.959931
0.0	-0.0001508637385061462	1.69297	0.05	-1.98968	0.959931
0.0	-0.00010916358680757021	1.69297	0.05	-1.98968	0.959931
0.0	-7.583858940019006e-05	1.69297	0.05	-1.98968	0.959931
0.0	-5.000720784131829e-05	1.69297	0.05	-1.98968	0.959931
0.0	-3.076446808747413e-05	1.69297	0.05	-1.98968	0.959931
0.0	-1.718176871579047e-05	1.69297	0.05	-1.98968	0.959931
0.0	-8.30668912099597e-06	1.69297	0.05	-1.98968	0.959931
0.0	-3.162797723721411e-06	1.69297	0.05	-1.98968	0.959931
0.0	-7.494601841351312e-07	1.69297	0.05	-1.98968	0.959931
0.0	-4.164760381009103e-08	1.69297	0.05	-1.98968	0.959931
0.0	0.0	1.69297	0.05	-1.98968	0.959931
0.0	0.0	1.6929700223759496	0.05	-1.98968	0.959931
0.0	0.0	1.6929701786969225	0.05	-1.98968	0.959931
0.0	0.0	1.6929706020545554	0.05	-1.98968	0.959931
0.0	0.0	1.692971424611483	0.05	-1.98968	0.959931
0.0	0.0	1.692972777603496	0.05	-1.98968	0.959931
0.0	0.0	1.6929747913417	0.05	-1.98968	0.959931
0.0	0.0	1.692977595214673	0.05	-1.98968	0.959931
0.0	0.0	1.6929813176906283	0.05	-1.98968	0.959931
0.0	0.0	1.6929860863195698	0.05	-1.98968	0.959931
0.0	0.0	1.6929920277354524	0.05	-1.98968	0.959931
0.0	0.0	1.6929992676583414	0.05	-1.98968	0.959931
0.0	0.0	1.6930079308965706	0.05	-1.98968	0.959931
0.0	0.0	1.6930181413489025	0.05	-1.98968	0.959931
0.0	0.0	1.6930300220066858	0.05	-1.98968	0.959931
0.0	0.0	1.6930436949560157	0.05	-1.98968	0.959931
0.0	0.0	1.6930592813798924	0.05	-1.98968	0.959931
0.0	0.0	1.6930769015603797	0.05	-1.98968	0.959931
0.0	0.0	1.6930966748807654	0.05	-1.98968	0.959931
0.0	0.0	1.693118719827718	0.05	-1.98968	0.959931
0.0	0.0	1.693143153993448	0.05	-1.98968	0.959931
0.0	0.0	1.693170094077866	0.05	-1.98968	0.959931
0.0	0.0	1.6931996558907414	0.05	-1.98968	0.959931
0.0	0.0	1.693231954353861	0.05	-1.98968	0.959931
0.0	0.0	1.69326710350319	0.05	-1.98968	0.959931
0.0	0.0	1.6933052164910292	0.05	-1.98968	0.959931
0.0	0.0	1.6933464055881737	0.05	-1.98968	0.959931
0.0	0.0	1.6933907821860739	0.05	-1.98968	0.959931
0.0	0.0	1.6934384567989926	0.05	-1.98968	0.959931
0.0	0.0	1.693489539066165	0.05	-1.98968	0.959931
0.0	0.0	1.6935441377539577	0.05	-1.98968	0.959931
0.0	0.0	1.6936023607580266	0.05	-1.98968	0.959931
0.0	0.0	1.6936643151054778	0.05	-1.98968	0.959931
0.0	0.0	1.6937301069570245	0.05	-1.98968	0.959931
0.0	0.0	1.6937998416091482	0.05	-1.98968	0.959931
0.0	0.0	1.693873623496256	0.05	-1.98968	0.959931
0.0	0.0	1.6939515561928395	0.05	-1.98968	0.959931
0.0	0.0	1.694033742415636	0.05	-1.98968	0.959931
0.0	0.0	1.6941202840257852	0.05	-1.98968	0.959931
0.0	0.0	1.6942112820309887	0.05	-1.98968	0.959931
0.0	0.0	1.6943068365876701	0.05	-1.98968	0.959931
0.0	0.0	1.6944070470031323	0.05	-1.98968	0.959931
0.0	0.0	1.6945120117377181	0.05	-1.98968	0.959931
0.0	0.0	1.6946218284069692	0.05	-1.98968	0.959931
0.0	0.0	1.6947365937837828	0.05	-1.98968	0.959931
0.0	0.0	1.6948564038005738	0.05	-1.98968	0.959931
0.0	0.0	1.694981353551432	0.05	-1.98968	0.959931
0.0	0.0	1.6951115372942818	0.05	-1.98968	0.959931
0.0	0.0	1.6952470484530395	0.05	-1.98968	0.959931
0.0	0.0	1.695387979619776	0.05	-1.98968	0.959931
0.0	0.0	1.6955344225568714	0.05	-1.98968	0.959931
0.0	0.0	1.6956864681991775	0.05	-1.98968	0.959931
0.0	0.0	1.6958442066561747	0.05	-1.98968	0.959931
0.0	0.0	1.696007727214132	0.05	-1.98968	0.959931
0.0	0.0	1.6961771183382655	0.05	-1.98968	0.959931
0.0	0.0	1.6963524676748984	0.05	-1.98968	0.959931
0.0	0.0	1.6965338620536186	0.05	-1.98968	0.959931
0.0	0.0	1.6967213874894385	0.05	-1.98968	0.959931
0.0	0.0	1.6969151291849536	0.05	-1.98968	0.959931
0.0	0.0	1.6971151715325028	0.05	-1.98968	0.959931
0.0	0.0	1.6973215981163254	0.05	-1.98968	0.959931
0.0	0.0	1.6975344917147213	0.05	-1.98968	0.959931
0.0	0.0	1.6977539343022103	0.05	-1.98968	0.959931
0.0	0.0	1.6979800070516902	0.05	-1.98968	0.959931
0.0	0.0	1.698212790336596	0.05	-1.98968	0.959931
0.0	0.0	1.69845236373306	0.05	-1.98968	0.959931
0.0	0.0	1.6986988060220694	0.05	-1.98968	0.959931
0.0	0.0	1.6989521951916255	0.05	-1.98968	0.959931
0.0	0.0	1.6992126084389039	0.05	-1.98968	0.959931
0.0	0.0	1.6994801221724123	0.05	-1.98968	0.959931
0.0	0.0	1.6997548120141495	0.05	-1.98968	0.959931
0.0	0.0	1.7000367528017655	0.05	-1.98968	0.959931
0.0	0.0	1.7003260185907196	0.05	-1.98968	0.959931
0.0	0.0	1.7006226826564397	0.05	-1.98968	0.959931
0.0	0.0	1.7009268174964802	0.05	-1.98968	0.959931
0.0	0.0	1.7012384948326835	0.05	-1.98968	0.959931
0.0	0.0	1.701557785613337	0.05	-1.98968	0.959931
0.0	0.0	1.7018847600153322	0.05	-1.98968	0.959931
0.0	0.0	1.7022194874463248	0.05	-1.98968	0.959931
0.0	0.0	1.7025620365468925	0.05	-1.98968	0.959931
0.0	0.0	1.7029124751926956	0.05	-1.98968	0.959931
0.0	0.0	1.7032708704966337	0.05	-1.98968	0.959931
0.0	0.0	1.7036372888110067	0.05	-1.98968	0.959931
0.0	0.0	1.7040117957296732	0.05	-1.98968	0.959931
0.0	0.0	1.704394456090209	0.05	-1.98968	0.959931
0.0	0.0	1.7047853339760668	0.05	-1.98968	0.959931
0.0	0.0	1.705184492718735	0.05	-1.98968	0.959931
0.0	0.0	1.705591994899896	0.05	-1.98968	0.959931
0.0	0.0	1.7060079023535872	0.05	-1.98968	0.959931
0.0	0.0	1.7064322761683572	0.05	-1.98968	0.959931
0.0	0.0	1.7068651766894274	0.05	-1.98968	0.959931
0.0	0.0	1.7073066635208487	0.05	-1.98968	0.959931
0.0	0.0	1.7077567955276634	0.05	-1.98968	0.959931
0.0	0.0	1.7082156308380603	0.05	-1.98968	0.959931
0.0	0.0	1.7086832268455376	0.05	-1.98968	0.959931
0.0	0.0	1.7091596402110596	0.05	-1.98968	0.959931
0.0	0.0	1.7096449268652167	0.05	-1.98968	0.959931
0.0	0.0	1.7101391420103835	0.05	-1.98968	0.959931
0.0	0.0	1.7106423401228783	0.05	-1.98968	0.959931
0.0	0.0	1.7111545749551231	0.05	-1.98968	0.959931
0.0	0.0	1.7116758995378003	0.05	-1.98968	0.959931
0.0	0.0	1.712206366182014	0.05	-1.98968	0.959931
0.0	0.0	1.7127460264814478	0.05	-1.98968	0.959931
0.0	0.0	1.7132949313145245	0.05	-1.98968	0.959931
0.0	0.0	1.7138531308465637	0.05	-1.98968	0.959931
0.0	0.0	1.7144206745319424	0.05	-1.98968	0.959931
0.0	0.0	1.714997611116254	0.05	-1.98968	0.959931
0.0	0.0	1.7155839886384654	0.05	-1.98968	0.959931
0.0	0.0	1.7161798544330786	0.05	-1.98968	0.959931
0.0	0.0	1.7167852551322875	0.05	-1.98968	0.959931
0.0	0.0	1.7174002366681387	0.05	-1.98968	0.959931
0.0	0.0	1.718024844274689	0.05	-1.98968	0.959931
0.0	0.0	1.718659122490165	0.05	-1.98968	0.959931
0.0	0.0	1.7193031151591227	0.05	-1.98968	0.959931
0.0	0.0	1.7199568654346056	0.05	-1.98968	0.959931
0.0	0.0	1.720620415780304	0.05	-1.98968	0.959931
0.0	0.0	1.721293807972715	0.05	-1.98968	0.959931
0.0	0.0	1.7219770831032988	0.05	-1.98968	0.959931
0.0	0.0	1.7226702815806414	0.05	-1.98968	0.959931
0.0	0.0	1.7233734431326104	0.05	-1.98968	0.959931
0.0	0.0	1.7240866068085168	0.05	-1.98968	0.959931
0.0	0.0	1.7248098109812704	0.05	-1.98968	0.959931
0.0	0.0	1.7255430933495433	0.05	-1.98968	0.959931
0.0	0.0	1.726286490939925	0.05	-1.98968	0.959931
0.0	0.0	1.7270400401090826	0.05	-1.98968	0.959931
0.0	0.0	1.7278037765459222	0.05	-1.98968	0.959931
0.0	0.0	1.7285777352737435	0.05	-1.98968	0.959931
0.0	0.0	1.7293619506524036	0.05	-1.98968	0.959931
0.0	0.0	1.7301564563804712	0.05	-1.98968	0.959931
0.0	0.0	1.73096128549739	0.05	-1.98968	0.959931
0.0	0.0	1.7317764703856344	0.05	-1.98968	0.959931
0.0	0.0	1.7326020427728703	0.05	-1.98968	0.959931
0.0	0.0	1.733438033734114	0.05	-1.98968	0.959931
0.0	0.0	1.7342844736938903	0.05	-1.98968	0.959931
0.0	0.0	1.7351413924283923	0.05	-1.98968	0.959931
0.0	0.0	1.73600881906764	0.05	-1.98968	0.959931
0.0	0.0	1.7368867820976397	0.05	-1.98968	0.959931
0.0	0.0	1.7377753093625423	0.05	-1.98968	0.959931
0.0	0.0	1.7386744280668038	0.05	-1.98968	0.959931
0.0	0.0	1.7395841647773422	0.05	-1.98968	0.959931
0.0	0.0	1.7405045454256982	0.05	-1.98968	0.959931
0.0	0.0	1.7414355953101939	0.05	-1.98968	0.959931
0.0	0.0	1.7423773390980906	0.05	-1.98968	0.959931
0.0	0.0	1.7433298008277491	0.05	-1.98968	0.959931
0.0	0.0	1.7442930039107891	0.05	-1.98968	0.959931
0.0	0.0	1.7452669711342466	0.05	-1.98968	0.959931
0.0	0.0	1.7462517246627338	0.05	-1.98968	0.959931
0.0	0.0	1.7472472860405985	0.05	-1.98968	0.959931
0.0	0.0	1.7482536761940823	0.05	-1.98968	0.959931
0.0	0.0	1.7492709154334802	0.05	-1.98968	0.959931
0.0	0.0	1.7502990234553	0.05	-1.98968	0.959931
0.0	0.0	1.7513380193444188	0.05	-1.98968	0.959931
0.0	0.0	1.7523879215762461	0.05	-1.98968	0.959931
0.0	0.0	1.7534487480188794	0.05	-1.98968	0.959931
0.0	0.0	1.7545205159352646	0.05	-1.98968	0.959931
0.0	0.0	1.7556032419853551	0.05	-1.98968	0.959931
0.0	0.0	1.7566969422282703	0.05	-1.98968	0.959931
0.0	0.0	1.7578016321244554	0.05	-1.98968	0.959931
0.0	0.0	1.7589173265378388	0.05	-1.98968	0.959931
0.0	0.0	1.760044039737993	0.05	-1.98968	0.959931
0.0	0.0	1.761181785402293	0.05	-1.98968	0.959931
0.0	0.0	1.7623305766180744	0.05	-1.98968	0.959931
0.0	0.0	1.7634904258847932	0.05	-1.98968	0.959931
0.0	0.0	1.7646613451161854	0.05	-1.98968	0.959931
0.0	0.0	1.765843345642424	0.05	-1.98968	0.959931
0.0	0.0	1.7670364382122812	0.05	-1.98968	0.959931
0.0	0.0	1.7682406329952833	0.05	-1.98968	0.959931
0.0	0.0	1.7694559395838743	0.05	-1.98968	0.959931
0.0	0.0	1.7706823669955707	0.05	-1.98968	0.959931
0.0	0.0	1.7719199236751233	0.05	-1.98968	0.959931
0.0	0.0	1.7731686174966748	0.05	-1.98968	0.959931
0.0	0.0	1.7744284557659196	0.05	-1.98968	0.959931
0.0	0.0	1.7756994452222625	0.05	-1.98968	0.959931
0.0	0.0	1.7769815920409777	0.05	-1.98968	0.959931
0.0	0.0	1.7782749018353672	0.05	-1.98968	0.959931
0.0	0.0	1.7795793796589212	0.05	-1.98968	0.959931
0.0	0.0	1.7808950300074766	0.05	-1.98968	0.959931
0.0	0.0	1.7822218568213741	0.05	-1.98968	0.959931
0.0	0.0	1.7835598634876206	0.05	-1.98968	0.959931
0.0	0.0	1.784909052842046	0.05	-1.98968	0.959931
0.0	0.0	1.7862694271714619	0.05	-1.98968	0.959931
0.0	0.0	1.787640988215822	0.05	-1.98968	0.959931
0.0	0.0	1.7890237371703803	0.05	-1.98968	0.959931
0.0	0.0	1.7904176746878508	0.05	-1.98968	0.959931
0.0	0.0	1.7918228008805654	0.05	-1.98968	0.959931
0.0	0.0	1.793239115322633	0.05	-1.98968	0.959931
0.0	0.0	1.7946666170521006	0.05	-1.98968	0.959931
0.0	0.0	1.7961053045731095	0.05	-1.98968	0.959931
0.0	0.0	1.7975551758580555	0.05	-1.98968	0.959931
0.0	0.0	1.7990162283497486	0.05	-1.98968	0.959931
0.0	0.0	1.800488458963571	0.05	-1.98968	0.959931
0.0	0.0	1.8019718640896363	0.05	-1.98968	0.959931
0.0	0.0	1.8034664395949491	0.05	-1.98968	0.959931
0.0	0.0	1.804972180825563	0.05	-1.98968	0.959931
0.0	0.0	1.8064890826087405	0.05	-1.98968	0.959931
0.0	0.0	1.808017139255112	0.05	-1.98968	0.959931
0.0	0.0	1.8095563445608343	0.05	-1.98968	0.959931
0.0	0.0	1.8111066918097491	0.05	-1.98968	0.959931
0.0	0.0	1.8126681737755437	0.05	-1.98968	0.959931
0.0	0.0	1.8142407827239084	0.05	-1.98968	0.959931
0.0	0.0	1.8158245104146968	0.05	-1.98968	0.959931
0.0	0.0	1.8174193481040837	0.05	-1.98968	0.959931
0.0	0.0	1.819025286546724	0.05	-1.98968	0.959931
0.0	0.0	1.8206423159979133	0.05	-1.98968	0.959931
0.0	0.0	1.8222704262157454	0.05	-1.98968	0.959931
0.0	0.0	1.8239096064632716	0.05	-1.98968	0.959931
0.0	0.0	1.8255598455106603	0.05	-1.98968	0.959931
0.0	0.0	1.8272211316373552	0.05	-1.98968	0.959931
0.0	0.0	1.828893452634235	0.05	-1.98968	0.959931
0.0	0.0	1.830576795805772	0.05	-1.98968	0.959931
0.0	0.0	1.832271147972191	0.05	-1.98968	0.959931
0.0	0.0	1.8339764954716293	0.05	-1.98968	0.959931
0.0	0.0	1.8356928241622936	0.05	-1.98968	0.959931
0.0	0.0	1.837420119424622	0.05	-1.98968	0.959931
0.0	0.0	1.8391583661634396	0.05	-1.98968	0.959931
0.0	0.0	1.8409075488101212	0.05	-1.98968	0.959931
0.0	0.0	1.8426676513247464	0.05	-1.98968	0.959931
0.0	0.0	1.844438657198262	0.05	-1.98968	0.959931
0.0	0.0	1.8462205494546393	0.05	-1.98968	0.959931
0.0	0.0	1.848013310653033	0.05	-1.98968	0.959931
0.0	0.0	1.8498169228899406	0.05	-1.98968	0.959931
0.0	0.0	1.851631367801362	0.05	-1.98968	0.959931
0.0	0.0	1.8534566265649577	0.05	-1.98968	0.959931
0.0	0.0	1.8552926799022078	0.05	-1.98968	0.959931
0.0	0.0	1.857139508080571	0.05	-1.98968	0.959931
0.0	0.0	1.8589970909156448	0.05	-1.98968	0.959931
0.0	0.0	1.8608654077733227	0.05	-1.98968	0.959931
0.0	0.0	1.8627444375719544	0.05	-1.98968	0.959931
0.0	0.0	1.8646341587845046	0.05	-1.98968	0.959931
0.0	0.0	1.8665345494407117	0.05	-1.98968	0.959931
0.0	0.0	1.8684455871292467	0.05	-1.98968	0.959931
0.0	0.0	1.8703672489998735	0.05	-1.98968	0.959931
0.0	0.0	1.8722995117656058	0.05	-1.98968	0.959931
0.0	0.0	1.8742423517048676	0.05	-1.98968	0.959931
0.0	0.0	1.8761957446636526	0.05	-1.98968	0.959931
0.0	0.0	1.878159666057681	0.05	-1.98968	0.959931
0.0	0.0	1.880134090874561	0.05	-1.98968	0.959931
0.0	0.0	1.8821189936759464	0.05	-1.98968	0.959931
0.0	0.0	1.8841143485996967	0.05	-1.98968	0.959931
0.0	0.0	1.8861201293620338	0.05	-1.98968	0.959931
0.0	0.0	1.8881363092597043	0.05	-1.98968	0.959931
0.0	0.0	1.8901628611721353	0.05	-1.98968	0.959931
0.0	0.0	1.8921997575635958	0.05	-1.98968	0.959931
0.0	0.0	1.8942469704853555	0.05	-1.98968	0.959931
0.0	0.0	1.8963044715778414	0.05	-1.98968	0.959931
0.0	0.0	1.8983722320727994	0.05	-1.98968	0.959931
0.0	0.0	1.900450222795453	0.05	-1.98968	0.959931
0.0	0.0	1.9025384141666604	0.05	-1.98968	0.959931
0.0	0.0	1.904636776205076	0.05	-1.98968	0.959931
0.0	0.0	1.9067452785293082	0.05	-1.98968	0.959931
0.0	0.0	1.9088638903600779	0.05	-1.98968	0.959931
0.0	0.0	1.9109925805223786	0.05	-1.98968	0.959931
0.0	0.0	1.913131317447634	0.05	-1.98968	0.959931
0.0	0.0	1.9152800691758594	0.05	-1.98968	0.959931
0.0	0.0	1.9174388033578178	0.05	-1.98968	0.959931
0.0	0.0	1.9196074872571818	0.05	-1.98968	0.959931
0.0	0.0	1.9217860877526887	0.05	-1.98968	0.959931
0.0	0.0	1.9239745713403045	0.05	-1.98968	0.959931
0.0	0.0	1.9261729041353792	0.05	-1.98968	0.959931
0.0	0.0	1.9283810518748068	0.05	-1.98968	0.959931
0.0	0.0	1.930598979919185	0.05	-1.98968	0.959931
0.0	0.0	1.932826653254973	0.05	-1.98968	0.959931
0.0	0.0	1.9350640364966516	0.05	-1.98968	0.959931
0.0	0.0	1.9373110938888827	0.05	-1.98968	0.959931
0.0	0.0	1.9395677893086651	0.05	-1.98968	0.959931
0.0	0.0	1.941834086267498	0.05	-1.98968	0.959931
0.0	0.0	1.944109947913537	0.05	-1.98968	0.959931
0.0	0.0	1.9463953370337537	0.05	-1.98968	0.959931
0.0	0.0	1.9486902160560946	0.05	-1.98968	0.959931
0.0	0.0	1.9509945470516423	0.05	-1.98968	0.959931
0.0	0.0	1.9533082917367703	0.05	-1.98968	0.959931
0.0	0.0	1.9556314114753053	0.05	-1.98968	0.959931
0.0	0.0	1.9579638672806858	0.05	-1.98968	0.959931
0.0	0.0	1.9603056198181201	0.05	-1.98968	0.959931
0.0	0.0	1.962656629406746	0.05	-1.98968	0.959931
0.0	0.0	1.9650168560217889	0.05	-1.98968	0.959931
0.0	0.0	1.9673862592967224	0.05	-1.98968	0.959931
0.0	0.0	1.9697647985254263	0.05	-1.98968	0.959931
0.0	0.0	1.9721524326643445	0.05	-1.98968	0.959931
0.0	0.0	1.9745491203346472	0.05	-1.98968	0.959931
0.0	0.0	1.9769548198243867	0.05	-1.98968	0.959931
0.0	0.0	1.9793694890906577	0.05	-1.98968	0.959931
0.0	0.0	1.9817930857617558	0.05	-1.98968	0.959931
0.0	0.0	1.9842255671393387	0.05	-1.98968	0.959931
0.0	0.0	1.9866668902005822	0.05	-1.98968	0.959931
0.0	0.0	1.9891170116003403	0.05	-1.98968	0.959931
0.0	0.0	1.991575887673304	0.05	-1.98968	0.959931
0.0	0.0	1.9940434744361633	0.05	-1.98968	0.959931
0.0	0.0	1.9965197275897604	0.05	-1.98968	0.959931
0.0	0.0	1.9990046025212536	0.05	-1.98968	0.959931
0.0	0.0	2.001498054306274	0.05	-1.98968	0.959931
0.0	0.0	2.004000037711086	0.05	-1.98968	0.959931
0.0	0.0	2.0065105071947444	0.05	-1.98968	0.959931
0.0	0.0	2.0090294169112557	0.05	-1.98968	0.959931
0.0	0.0	2.011556720711734	0.05	-1.98968	0.959931
0.0	0.0	2.0140923721465636	0.05	-1.98968	0.959931
0.0	0.0	2.0166363244675556	0.05	-1.98968	0.959931
0.0	0.0	2.0191885306301076	0.05	-1.98968	0.959931
0.0	0.0	2.021748943295363	0.05	-1.98968	0.959931
0.0	0.0	2.024317514832369	0.05	-1.98968	0.959931
0.0	0.0	2.0268941973202366	0.05	-1.98968	0.959931
0.0	0.0	2.0294789425503	0.05	-1.98968	0.959931
0.0	0.0	2.0320717020282744	0.05	-1.98968	0.959931
0.0	0.0	2.034672426976415	0.05	-1.98968	0.959931
0.0	0.0	2.0372810683356777	0.05	-1.98968	0.959931
0.0	0.0	2.0398975767678764	0.05	-1.98968	0.959931
0.0	0.0	2.042521902657842	0.05	-1.98968	0.959931
0.0	0.0	2.0451539961155825	0.05	-1.98968	0.959931
0.0	0.0	2.047793806978442	0.05	-1.98968	0.959931
0.0	0.0	2.050441284813258	0.05	-1.98968	0.959931
0.0	0.0	2.0530963789185233	0.05	-1.98968	0.959931
0.0	0.0	2.0557590383265416	0.05	-1.98968	0.959931
0.0	0.0	2.0584292118055885	0.05	-1.98968	0.959931
0.0	0.0	2.0611068478620713	0.05	-1.98968	0.959931
0.0	0.0	2.0637918947426868	0.05	-1.98968	0.959931
0.0	0.0	2.0664843004365783	0.05	-1.98968	0.959931
0.0	0.0	2.0691840126775	0.05	-1.98968	0.959931
0.0	0.0	2.0718909789459703	0.05	-1.98968	0.959931
0.0	0.0	2.0746051464714337	0.05	-1.98968	0.959931
0.0	0.0	2.0773264622344207	0.05	-1.98968	0.959931
0.0	0.0	2.0800548729687045	0.05	-1.98968	0.959931
0.0	0.0	2.082790325163461	0.05	-1.98968	0.959931
0.0	0.0	2.0855327650654276	0.05	-1.98968	0.959931
0.0	0.0	2.088282138681063	0.05	-1.98968	0.959931
0.0	0.0	2.091038391778705	0.05	-1.98968	0.959931
0.0	0.0	2.0938014698907317	0.05	-1.98968	0.959931
0.0	0.0	2.0965713183157155	0.05	-1.98968	0.959931
0.0	0.0	2.0993478821205893	0.05	-1.98968	0.959931
0.0	0.0	2.1021311061428007	0.05	-1.98968	0.959931
0.0	0.0	2.1049209349924696	0.05	-1.98968	0.959931
0.0	0.0	2.1077173130545535	0.05	-1.98968	0.959931
0.0	0.0	2.1105201844910004	0.05	-1.98968	0.959931
0.0	0.0	2.1133294932429103	0.05	-1.98968	0.959931
0.0	0.0	2.1161451830326943	0.05	-1.98968	0.959931
0.0	0.0	2.1189671973662336	0.05	-1.98968	0.959931
0.0	0.0	2.121795479535038	0.05	-1.98968	0.959931
0.0	0.0	2.124629972618404	0.05	-1.98968	0.959931
0.0	0.0	2.1274706194855773	0.05	-1.98968	0.959931
0.0	0.0	2.130317362797907	0.05	-1.98968	0.959931
0.0	0.0	2.1331701450110088	0.05	-1.98968	0.959931
0.0	0.0	2.1360289083769226	0.05	-1.98968	0.959931
0.0	0.0	2.138893594946268	0.05	-1.98968	0.959931
0.0	0.0	2.1417641465704103	0.05	-1.98968	0.959931
0.0	0.0	2.144640504903613	0.05	-1.98968	0.959931
0.0	0.0	2.147522611405202	0.05	-1.98968	0.959931
0.0	0.0	2.1504104073417194	0.05	-1.98968	0.959931
0.0	0.0	2.1533038337890873	0.05	-1.98968	0.959931
0.0	0.0	2.156202831634764	0.05	-1.98968	0.959931
0.0	0.0	2.159107341579904	0.05	-1.98968	0.959931
0.0	0.0	2.1620173041415147	0.05	-1.98968	0.959931
0.0	0.0	2.164932659654621	0.05	-1.98968	0.959931
0.0	0.0	2.1678533482744182	0.05	-1.98968	0.959931
0.0	0.0	2.1707793099784345	0.05	-1.98968	0.959931
0.0	0.0	2.173710484568689	0.05	-1.98968	0.959931
0.0	0.0	2.1766468116738498	0.05	-1.98968	0.959931
0.0	0.0	2.1795882307513965	0.05	-1.98968	0.959931
0.0	0.0	2.182534681089774	0.05	-1.98968	0.959931
0.0	0.0	2.185486101810555	0.05	-1.98968	0.959931
0.0	0.0	2.1884424318706004	0.05	-1.98968	0.959931
0.0	0.0	2.191403610064212	0.05	-1.98968	0.959931
0.0	0.0	2.194369575025298	0.05	-1.98968	0.959931
0.0	0.0	2.1973402652295317	0.05	-1.98968	0.959931
0.0	0.0	2.200315618996506	0.05	-1.98968	0.959931
0.0	0.0	2.2032955744918925	0.05	-1.98968	0.959931
0.0	0.0	2.2062800697296083	0.05	-1.98968	0.959931
0.0	0.0	2.2092690425739647	0.05	-1.98968	0.959931
0.0	0.0	2.212262430741836	0.05	-1.98968	0.959931
0.0	0.0	2.215260171804808	0.05	-1.98968	0.959931
0.0	0.0	2.218262203191347	0.05	-1.98968	0.959931
0.0	0.0	2.221268462188953	0.05	-1.98968	0.959931
0.0	0.0	2.22427888594632	0.05	-1.98968	0.959931
0.0	0.0	2.227293411475494	0.05	-1.98968	0.959931
0.0	0.0	2.2303119756540353	0.05	-1.98968	0.959931
0.0	0.0	2.233334515227175	0.05	-1.98968	0.959931
0.0	0.0	2.2363609668099715	0.05	-1.98968	0.959931
0.0	0.0	2.2393912668894767	0.05	-1.98968	0.959931
0.0	0.0	2.2424253518268884	0.05	-1.98968	0.959931
0.0	0.0	2.2454631578597106	0.05	-1.98968	0.959931
0.0	0.0	2.248504621103915	0.05	-1.98968	0.959931
0.0	0.0	2.251549677556099	0.05	-1.98968	0.959931
0.0	0.0	2.254598263095643	0.05	-1.98968	0.959931
0.0	0.0	2.257650313486871	0.05	-1.98968	0.959931
0.0	0.0	2.2607057643812087	0.05	-1.98968	0.959931
0.0	0.0	2.263764551319344	0.05	-1.98968	0.959931
0.0	0.0	2.266826609733385	0.05	-1.98968	0.959931
0.0	0.0	2.269891874949018	0.05	-1.98968	0.959931
0.0	0.0	2.2729602821876695	0.05	-1.98968	0.959931
0.0	0.0	2.276031766568661	0.05	-1.98968	0.959931
0.0	0.0	2.2791062631113714	0.05	-1.98968	0.959931
0.0	0.0	2.282183706737396	0.05	-1.98968	0.959931
0.0	0.0	2.285264032272701	0.05	-1.98968	0.959931
0.0	0.0	2.288347174449791	0.05	-1.98968	0.959931
0.0	0.0	2.2914330679098573	0.05	-1.98968	0.959931
0.0	0.0	2.2945216472049474	0.05	-1.98968	0.959931
0.0	0.0	2.2976128468001162	0.05	-1.98968	0.959931
0.0	0.0	2.3007066010755888	0.05	-1.98968	0.959931
0.0	0.0	2.303802844328919	0.05	-1.98968	0.959931
0.0	0.0	2.306901510777147	0.05	-1.98968	0.959931
0.0	0.0	2.310002534558961	0.05	-1.98968	0.959931
0.0	0.0	2.3131058497368526	0.05	-1.98968	0.959931
0.0	0.0	2.3162113902992796	0.05	-1.98968	0.959931
0.0	0.0	2.3193190901628222	0.05	-1.98968	0.959931
0.0	0.0	2.3224288831743434	0.05	-1.98968	0.959931
0.0	0.0	2.3255407031131456	0.05	-1.98968	0.959931
0.0	0.0	2.328654483693136	0.05	-1.98968	0.959931
0.0	0.0	2.3317701585649777	0.05	-1.98968	0.959931
0.0	0.0	2.3348876613182536	0.05	-1.98968	0.959931
0.0	0.0	2.338006925483622	0.05	-1.98968	0.959931
0.0	0.0	2.3411278845349823	0.05	-1.98968	0.959931
0.0	0.0	2.3442504718916233	0.05	-1.98968	0.959931
0.0	0.0	2.347374620920394	0.05	-1.98968	0.959931
0.0	0.0	2.3505002649378524	0.05	-1.98968	0.959931
0.0	0.0	2.353627337212432	0.05	-1.98968	0.959931
0.0	0.0	2.356755770966597	0.05	-1.98968	0.959931
0.0	0.0	2.3598854993789997	0.05	-1.98968	0.959931
0.0	0.0	2.363016455586647	0.05	-1.98968	0.959931
0.0	0.0	2.3661485726870497	0.05	-1.98968	0.959931
0.0	0.0	2.3692817837403872	0.05	-1.98968	0.959931
0.0	0.0	2.3724160217716674	0.05	-1.98968	0.959931
0.0	0.0	2.3755512197728827	0.05	-1.98968	0.959931
0.0	0.0	2.3786873107051685	0.05	-1.98968	0.959931
0.0	0.0	2.381824227500966	0.05	-1.98968	0.959931
0.0	0.0	2.384961903066178	0.05	-1.98968	0.959931
0.0	0.0	2.388100270282328	0.05	-1.98968	0.959931
0.0	0.0	2.3912392620087224	0.05	-1.98968	0.959931
0.0	0.0	2.3943788110846054	0.05	-1.98968	0.959931
0.0	0.0	2.3975188503313203	0.05	-1.98968	0.959931
0.0	0.0	2.4006593125544677	0.05	-1.98968	0.959931
0.0	0.0	2.4038001305460646	0.05	-1.98968	0.959931
0.0	0.0	2.4069412370867065	0.05	-1.98968	0.959931
0.0	0.0	2.410082564947718	0.05	-1.98968	0.959931
0.0	0.0	2.413224046893324	0.05	-1.98968	0.959931
0.0	0.0	2.4163656156827975	0.05	-1.98968	0.959931
0.0	0.0	2.4195072040726227	0.05	-1.98968	0.959931
0.0	0.0	2.422648744818659	0.05	-1.98968	0.959931
0.0	0.0	2.4257901706782903	0.05	-1.98968	0.959931
0.0	0.0	2.4289314144125926	0.05	-1.98968	0.959931
0.0	0.0	2.4320724087884895	0.05	-1.98968	0.959931
0.0	0.0	2.435213086580909	0.05	-1.98968	0.959931
0.0	0.0	2.4383533805749473	0.05	-1.98968	0.959931
0.0	0.0	2.4414932235680236	0.05	-1.98968	0.959931
0.0	0.0	2.444632548372042	0.05	-1.98968	0.959931
0.0	0.0	2.4477712878155486	0.05	-1.98968	0.959931
0.0	0.0	2.4509093747458923	0.05	-1.98968	0.959931
0.0	0.0	2.4540467420313816	0.05	-1.98968	0.959931
0.0	0.0	2.4571833225634454	0.05	-1.98968	0.959931
0.0	0.0	2.460319049258792	0.05	-1.98968	0.959931
0.0	0.0	2.463453855061564	0.05	-1.98968	0.959931
0.0	0.0	2.4665876729455074	0.05	-1.98968	0.959931
0.0	0.0	2.469720435916119	0.05	-1.98968	0.959931
0.0	0.0	2.4728520770128095	0.05	-1.98968	0.959931
0.0	0.0	2.4759825293110693	0.05	-1.98968	0.959931
0.0	0.0	2.4791117259246143	0.05	-1.98968	0.959931
0.0	0.0	2.4822396000075586	0.05	-1.98968	0.959931
0.0	0.0	2.485366084756563	0.05	-1.98968	0.959931
0.0	0.0	2.4884911134130006	0.05	-1.98968	0.959931
0.0	0.0	2.4916146192651105	0.05	-1.98968	0.959931
0.0	0.0	2.4947365356501647	0.05	-1.98968	0.959931
0.0	0.0	2.4978567959566162	0.05	-1.98968	0.959931
0.0	0.0	2.5009753336262697	0.05	-1.98968	0.959931
0.0	0.0	2.5040920821564296	0.05	-1.98968	0.959931
0.0	0.0	2.5072069751020667	0.05	-1.98968	0.959931
0.0	0.0	2.5103199460779746	0.05	-1.98968	0.959931
0.0	0.0	2.513430928760929	0.05	-1.98968	0.959931
0.0	0.0	2.516539856891848	0.05	-1.98968	0.959931
0.0	0.0	2.5196466642779454	0.05	-1.98968	0.959931
0.0	0.0	2.5227512847948983	0.05	-1.98968	0.959931
0.0	0.0	2.525853652388999	0.05	-1.98968	0.959931
0.0	0.0	2.528953701079319	0.05	-1.98968	0.959931
0.0	0.0	2.5320513649598633	0.05	-1.98968	0.959931
0.0	0.0	2.535146578201734	0.05	-1.98968	0.959931
0.0	0.0	2.538239275055287	0.05	-1.98968	0.959931
0.0	0.0	2.5413293898522893	0.05	-1.98968	0.959931
0.0	0.0	2.544416857008083	0.05	-1.98968	0.959931
0.0	0.0	2.5475016110237383	0.05	-1.98968	0.959931
0.0	0.0	2.5505835864882176	0.05	-1.98968	0.959931
0.0	0.0	2.5536627180805316	0.05	-1.98968	0.959931
0.0	0.0	2.556738940571898	0.05	-1.98968	0.959931
0.0	0.0	2.559812188827902	0.05	-1.98968	0.959931
0.0	0.0	2.562882397810658	0.05	-1.98968	0.959931
0.0	0.0	2.565949502580961	0.05	-1.98968	0.959931
0.0	0.0	2.569013438300452	0.05	-1.98968	0.959931
0.0	0.0	2.572074140233777	0.05	-1.98968	0.959931
0.0	0.0	2.5751315437507394	0.05	-1.98968	0.959931
0.0	0.0	2.578185584328469	0.05	-1.98968	0.959931
0.0	0.0	2.5812361975535723	0.05	-1.98968	0.959931
0.0	0.0	2.5842833191242964	0.05	-1.98968	0.959931
0.0	0.0	2.5873268848526854	0.05	-1.98968	0.959931
0.0	0.0	2.590366830666742	0.05	-1.98968	0.959931
0.0	0.0	2.593403092612584	0.05	-1.98968	0.959931
0.0	0.0	2.5964356068566063	0.05	-1.98968	0.959931
0.0	0.0	2.599464309687634	0.05	-1.98968	0.959931
0.0	0.0	2.6024891375190893	0.05	-1.98968	0.959931
0.0	0.0	2.605510026891145	0.05	-1.98968	0.959931
0.0	0.0	2.6085269144728853	0.05	-1.98968	0.959931
0.0	0.0	2.611539737064465	0.05	-1.98968	0.959931
0.0	0.0	2.6145484315992675	0.05	-1.98968	0.959931
0.0	0.0	2.617552935146064	0.05	-1.98968	0.959931
0.0	0.0	2.6205531849111745	0.05	-1.98968	0.959931
0.0	0.0	2.6235491182406245	0.05	-1.98968	0.959931
0.0	0.0	2.626540672622304	0.05	-1.98968	0.959931
0.0	0.0	2.629527785688129	0.05	-1.98968	0.959931
0.0	0.0	2.632510395216196	0.05	-1.98968	0.959931
0.0	0.0	2.6354884391329487	0.05	-1.98968	0.959931
0.0	0.0	2.638461855515325	0.05	-1.98968	0.959931
0.0	0.0	2.641430582592931	0.05	-1.98968	0.959931
0.0	0.0	2.6443945587501854	0.05	-1.98968	0.959931
0.0	0.0	2.647353722528489	0.05	-1.98968	0.959931
0.0	0.0	2.6503080126283796	0.05	-1.98968	0.959931
0.0	0.0	2.65325736791169	0.05	-1.98968	0.959931
0.0	0.0	2.656201727403709	0.05	-1.98968	0.959931
0.0	0.0	2.6591410302953404	0.05	-1.98968	0.959931
0.0	0.0	2.662075215945261	0.05	-1.98968	0.959931
0.0	0.0	2.665004223882079	0.05	-1.98968	0.959931
0.0	0.0	2.667927993806495	0.05	-1.98968	0.959931
0.0	0.0	2.6708464655934616	0.05	-1.98968	0.959931
0.0	0.0	2.673759579294337	0.05	-1.98968	0.959931
0.0	0.0	2.6766672751390503	0.05	-1.98968	0.959931
0.0	0.0	2.6795694935382564	0.05	-1.98968	0.959931
0.0	0.0	2.6824661750855023	0.05	-1.98968	0.959931
0.0	0.0	2.685357260559371	0.05	-1.98968	0.959931
0.0	0.0	2.688242690925657	0.05	-1.98968	0.959931
0.0	0.0	2.691122407339517	0.05	-1.98968	0.959931
0.0	0.0	2.6939963511476277	0.05	-1.98968	0.959931
0.0	0.0	2.6968644638903503	0.05	-1.98968	0.959931
0.0	0.0	2.6997266873038845	0.05	-1.98968	0.959931
0.0	0.0	2.7025829633224303	0.05	-1.98968	0.959931
0.0	0.0	2.7054332340803455	0.05	-1.98968	0.959931
0.0	0.0	2.708277441914307	0.05	-1.98968	0.959931
0.0	0.0	2.7111155293654683	0.05	-1.98968	0.959931
0.0	0.0	2.713947439181615	0.05	-1.98968	0.959931
0.0	0.0	2.71677311431933	0.05	-1.98968	0.959931
0.0	0.0	2.7195924979461488	0.05	-1.98968	0.959931
0.0	0.0	2.7224055334427226	0.05	-1.98968	0.959931
0.0	0.0	2.72521216440497	0.05	-1.98968	0.959931
0.0	0.0	2.7280123346462424	0.05	-1.98968	0.959931
0.0	0.0	2.7308059881994784	0.05	-1.98968	0.959931
0.0	0.0	2.7335930693193684	0.05	-1.98968	0.959931
0.0	0.0	2.7363735224845085	0.05	-1.98968	0.959931
0.0	0.0	2.7391472923995632	0.05	-1.98968	0.959931
0.0	0.0	2.7419143239974186	0.05	-1.98968	0.959931
0.0	0.0	2.7446745624413507	0.05	-1.98968	0.959931
0.0	0.0	2.747427953127175	0.05	-1.98968	0.959931
0.0	0.0	2.750174441685412	0.05	-1.98968	0.959931
0.0	0.0	2.7529139739834445	0.05	-1.98968	0.959931
0.0	0.0	2.75564649612767	0.05	-1.98968	0.959931
0.0	0.0	2.7583719544656744	0.05	-1.98968	0.959931
0.0	0.0	2.7610902955883776	0.05	-1.98968	0.959931
0.0	0.0	2.763801466332196	0.05	-1.98968	0.959931
0.0	0.0	2.7665054137812057	0.05	-1.98968	0.959931
0.0	0.0	2.7692020852692973	0.05	-1.98968	0.959931
0.0	0.0	2.771891428382334	0.05	-1.98968	0.959931
0.0	0.0	2.7745733909603176	0.05	-1.98968	0.959931
0.0	0.0	2.777247921099539	0.05	-1.98968	0.959931
0.0	0.0	2.7799149671547405	0.05	-1.98968	0.959931
0.0	0.0	2.782574477741277	0.05	-1.98968	0.959931
0.0	0.0	2.7852264017372725	0.05	-1.98968	0.959931
0.0	0.0	2.78787068828578	0.05	-1.98968	0.959931
0.0	0.0	2.7905072867969403	0.05	-1.98968	0.959931
0.0	0.0	2.7931361469501397	0.05	-1.98968	0.959931
0.0	0.0	2.7957572186961706	0.05	-1.98968	0.959931
0.0	0.0	2.7983704522593937	0.05	-1.98968	0.959931
0.0	0.0	2.800975798139889	0.05	-1.98968	0.959931
0.0	0.0	2.8035732071156207	0.05	-1.98968	0.959931
0.0	0.0	2.8061626302445957	0.05	-1.98968	0.959931
0.0	0.0	2.8087440188670203	0.05	-1.98968	0.959931
0.0	0.0	2.811317324607464	0.05	-1.98968	0.959931
0.0	0.0	2.8138824993770113	0.05	-1.98968	0.959931
0.0	0.0	2.8164394953754255	0.05	-1.98968	0.959931
0.0	0.0	2.8189882650933082	0.05	-1.98968	0.959931
0.0	0.0	2.821528761314256	0.05	-1.98968	0.959931
0.0	0.0	2.824060937117019	0.05	-1.98968	0.959931
0.0	0.0	2.826584745877664	0.05	-1.98968	0.959931
0.0	0.0	2.829100141271729	0.05	-1.98968	0.959931
0.0	0.0	2.8316070772763835	0.05	-1.98968	0.959931
0.0	0.0	2.8341055081725908	0.05	-1.98968	0.959931
0.0	0.0	2.8365953885472592	0.05	-1.98968	0.959931
0.0	0.0	2.839076673295411	0.05	-1.98968	0.959931
0.0	0.0	2.8415493176223316	0.05	-1.98968	0.959931
0.0	0.0	2.8440132770457396	0.05	-1.98968	0.959931
0.0	0.0	2.8464685073979323	0.05	-1.98968	0.959931
0.0	0.0	2.8489149648279586	0.05	-1.98968	0.959931
0.0	0.0	2.8513526058037666	0.05	-1.98968	0.959931
0.0	0.0	2.8537813871143696	0.05	-1.98968	0.959931
0.0	0.0	2.856201265872003	0.05	-1.98968	0.959931
0.0	0.0	2.8586121995142815	0.05	-1.98968	0.959931
0.0	0.0	2.8610141458063643	0.05	-1.98968	0.959931
0.0	0.0	2.863407062843101	0.05	-1.98968	0.959931
0.0	0.0	2.865790909051209	0.05	-1.98968	0.959931
0.0	0.0	2.868165643191418	0.05	-1.98968	0.959931
0.0	0.0	2.8705312243606325	0.05	-1.98968	0.959931
0.0	0.0	2.872887611994096	0.05	-1.98968	0.959931
0.0	0.0	2.875234765867541	0.05	-1.98968	0.959931
0.0	0.0	2.8775726460993565	0.05	-1.98968	0.959931
0.0	0.0	2.879901213152745	0.05	-1.98968	0.959931
0.0	0.0	2.882220427837878	0.05	-1.98968	0.959931
0.0	0.0	2.8845302513140556	0.05	-1.98968	0.959931
0.0	0.0	2.8868306450918686	0.05	-1.98968	0.959931
0.0	0.0	2.889121571035359	0.05	-1.98968	0.959931
0.0	0.0	2.8914029913641683	0.05	-1.98968	0.959931
0.0	0.0	2.893674868655711	0.05	-1.98968	0.959931
0.0	0.0	2.895937165847326	0.05	-1.98968	0.959931
0.0	0.0	2.8981898462384326	0.05	-1.98968	0.959931
0.0	0.0	2.900432873492698	0.05	-1.98968	0.959931
0.0	0.0	2.9026662116401862	0.05	-1.98968	0.959931
0.0	0.0	2.904889825079528	0.05	-1.98968	0.959931
0.0	0.0	2.907103678580071	0.05	-1.98968	0.959931
0.0	0.0	2.909307737284042	0.05	-1.98968	0.959931
0.0	0.0	2.911501966708707	0.05	-1.98968	0.959931
0.0	0.0	2.91368633274853	0.05	-1.98968	0.959931
0.0	0.0	2.9158608016773297	0.05	-1.98968	0.959931
0.0	0.0	2.91802534015044	0.05	-1.98968	0.959931
0.0	0.0	2.9201799152068713	0.05	-1.98968	0.959931
0.0	0.0	2.9223244942714635	0.05	-1.98968	0.959931
0.0	0.0	2.924459045157054	0.05	-1.98968	0.959931
0.0	0.0	2.9265835360666257	0.05	-1.98968	0.959931
0.0	0.0	2.9286979355954736	0.05	-1.98968	0.959931
0.0	0.0	2.9308022127333664	0.05	-1.98968	0.959931
0.0	0.0	2.9328963368666967	0.05	-1.98968	0.959931
0.0	0.0	2.9349802777806415	0.05	-1.98968	0.959931
0.0	0.0	2.937054005661333	0.05	-1.98968	0.959931
0.0	0.0	2.939117491098002	0.05	-1.98968	0.959931
0.0	0.0	2.9411707050851437	0.05	-1.98968	0.959931
0.0	0.0	2.943213619024679	0.05	-1.98968	0.959931
0.0	0.0	2.9452462047281127	0.05	-1.98968	0.959931
0.0	0.0	2.9472684344186852	0.05	-1.98968	0.959931
0.0	0.0	2.949280280733544	0.05	-1.98968	0.959931
0.0	0.0	2.951281716725891	0.05	-1.98968	0.959931
0.0	0.0	2.953272715867148	0.05	-1.98968	0.959931
0.0	0.0	2.9552532520491157	0.05	-1.98968	0.959931
0.0	0.0	2.9572232995861274	0.05	-1.98968	0.959931
0.0	0.0	2.959182833217219	0.05	-1.98968	0.959931
0.0	0.0	2.9611318281082744	0.05	-1.98968	0.959931
0.0	0.0	2.963070259854189	0.05	-1.98968	0.959931
0.0	0.0	2.96499810448104	0.05	-1.98968	0.959931
0.0	0.0	2.9669153384482256	0.05	-1.98968	0.959931
0.0	0.0	2.9688219386506445	0.05	-1.98968	0.959931
0.0	0.0	2.9707178824208356	0.05	-1.98968	0.959931
0.0	0.0	2.972603147531152	0.05	-1.98968	0.959931
0.0	0.0	2.974477712195914	0.05	-1.98968	0.959931
0.0	0.0	2.976341555073564	0.05	-1.98968	0.959931
0.0	0.0	2.9781946552688363	0.05	-1.98968	0.959931
0.0	0.0	2.980036992334903	0.05	-1.98968	0.959931
0.0	0.0	2.981868546275546	0.05	-1.98968	0.959931
0.0	0.0	2.983689297547306	0.05	-1.98968	0.959931
0.0	0.0	2.9854992270616476	0.05	-1.98968	0.959931
0.0	0.0	2.987298316187113	0.05	-1.98968	0.959931
0.0	0.0	2.989086546751483	0.05	-1.98968	0.959931
0.0	0.0	2.990863901043944	0.05	-1.98968	0.959931
0.0	0.0	2.9926303618172336	0.05	-1.98968	0.959931
0.0	0.0	2.9943859122898084	0.05	-1.98968	0.959931
0.0	0.0	2.9961305361479984	0.05	-1.98968	0.959931
0.0	0.0	2.9978642175481713	0.05	-1.98968	0.959931
0.0	0.0	2.9995869411188862	0.05	-1.98968	0.959931
0.0	0.0	3.0012986919630564	0.05	-1.98968	0.959931
0.0	0.0	3.0029994556601047	0.05	-1.98968	0.959931
0.0	0.0	3.0046892182681275	0.05	-1.98968	0.959931
0.0	0.0	3.006367966326049	0.05	-1.98968	0.959931
0.0	0.0	3.00803568685578	0.05	-1.98968	0.959931
0.0	0.0	3.009692367364383	0.05	-1.98968	0.959931
0.0	0.0	3.011337995846228	0.05	-1.98968	0.959931
0.0	0.0	3.0129725607851414	0.05	-1.98968	0.959931
0.0	0.0	3.0145960511565892	0.05	-1.98968	0.959931
0.0	0.0	3.016208456429806	0.05	-1.98968	0.959931
0.0	0.0	3.0178097665699783	0.05	-1.98968	0.959931
0.0	0.0	3.019399972040393	0.05	-1.98968	0.959931
0.0	0.0	3.0209790638045977	0.05	-1.98968	0.959931
0.0	0.0	3.0225470333285576	0.05	-1.98968	0.959931
0.0	0.0	3.0241038725828155	0.05	-1.98968	0.959931
0.0	0.0	3.0256495740446594	0.05	-1.98968	0.959931
0.0	0.0	3.027184130700263	0.05	-1.98968	0.959931
0.0	0.0	3.028707536046866	0.05	-1.98968	0.959931
0.0	0.0	3.030219784094919	0.05	-1.98968	0.959931
0.0	0.0	3.031720869370242	0.05	-1.98968	0.959931
0.0	0.0	3.033210786916195	0.05	-1.98968	0.959931
0.0	0.0	3.0346895322958263	0.05	-1.98968	0.959931
0.0	0.0	3.036157101594036	0.05	-1.98968	0.959931
0.0	0.0	3.0376134914197315	0.05	-1.98968	0.959931
0.0	0.0	3.0390586989079913	0.05	-1.98968	0.959931
0.0	0.0	3.040492721722223	0.05	-1.98968	0.959931
0.0	0.0	3.041915558056318	0.05	-1.98968	0.959931
0.0	0.0	3.0433272066368167	0.05	-1.98968	0.959931
0.0	0.0	3.0447276667250596	0.05	-1.98968	0.959931
0.0	0.0	3.046116938119356	0.05	-1.98968	0.959931
0.0	0.0	3.0474950211571343	0.05	-1.98968	0.959931
0.0	0.0	3.048861916717111	0.05	-1.98968	0.959931
0.0	0.0	3.0502176262214356	0.05	-1.98968	0.959931
0.0	0.0	3.0515621516378633	0.05	-1.98968	0.959931
0.0	0.0	3.0528954954819043	0.05	-1.98968	0.959931
0.0	0.0	3.054217660818989	0.05	-1.98968	0.959931
0.0	0.0	3.055528651266624	0.05	-1.98968	0.959931
0.0	0.0	3.0568284709965545	0.05	-1.98968	0.959931
0.0	0.0	3.058117124736914	0.05	-1.98968	0.959931
0.0	0.0	3.059394617774397	0.05	-1.98968	0.959931
0.0	0.0	3.0606609559564095	0.05	-1.98968	0.959931
0.0	0.0	3.0619161456932247	0.05	-1.98968	0.959931
0.0	0.0	3.063160193960154	0.05	-1.98968	0.959931
0.0	0.0	3.0643931082996914	0.05	-1.98968	0.959931
0.0	0.0	3.0656148968236856	0.05	-1.98968	0.959931
0.0	0.0	3.066825568215493	0.05	-1.98968	0.959931
0.0	0.0	3.0680251317321314	0.05	-1.98968	0.959931
0.0	0.0	3.0692135972064505	0.05	-1.98968	0.959931
0.0	0.0	3.0703909750492815	0.05	-1.98968	0.959931
0.0	0.0	3.0715572762516063	0.05	-1.98968	0.959931
0.0	0.0	3.0727125123867003	0.05	-1.98968	0.959931
0.0	0.0	3.0738566956123052	0.05	-1.98968	0.959931
0.0	0.0	3.0749898386727867	0.05	-1.98968	0.959931
0.0	0.0	3.076111954901288	0.05	-1.98968	0.959931
0.0	0.0	3.0772230582218905	0.05	-1.98968	0.959931
0.0	0.0	3.078323163151775	0.05	-1.98968	0.959931
0.0	0.0	3.0794122848033765	0.05	-1.98968	0.959931
0.0	0.0	3.0804904388865477	0.05	-1.98968	0.959931
0.0	0.0	3.0815576417107264	0.05	-1.98968	0.959931
0.0	0.0	3.082613910187065	0.05	-1.98968	0.959931
0.0	0.0	3.083659261830627	0.05	-1.98968	0.959931
0.0	0.0	3.0846937147625146	0.05	-1.98968	0.959931
0.0	0.0	3.0857172877120527	0.05	-1.98968	0.959931
0.0	0.0	3.08673000001893	0.05	-1.98968	0.959931
0.0	0.0	3.08773187163536	0.05	-1.98968	0.959931
0.0	0.0	3.088722923128255	0.05	-1.98968	0.959931
0.0	0.0	3.0897031756813664	0.05	-1.98968	0.959931
0.0	0.0	3.0906726510974565	0.05	-1.98968	0.959931
0.0	0.0	3.0916313718004513	0.05	-1.98968	0.959931
0.0	0.0	3.0925793608376018	0.05	-1.98968	0.959931
0.0	0.0	3.093516641881634	0.05	-1.98968	0.959931
0.0	0.0	3.0944432392329295	0.05	-1.98968	0.959931
0.0	0.0	3.0953591778216647	0.05	-1.98968	0.959931
0.0	0.0	3.096264483209976	0.05	-1.98968	0.959931
0.0	0.0	3.0971591815941193	0.05	-1.98968	0.959931
0.0	0.0	3.098043299806624	0.05	-1.98968	0.959931
0.0	0.0	3.0989168653184676	0.05	-1.98968	0.959931
0.0	0.0	3.0997799062412192	0.05	-1.98968	0.959931
0.0	0.0	3.100632451329198	0.05	-1.98968	0.959931
0.0	0.0	3.1014745299816435	0.05	-1.98968	0.959931
0.0	0.0	3.10230617224487	0.05	-1.98968	0.959931
0.0	0.0	3.103127408814413	0.05	-1.98968	0.959931
